ImageMetalling-05/ImageMetalling-05/Luts/filter2.cube
#Generated by Picture Instruments - Look Creator
TITLE "V50"
LUT_3D_SIZE 5
0 0 0
0.196078 0 0
0.470588 0.00392157 0.00392157
0.721569 0.00784314 0.0196078
0.890196 0.0117647 0.141176
0.00392157 0.211765 0.0862745
0.164706 0.2 0.0392157
0.533333 0.129412 0.0156863
0.8 0.0392157 0.129412
0.956863 0 0.235294
0.0156863 0.529412 0.235294
0 0.533333 0.2
0.615686 0.486275 0.00392157
0.894118 0.423529 0.231373
0.996078 0.305882 0.415686
0.0235294 0.858824 0.4
0 0.882353 0.403922
0.0235294 0.886275 0.356863
0.988235 0.796078 0.00784314
0.996078 0.768627 0.482353
0.027451 0.980392 0.545098
0 0.996078 0.552941
0.00392157 0.996078 0.560784
0.235294 0.992157 0.356863
0.996078 0.992157 0.0117647
0.027451 0.00784314 0.0901961
0.188235 0 0.0862745
0.447059 0.00392157 0.0823529
0.705882 0.00784314 0.0980392
0.878431 0.0117647 0.192157
0.0352941 0.196078 0.160784
0.180392 0.176471 0.180392
0.498039 0.121569 0.188235
0.776471 0.027451 0.207843
0.937255 0 0.270588
0.0392157 0.533333 0.282353
0 0.529412 0.298039
0.509804 0.482353 0.282353
0.862745 0.419608 0.341176
0.996078 0.305882 0.466667
0.0352941 0.870588 0.403922
0.00392157 0.882353 0.415686
0.0745098 0.87451 0.27451
0.960784 0.803922 0.262745
0.992157 0.764706 0.568627
0.0313725 0.984314 0.545098
0 0.996078 0.552941
0.00392157 0.996078 0.560784
0.278431 0.992157 0.329412
0.992157 0.992157 0.0431373
0 0 0.286275
0.180392 0 0.243137
0.431373 0 0.2
0.698039 0 0.192157
0.847059 0.00784314 0.254902
0 0.172549 0.403922
0.192157 0.145098 0.345098
0.470588 0.0901961 0.309804
0.752941 0 0.290196
0.905882 0.00784314 0.337255
0 0.521569 0.572549
0 0.501961 0.52549
0.466667 0.470588 0.466667
0.835294 0.403922 0.462745
0.952941 0.294118 0.529412
0.00392157 0.882353 0.427451
0 0.886275 0.478431
0.0313725 0.866667 0.529412
0.854902 0.803922 0.556863
0.960784 0.768627 0.690196
0.0235294 0.976471 0.568627
0.0313725 0.976471 0.564706
0.0352941 0.972549 0.564706
0.8 0.976471 0.0470588
0.964706 0.980392 0.545098
0.0392157 0.0196078 0.396078
0.184314 0.0196078 0.376471
0.415686 0.0235294 0.329412
0.666667 0.0196078 0.282353
0.807843 0.0156863 0.321569
0.0352941 0.0823529 0.505882
0.231373 0.0823529 0.470588
0.462745 0.027451 0.435294
0.729412 0 0.4
0.847059 0 0.388235
0.0392157 0.462745 0.72549
0.0470588 0.45098 0.698039
0.47451 0.427451 0.639216
0.811765 0.360784 0.6
0.960784 0.243137 0.611765
0.0352941 0.854902 0.980392
0 0.847059 0.956863
0.0705882 0.823529 0.862745
0.788235 0.792157 0.788235
0.996078 0.756863 0.823529
0.027451 0.980392 0.552941
0 0.996078 0.647059
0 0.996078 0.866667
0.568627 0.996078 0.831373
0.996078 0.992157 0.866667
0.141176 0 0.505882
0.262745 0 0.490196
0.435294 0 0.454902
0.662745 0 0.388235
0.772549 0.00392157 0.388235
0.207843 0 0.580392
0.317647 0 0.54902
0.470588 0 0.533333
0.694118 0 0.454902
0.780392 0.00392157 0.407843
0.168627 0.364706 0.811765
0.352941 0.34902 0.792157
0.545098 0.32549 0.756863
0.803922 0.278431 0.686275
0.905882 0.121569 0.619608
0 0.788235 0.992157
0 0.780392 0.992157
0.372549 0.772549 0.984314
0.819608 0.752941 0.913725
0.984314 0.74902 0.87451
0.027451 0.980392 0.980392
0.027451 0.984314 0.984314
0.027451 0.984314 0.984314
0.67451 0.988235 0.988235
0.988235 0.992157 0.988235
