ImageMetalling-05/ImageMetalling-05/Luts/filter3.cube
#Created by: Adobe Photoshop Export Color Lookup Plugin
#Copyright: (C) Copyright 2015 Denis Svinarchuk
TITLE "IMG_3085.JPG"
#LUT size
LUT_3D_SIZE 5
#data domain
#LUT data points
DOMAIN_MIN 0.000000 0.000000 0.000000
DOMAIN_MAX 0.903226 0.903226 0.903226
0.000000 0.000000 0.000000
0.150330 0.150330 0.150330
0.414124 0.414124 0.414124
0.576477 0.576477 0.576477
0.699951 0.699951 0.699951
0.140930 0.140930 0.140930
0.273163 0.273163 0.273163
0.489990 0.489990 0.489990
0.586578 0.586578 0.586578
0.699951 0.699951 0.699951
0.388275 0.388275 0.388275
0.434998 0.434998 0.434998
0.752655 0.752655 0.752655
1.000000 1.000000 1.000000
1.000000 1.000000 1.000000
0.540497 0.540497 0.540497
0.548706 0.548706 0.548706
0.957336 0.957336 0.957336
1.000000 1.000000 1.000000
1.000000 1.000000 1.000000
0.656250 0.656250 0.656250
0.656250 0.656250 0.656250
0.992065 0.992065 0.992065
1.000000 1.000000 1.000000
1.000000 1.000000 1.000000
0.265198 0.265198 0.265198
0.213440 0.213440 0.213440
0.461426 0.461426 0.461426
0.567139 0.567139 0.567139
0.667114 0.667114 0.667114
0.225372 0.225372 0.225372
0.213440 0.213440 0.213440
0.519348 0.519348 0.519348
0.707611 0.707611 0.707611
0.850739 0.850739 0.850739
0.430328 0.430328 0.430328
0.514923 0.514923 0.514923
0.692932 0.692932 0.692932
0.924103 0.924103 0.924103
1.000000 1.000000 1.000000
0.542206 0.542206 0.542206
0.700439 0.700439 0.700439
0.878906 0.878906 0.878906
0.988037 0.988037 0.988037
1.000000 1.000000 1.000000
0.656250 0.656250 0.656250
0.841522 0.841522 0.841522
0.965271 0.965271 0.965271
1.000000 1.000000 1.000000
1.000000 1.000000 1.000000
0.730713 0.730713 0.730713
0.675446 0.675446 0.675446
0.588104 0.588104 0.588104
0.870422 0.870422 0.870422
0.965424 0.965424 0.965424
0.717590 0.717590 0.717590
0.678955 0.678955 0.678955
0.588104 0.588104 0.588104
0.834381 0.834381 0.834381
0.954590 0.954590 0.954590
0.621002 0.621002 0.621002
0.609070 0.609070 0.609070
0.588104 0.588104 0.588104
0.776398 0.776398 0.776398
0.919556 0.919556 0.919556
0.796753 0.796753 0.796753
0.794861 0.794861 0.794861
0.773651 0.773651 0.773651
0.883209 0.883209 0.883209
1.000000 1.000000 1.000000
0.881836 0.881836 0.881836
0.923340 0.923340 0.923340
0.914734 0.914734 0.914734
1.000000 1.000000 1.000000
1.000000 1.000000 1.000000
1.000000 1.000000 1.000000
0.957489 0.957489 0.957489
0.880554 0.880554 0.880554
0.818695 0.818695 0.818695
1.000000 1.000000 1.000000
1.000000 1.000000 1.000000
0.965454 0.965454 0.965454
0.876740 0.876740 0.876740
0.818695 0.818695 0.818695
1.000000 1.000000 1.000000
0.928314 0.928314 0.928314
0.914276 0.914276 0.914276
0.874603 0.874603 0.874603
0.818695 0.818695 0.818695
0.994354 0.994354 0.994354
0.864502 0.864502 0.864502
0.852570 0.852570 0.852570
0.831604 0.831604 0.831604
0.818695 0.818695 0.818695
0.961884 0.961884 0.961884
1.000000 1.000000 1.000000
0.994049 0.994049 0.994049
0.971436 0.971436 0.971436
0.959808 0.959808 0.959808
1.000000 1.000000 1.000000
1.000000 1.000000 1.000000
1.000000 1.000000 1.000000
1.000000 1.000000 1.000000
1.000000 1.000000 1.000000
0.994049 0.994049 0.994049
1.000000 1.000000 1.000000
1.000000 1.000000 1.000000
1.000000 1.000000 1.000000
1.000000 1.000000 1.000000
0.994049 0.994049 0.994049
1.000000 1.000000 1.000000
1.000000 1.000000 1.000000
1.000000 1.000000 1.000000
1.000000 1.000000 1.000000
0.994049 0.994049 0.994049
1.000000 1.000000 1.000000
1.000000 1.000000 1.000000
1.000000 1.000000 1.000000
1.000000 1.000000 1.000000
0.994049 0.994049 0.994049
1.000000 1.000000 1.000000
1.000000 1.000000 1.000000
1.000000 1.000000 1.000000
1.000000 1.000000 1.000000
0.994049 0.994049 0.994049
