ImageMetalling-05/ImageMetalling-05/Luts/filter2.cube
#Generated by Picture Instruments - Look Creator
TITLE "V50"
LUT_3D_SIZE 9
0 0 0
0.0705882 0 0.00392157
0.196078 0 0
0.360784 0.00392157 0.00392157
0.470588 0.00392157 0.00392157
0.596078 0.00784314 0.00784314
0.721569 0.00784314 0.0196078
0.839216 0.0117647 0.0509804
0.890196 0.0117647 0.141176
0.00392157 0.0784314 0.0235294
0.0627451 0.0666667 0.0196078
0.176471 0.0509804 0.00392157
0.372549 0.00784314 0
0.498039 0 0.00392157
0.619608 0 0.00784314
0.752941 0 0.0470588
0.87451 0 0.0862745
0.921569 0 0.176471
0.00392157 0.211765 0.0862745
0.00392157 0.207843 0.0862745
0.164706 0.2 0.0392157
0.4 0.168627 0.00392157
0.533333 0.129412 0.0156863
0.670588 0.0705882 0.0666667
0.8 0.0392157 0.129412
0.921569 0 0.176471
0.956863 0 0.235294
0.0117647 0.376471 0.168627
0.00392157 0.372549 0.156863
0.0392157 0.372549 0.12549
0.392157 0.352941 0.0156863
0.572549 0.321569 0.0470588
0.705882 0.294118 0.117647
0.85098 0.247059 0.192157
0.976471 0.12549 0.254902
0.996078 0.0313725 0.333333
0.0156863 0.529412 0.235294
0 0.533333 0.231373
0 0.533333 0.2
0.211765 0.517647 0.0901961
0.615686 0.486275 0.00392157
0.74902 0.458824 0.117647
0.894118 0.423529 0.231373
0.992157 0.384314 0.313725
0.996078 0.305882 0.415686
0.0196078 0.694118 0.321569
0 0.698039 0.321569
0 0.701961 0.309804
0.0235294 0.694118 0.243137
0.443137 0.670588 0.0470588
0.807843 0.635294 0.0235294
0.945098 0.611765 0.2
0.996078 0.580392 0.360784
0.996078 0.54902 0.482353
0.0235294 0.858824 0.4
0 0.87451 0.407843
0 0.882353 0.403922
0.00392157 0.886275 0.411765
0.0235294 0.886275 0.356863
0.686275 0.843137 0.0156863
0.988235 0.796078 0.00784314
0.996078 0.780392 0.298039
0.996078 0.768627 0.482353
0.027451 0.976471 0.486275
0 0.988235 0.482353
0 0.992157 0.482353
0 0.996078 0.494118
0.00392157 0.996078 0.509804
0.0156863 0.992157 0.458824
0.87451 0.972549 0.00784314
0.992157 0.956863 0.00784314
0.996078 0.941176 0.352941
0.027451 0.980392 0.545098
0 0.996078 0.552941
0 0.996078 0.552941
0 0.996078 0.552941
0.00392157 0.996078 0.560784
0 0.996078 0.568627
0.235294 0.992157 0.356863
0.992157 0.992157 0.00392157
0.996078 0.992157 0.0117647
0.027451 0.0117647 0.027451
0.0666667 0 0.0313725
0.2 0 0.0235294
0.341176 0.00392157 0.0196078
0.454902 0.00784314 0.0235294
0.584314 0.00784314 0.0235294
0.713725 0.0117647 0.0509804
0.835294 0.0117647 0.0901961
0.886275 0.0117647 0.160784
0.0313725 0.0666667 0.0705882
0.0588235 0.054902 0.0588235
0.2 0.0352941 0.0392157
0.356863 0.0117647 0.0352941
0.478431 0 0.0470588
0.607843 0 0.054902
0.741176 0 0.0823529
0.866667 0 0.117647
0.909804 0 0.196078
0.0352941 0.203922 0.121569
0 0.196078 0.113725
0.196078 0.188235 0.0823529
0.376471 0.164706 0.0784314
0.513725 0.121569 0.109804
0.654902 0.0588235 0.12549
0.792157 0.0352941 0.164706
0.909804 0 0.192157
0.94902 0 0.243137
0.0392157 0.376471 0.192157
0 0.372549 0.192157
0.0823529 0.368627 0.172549
0.392157 0.345098 0.105882
0.541176 0.329412 0.14902
0.694118 0.294118 0.188235
0.839216 0.235294 0.231373
0.968627 0.0980392 0.278431
0.992157 0.00784314 0.356863
0.0392157 0.529412 0.231373
0 0.533333 0.235294
0 0.533333 0.231373
0.231373 0.513725 0.137255
0.560784 0.486275 0.133333
0.717647 0.458824 0.219608
0.878431 0.423529 0.286275
0.988235 0.380392 0.34902
0.992157 0.301961 0.439216
0.0352941 0.694118 0.321569
0 0.698039 0.321569
0 0.698039 0.313725
0.0666667 0.690196 0.231373
0.486275 0.670588 0.0470588
0.756863 0.639216 0.137255
0.92549 0.607843 0.294118
0.996078 0.572549 0.403922
0.996078 0.54902 0.501961
0.0352941 0.870588 0.403922
0 0.87451 0.407843
0 0.878431 0.411765
0.00392157 0.882353 0.415686
0.0509804 0.882353 0.317647
0.717647 0.839216 0.00784314
0.976471 0.8 0.0862745
0.996078 0.776471 0.364706
0.996078 0.768627 0.517647
0.0352941 0.980392 0.486275
0 0.992157 0.482353
0 0.996078 0.494118
0 0.996078 0.494118
0.00392157 0.996078 0.509804
0.0156863 0.992157 0.447059
0.913725 0.964706 0.0117647
0.992157 0.952941 0.00784314
0.996078 0.945098 0.4
0.0313725 0.984314 0.545098
0 0.996078 0.552941
0 0.996078 0.552941
0 0.996078 0.552941
0.00392157 0.996078 0.560784
0 0.996078 0.568627
0.176471 0.992157 0.380392
0.992157 0.992157 0
0.996078 0.992157 0.0196078
0.027451 0.00784314 0.0901961
0.0509804 0 0.101961
0.188235 0 0.0862745
0.321569 0.00392157 0.0823529
0.447059 0.00392157 0.0823529
0.568627 0.00784314 0.0745098
0.705882 0.00784314 0.0980392
0.831373 0.0117647 0.121569
0.878431 0.0117647 0.192157
0.0313725 0.0588235 0.109804
0.0392157 0.0509804 0.129412
0.188235 0.0235294 0.121569
0.333333 0.00392157 0.109804
0.466667 0 0.109804
0.603922 0 0.109804
0.733333 0 0.133333
0.854902 0 0.152941
0.901961 0 0.211765
0.0352941 0.196078 0.160784
0 0.196078 0.184314
0.180392 0.176471 0.180392
0.356863 0.152941 0.176471
0.498039 0.121569 0.188235
0.635294 0.0470588 0.180392
0.776471 0.027451 0.207843
0.905882 0 0.223529
0.937255 0 0.270588
0.0392157 0.364706 0.239216
0 0.368627 0.247059
0.0823529 0.360784 0.247059
0.360784 0.341176 0.235294
0.513725 0.321569 0.239216
0.682353 0.290196 0.25098
0.823529 0.223529 0.282353
0.964706 0.0784314 0.313725
0.992157 0.00784314 0.384314
0.0392157 0.533333 0.282353
0 0.529412 0.290196
0 0.529412 0.298039
0.227451 0.501961 0.266667
0.509804 0.482353 0.282353
0.698039 0.458824 0.305882
0.862745 0.419608 0.341176
0.988235 0.364706 0.388235
0.996078 0.305882 0.466667
0.0352941 0.694118 0.317647
0 0.701961 0.333333
0 0.701961 0.333333
0.0588235 0.690196 0.278431
0.478431 0.666667 0.219608
0.713725 0.639216 0.294118
0.905882 0.607843 0.356863
0.996078 0.572549 0.439216
0.996078 0.552941 0.533333
0.0352941 0.870588 0.403922
0 0.878431 0.411765
0.00392157 0.882353 0.415686
0.00392157 0.886275 0.403922
0.0745098 0.87451 0.27451
0.733333 0.839216 0.0627451
0.960784 0.803922 0.262745
0.996078 0.780392 0.435294
0.992157 0.764706 0.568627
0.0313725 0.980392 0.486275
0 0.996078 0.494118
0 0.996078 0.494118
0 0.996078 0.501961
0.00392157 0.996078 0.513725
0.0196078 0.988235 0.396078
0.964706 0.968627 0.0117647
0.996078 0.956863 0.141176
0.996078 0.94902 0.482353
0.0313725 0.984314 0.545098
0 0.996078 0.552941
0 0.996078 0.552941
0.00392157 0.996078 0.560784
0.00392157 0.996078 0.560784
0 0.996078 0.560784
0.278431 0.992157 0.329412
0.992157 0.992157 0
0.992157 0.992157 0.0431373
0 0 0.196078
0.054902 0 0.180392
0.188235 0 0.164706
0.313725 0 0.152941
0.443137 0 0.137255
0.568627 0 0.137255
0.705882 0 0.145098
0.827451 0 0.160784
0.866667 0.00784314 0.227451
0 0.0470588 0.223529
0.0235294 0.0352941 0.219608
0.184314 0.0117647 0.2
0.329412 0 0.180392
0.458824 0 0.172549
0.584314 0 0.172549
0.72549 0 0.184314
0.847059 0 0.192157
0.882353 0.00784314 0.254902
0 0.192157 0.286275
0.00392157 0.180392 0.290196
0.176471 0.168627 0.27451
0.345098 0.141176 0.247059
0.486275 0.109804 0.243137
0.623529 0.027451 0.247059
0.764706 0.00392157 0.25098
0.898039 0 0.262745
0.917647 0.0117647 0.305882
0.00392157 0.368627 0.356863
0 0.364706 0.380392
0.0705882 0.34902 0.368627
0.333333 0.337255 0.333333
0.498039 0.313725 0.321569
0.662745 0.278431 0.321569
0.819608 0.215686 0.333333
0.94902 0.0862745 0.34902
0.94902 0.0313725 0.411765
0 0.52549 0.380392
0 0.52549 0.407843
0 0.517647 0.423529
0.196078 0.494118 0.396078
0.482353 0.478431 0.376471
0.678431 0.454902 0.372549
0.847059 0.407843 0.403922
0.988235 0.356863 0.427451
0.960784 0.298039 0.498039
0 0.701961 0.372549
0.00392157 0.701961 0.403922
0.00392157 0.698039 0.415686
0.0470588 0.682353 0.411765
0.4 0.662745 0.403922
0.682353 0.639216 0.403922
0.87451 0.611765 0.443137
0.992157 0.576471 0.490196
0.960784 0.560784 0.576471
0 0.87451 0.403922
0 0.882353 0.403922
0.00392157 0.886275 0.415686
0 0.890196 0.403922
0.0392157 0.870588 0.313725
0.690196 0.835294 0.203922
0.913725 0.807843 0.411765
0.996078 0.776471 0.513725
0.960784 0.772549 0.623529
0 0.996078 0.498039
0 0.996078 0.505882
0 0.996078 0.505882
0 0.996078 0.505882
0 0.996078 0.501961
0.129412 0.988235 0.27451
0.988235 0.972549 0.0117647
0.996078 0.956863 0.380392
0.960784 0.945098 0.584314
0.027451 0.976471 0.560784
0.027451 0.976471 0.560784
0.027451 0.976471 0.564706
0.0352941 0.972549 0.564706
0.0392157 0.972549 0.564706
0.0431373 0.968627 0.556863
0.462745 0.972549 0.2
0.984314 0.980392 0.0431373
0.960784 0.980392 0.337255
0 0 0.286275
0.0627451 0 0.254902
0.180392 0 0.243137
0.309804 0 0.215686
0.431373 0 0.2
0.560784 0 0.196078
0.698039 0 0.192157
0.815686 0 0.203922
0.847059 0.00784314 0.254902
0 0.0156863 0.329412
0.0509804 0.00392157 0.290196
0.188235 0.00784314 0.270588
0.321569 0 0.25098
0.443137 0 0.235294
0.572549 0 0.235294
0.709804 0 0.223529
0.835294 0 0.231373
0.870588 0.00784314 0.282353
0 0.172549 0.403922
0.0117647 0.160784 0.364706
0.192157 0.145098 0.345098
0.333333 0.117647 0.321569
0.470588 0.0901961 0.309804
0.607843 0.0352941 0.301961
0.752941 0 0.290196
0.882353 0 0.294118
0.905882 0.00784314 0.337255
0 0.356863 0.505882
0.00392157 0.345098 0.478431
0.101961 0.333333 0.439216
0.329412 0.321569 0.411765
0.490196 0.301961 0.396078
0.65098 0.270588 0.388235
0.807843 0.192157 0.384314
0.933333 0.0666667 0.388235
0.945098 0.0352941 0.443137
0 0.521569 0.572549
0 0.517647 0.564706
0 0.501961 0.52549
0.196078 0.482353 0.490196
0.466667 0.470588 0.466667
0.662745 0.439216 0.458824
0.835294 0.403922 0.462745
0.976471 0.360784 0.482353
0.952941 0.294118 0.529412
0 0.694118 0.568627
0 0.698039 0.592157
0 0.686275 0.603922
0.0470588 0.666667 0.54902
0.34902 0.65098 0.52549
0.654902 0.631373 0.513725
0.85098 0.611765 0.52549
0.996078 0.568627 0.556863
0.956863 0.556863 0.627451
0.00392157 0.882353 0.427451
0 0.882353 0.439216
0 0.886275 0.478431
0 0.886275 0.545098
0.0313725 0.866667 0.529412
0.556863 0.831373 0.529412
0.854902 0.803922 0.556863
0.996078 0.776471 0.607843
0.960784 0.768627 0.690196
0 0.996078 0.505882
0 0.996078 0.505882
0 0.996078 0.505882
0 0.996078 0.501961
0 0.996078 0.501961
0.258824 0.992157 0.254902
0.929412 0.972549 0.341176
0.992157 0.956863 0.568627
0.964706 0.945098 0.694118
0.0235294 0.976471 0.568627
0.027451 0.976471 0.568627
0.0313725 0.976471 0.564706
0.0352941 0.972549 0.568627
0.0352941 0.972549 0.564706
0.0509804 0.972549 0.545098
0.8 0.976471 0.0470588
0.980392 0.980392 0.243137
0.964706 0.980392 0.545098
0.0196078 0.0156863 0.329412
0.0823529 0.0196078 0.313725
0.168627 0.0196078 0.309804
0.298039 0.0196078 0.282353
0.411765 0.0196078 0.266667
0.541176 0.0235294 0.258824
0.670588 0.0235294 0.231373
0.792157 0.0156863 0.231373
0.831373 0.0156863 0.286275
0.0156863 0.00392157 0.372549
0.0901961 0 0.352941
0.2 0 0.333333
0.317647 0 0.321569
0.439216 0 0.301961
0.568627 0 0.286275
0.701961 0 0.27451
0.815686 0 0.270588
0.847059 0 0.309804
0.00784314 0.133333 0.447059
0.0588235 0.12549 0.427451
0.207843 0.117647 0.411765
0.337255 0.109804 0.4
0.470588 0.0431373 0.376471
0.607843 0.0235294 0.360784
0.741176 0 0.341176
0.858824 0 0.333333
0.87451 0 0.360784
0.0117647 0.333333 0.564706
0.00392157 0.333333 0.537255
0.141176 0.321569 0.509804
0.32549 0.301961 0.494118
0.486275 0.286275 0.47451
0.635294 0.25098 0.462745
0.792157 0.176471 0.439216
0.913725 0.0745098 0.439216
0.941176 0.00784314 0.466667
0.0156863 0.498039 0.67451
0 0.494118 0.647059
0.00392157 0.478431 0.607843
0.215686 0.466667 0.580392
0.462745 0.454902 0.560784
0.647059 0.427451 0.533333
0.819608 0.392157 0.529412
0.952941 0.341176 0.541176
0.988235 0.266667 0.572549
0.0235294 0.682353 0.8
0 0.682353 0.776471
0 0.666667 0.717647
0.0392157 0.654902 0.67451
0.329412 0.643137 0.654902
0.623529 0.627451 0.627451
0.831373 0.596078 0.615686
0.984314 0.568627 0.631373
0.992157 0.556863 0.678431
0.027451 0.87451 0.752941
0.00392157 0.878431 0.823529
0 0.882353 0.847059
0 0.862745 0.796078
0.0470588 0.847059 0.721569
0.505882 0.827451 0.694118
0.823529 0.796078 0.682353
0.988235 0.780392 0.694118
0.996078 0.760784 0.760784
0.027451 0.980392 0.486275
0 0.996078 0.490196
0 0.996078 0.537255
0 0.996078 0.67451
0 0.996078 0.745098
0.121569 0.992157 0.682353
0.760784 0.968627 0.67451
0.988235 0.94902 0.713725
0.992157 0.937255 0.792157
0.027451 0.980392 0.552941
0 0.996078 0.552941
0 0.996078 0.552941
0 0.996078 0.552941
0 0.996078 0.576471
0.00784314 0.996078 0.572549
0.737255 0.992157 0.427451
0.996078 0.992157 0.584314
0.996078 0.992157 0.717647
0.0392157 0.0196078 0.396078
0.0823529 0.0196078 0.388235
0.184314 0.0196078 0.376471
0.309804 0.0235294 0.341176
0.415686 0.0235294 0.329412
0.533333 0.0235294 0.317647
0.666667 0.0196078 0.282353
0.776471 0.0156863 0.286275
0.807843 0.0156863 0.321569
0.0431373 0.00784314 0.427451
0.129412 0 0.411765
0.227451 0 0.392157
0.329412 0 0.376471
0.435294 0 0.364706
0.556863 0 0.345098
0.686275 0 0.32549
0.796078 0 0.321569
0.819608 0 0.34902
0.0352941 0.0823529 0.505882
0.113725 0.0823529 0.494118
0.231373 0.0823529 0.470588
0.34902 0.0470588 0.454902
0.462745 0.027451 0.435294
0.592157 0.0156863 0.419608
0.729412 0 0.4
0.827451 0 0.372549
0.847059 0 0.388235
0.0392157 0.301961 0.623529
0.0235294 0.294118 0.603922
0.192157 0.286275 0.588235
0.352941 0.266667 0.564706
0.486275 0.243137 0.54902
0.635294 0.207843 0.529412
0.780392 0.12549 0.494118
0.890196 0.0509804 0.486275
0.898039 0 0.494118
0.0392157 0.462745 0.72549
0 0.462745 0.713725
0.0470588 0.45098 0.698039
0.290196 0.443137 0.666667
0.47451 0.427451 0.639216
0.643137 0.403922 0.619608
0.811765 0.360784 0.6
0.929412 0.309804 0.588235
0.960784 0.243137 0.611765
0.0352941 0.65098 0.87451
0 0.647059 0.85098
0 0.639216 0.819608
0.0862745 0.631373 0.780392
0.376471 0.623529 0.745098
0.619608 0.611765 0.72549
0.815686 0.580392 0.701961
0.964706 0.552941 0.701961
0.992157 0.541176 0.733333
0.0352941 0.854902 0.980392
0 0.854902 0.992157
0 0.847059 0.956863
0 0.843137 0.913725
0.0705882 0.823529 0.862745
0.501961 0.807843 0.823529
0.788235 0.792157 0.788235
0.968627 0.764706 0.796078
0.996078 0.756863 0.823529
0.0313725 0.984314 0.909804
0 0.996078 0.933333
0 0.996078 0.945098
0 0.996078 0.984314
0 0.988235 0.976471
0.101961 0.976471 0.886275
0.694118 0.968627 0.847059
0.980392 0.941176 0.847059
0.996078 0.937255 0.878431
0.027451 0.980392 0.552941
0 0.996078 0.603922
0 0.996078 0.647059
0 0.996078 0.74902
0 0.996078 0.866667
0 0.996078 0.933333
0.568627 0.996078 0.831373
0.94902 0.992157 0.811765
0.996078 0.992157 0.866667
0.0705882 0.0196078 0.454902
0.133333 0.0196078 0.45098
0.215686 0.0196078 0.431373
0.32549 0.0235294 0.419608
0.419608 0.0235294 0.392157
0.52549 0.0235294 0.372549
0.662745 0.0156863 0.345098
0.764706 0.0156863 0.337255
0.784314 0.0117647 0.360784
0.121569 0.00392157 0.47451
0.188235 0 0.458824
0.258824 0 0.454902
0.345098 0 0.443137
0.439216 0 0.431373
0.552941 0 0.403922
0.678431 0 0.380392
0.772549 0 0.368627
0.788235 0 0.368627
0.0941176 0.0352941 0.556863
0.180392 0.0352941 0.545098
0.282353 0 0.52549
0.372549 0.00392157 0.501961
0.462745 0.00784314 0.490196
0.576471 0 0.478431
0.709804 0 0.427451
0.8 0 0.407843
0.807843 0 0.407843
0.0627451 0.243137 0.670588
0.137255 0.239216 0.662745
0.282353 0.227451 0.647059
0.396078 0.207843 0.627451
0.498039 0.184314 0.607843
0.623529 0.141176 0.580392
0.756863 0.027451 0.545098
0.858824 0.00784314 0.513725
0.854902 0 0.501961
0.0352941 0.415686 0.784314
0.0117647 0.415686 0.772549
0.219608 0.411765 0.74902
0.376471 0.396078 0.737255
0.501961 0.392157 0.713725
0.647059 0.360784 0.686275
0.807843 0.32549 0.662745
0.909804 0.25098 0.631373
0.92549 0.176471 0.635294
0.0392157 0.615686 0.917647
0 0.611765 0.901961
0.00392157 0.607843 0.87451
0.188235 0.603922 0.854902
0.45098 0.592157 0.839216
0.635294 0.584314 0.807843
0.819608 0.556863 0.772549
0.945098 0.529412 0.756863
0.976471 0.533333 0.768627
0.0352941 0.819608 0.984314
0 0.819608 1
0.00392157 0.815686 1
0.00392157 0.811765 0.980392
0.109804 0.803922 0.952941
0.545098 0.792157 0.913725
0.788235 0.772549 0.882353
0.952941 0.760784 0.858824
0.992157 0.752941 0.870588
0.0352941 0.980392 0.984314
0 0.996078 0.992157
0 0.996078 0.992157
0 0.992157 0.996078
0 0.980392 0.992157
0.258824 0.972549 0.980392
0.694118 0.956863 0.972549
0.937255 0.941176 0.941176
0.992157 0.933333 0.952941
0.0313725 0.984314 0.964706
0 1 0.976471
0 0.996078 0.984314
0.00392157 1 1
0.00392157 1 1
0.0117647 0.996078 0.992157
0.6 0.992157 0.988235
0.898039 0.992157 0.952941
0.992157 0.992157 0.964706
0.141176 0 0.505882
0.203922 0 0.501961
0.262745 0 0.490196
0.345098 0 0.47451
0.435294 0 0.454902
0.545098 0 0.431373
0.662745 0 0.388235
0.760784 0 0.384314
0.772549 0.00392157 0.388235
0.176471 0 0.529412
0.227451 0 0.513725
0.290196 0 0.505882
0.360784 0 0.501961
0.447059 0 0.47451
0.556863 0 0.447059
0.670588 0 0.411765
0.760784 0 0.392157
0.772549 0.00392157 0.388235
0.207843 0 0.580392
0.262745 0 0.572549
0.317647 0 0.54902
0.388235 0 0.541176
0.470588 0 0.533333
0.576471 0 0.505882
0.694118 0 0.454902
0.776471 0 0.419608
0.780392 0.00392157 0.407843
0.219608 0.164706 0.705882
0.286275 0.14902 0.690196
0.34902 0.133333 0.678431
0.423529 0.105882 0.662745
0.517647 0.0705882 0.631373
0.631373 0.0235294 0.6
0.74902 0 0.564706
0.827451 0 0.505882
0.807843 0.00784314 0.454902
0.168627 0.364706 0.811765
0.254902 0.352941 0.807843
0.352941 0.34902 0.792157
0.439216 0.341176 0.776471
0.545098 0.32549 0.756863
0.67451 0.294118 0.713725
0.803922 0.278431 0.686275
0.901961 0.203922 0.647059
0.905882 0.121569 0.619608
0.0196078 0.568627 0.945098
0.0666667 0.572549 0.929412
0.219608 0.568627 0.921569
0.372549 0.560784 0.901961
0.529412 0.552941 0.882353
0.686275 0.54902 0.843137
0.839216 0.517647 0.803922
0.945098 0.505882 0.768627
0.964706 0.521569 0.768627
0 0.788235 0.992157
0 0.788235 0.996078
0 0.780392 0.992157
0.101961 0.780392 0.992157
0.372549 0.772549 0.984314
0.631373 0.760784 0.960784
0.819608 0.752941 0.913725
0.960784 0.745098 0.87451
0.984314 0.74902 0.87451
0 0.980392 0.988235
0 0.980392 0.996078
0 0.976471 0.996078
0 0.976471 0.996078
0.00784314 0.968627 0.996078
0.454902 0.956863 0.992157
0.760784 0.945098 0.992157
0.94902 0.933333 0.972549
0.992157 0.929412 0.964706
0.027451 0.980392 0.980392
0.027451 0.984314 0.984314
0.027451 0.984314 0.984314
0.027451 0.984314 0.984314
0.027451 0.984314 0.984314
0.141176 0.984314 0.984314
0.67451 0.988235 0.988235
0.913725 0.988235 0.988235
0.988235 0.992157 0.988235
