ImageMetalling-05/ImageMetalling-05/Luts/filter2.cube
#Generated by Picture Instruments - Look Creator
TITLE "V50"
LUT_3D_SIZE 17
0 0 0
0.0392157 0 0
0.0705882 0 0.00392157
0.109804 0.00392157 0
0.196078 0 0
0.290196 0.00392157 0.00392157
0.360784 0.00392157 0.00392157
0.427451 0.00392157 0.00784314
0.470588 0.00392157 0.00392157
0.533333 0.00784314 0.00392157
0.596078 0.00784314 0.00784314
0.662745 0.00784314 0.00784314
0.721569 0.00784314 0.0196078
0.784314 0.00784314 0.0313725
0.839216 0.0117647 0.0509804
0.886275 0.0117647 0.0980392
0.890196 0.0117647 0.141176
0 0.0431373 0.00784314
0.0235294 0.0313725 0.00392157
0.0588235 0.0313725 0.00784314
0.109804 0.027451 0
0.188235 0.0235294 0
0.278431 0 0
0.364706 0 0
0.435294 0 0
0.486275 0 0
0.54902 0 0
0.611765 0 0.00392157
0.67451 0 0.00784314
0.737255 0 0.0235294
0.803922 0 0.0470588
0.862745 0 0.0705882
0.901961 0 0.105882
0.905882 0 0.160784
0.00392157 0.0784314 0.0235294
0.0196078 0.0705882 0.0196078
0.0627451 0.0666667 0.0196078
0.101961 0.0627451 0.00392157
0.176471 0.0509804 0.00392157
0.278431 0.027451 0
0.372549 0.00784314 0
0.447059 0.00392157 0
0.498039 0 0.00392157
0.556863 0 0.00392157
0.619608 0 0.00784314
0.690196 0 0.0156863
0.752941 0 0.0470588
0.815686 0 0.0666667
0.87451 0 0.0862745
0.913725 0 0.121569
0.921569 0 0.176471
0.00392157 0.137255 0.0431373
0 0.129412 0.0431373
0.0196078 0.133333 0.0470588
0.0980392 0.129412 0.0352941
0.168627 0.12549 0.0196078
0.294118 0.0980392 0.00392157
0.384314 0.0705882 0
0.458824 0.0509804 0
0.509804 0.00392157 0.00392157
0.568627 0.0313725 0.0156863
0.647059 0.0156863 0.0352941
0.713725 0 0.0588235
0.772549 0 0.0862745
0.831373 0 0.109804
0.890196 0 0.129412
0.937255 0 0.160784
0.941176 0 0.203922
0.00392157 0.211765 0.0862745
0 0.207843 0.0862745
0.00392157 0.207843 0.0862745
0.0509804 0.203922 0.0666667
0.164706 0.2 0.0392157
0.294118 0.188235 0.00784314
0.4 0.168627 0.00392157
0.478431 0.14902 0.00392157
0.533333 0.129412 0.0156863
0.596078 0.117647 0.054902
0.670588 0.0705882 0.0666667
0.741176 0.054902 0.0980392
0.8 0.0392157 0.129412
0.862745 0 0.156863
0.921569 0 0.176471
0.952941 0 0.2
0.956863 0 0.235294
0.00784314 0.294118 0.12549
0.00392157 0.294118 0.113725
0 0.290196 0.109804
0 0.290196 0.105882
0.0862745 0.290196 0.0823529
0.27451 0.27451 0.0235294
0.396078 0.262745 0.00392157
0.494118 0.25098 0.0117647
0.560784 0.239216 0.0352941
0.611765 0.219608 0.0784314
0.686275 0.196078 0.101961
0.764706 0.184314 0.129412
0.819608 0.133333 0.160784
0.890196 0.0784314 0.196078
0.952941 0.0156863 0.223529
0.980392 0.00784314 0.258824
0.984314 0 0.290196
0.0117647 0.376471 0.168627
0 0.380392 0.160784
0.00392157 0.372549 0.156863
0.00392157 0.376471 0.14902
0.0392157 0.372549 0.12549
0.160784 0.364706 0.0901961
0.392157 0.352941 0.0156863
0.501961 0.337255 0.0235294
0.572549 0.321569 0.0470588
0.639216 0.313725 0.0901961
0.705882 0.294118 0.117647
0.788235 0.27451 0.14902
0.85098 0.247059 0.192157
0.917647 0.203922 0.227451
0.976471 0.12549 0.254902
0.996078 0.0862745 0.294118
0.996078 0.0313725 0.333333
0.0117647 0.462745 0.196078
0 0.454902 0.188235
0 0.454902 0.184314
0 0.458824 0.176471
0 0.454902 0.164706
0.12549 0.443137 0.117647
0.341176 0.435294 0.0352941
0.513725 0.415686 0
0.584314 0.403922 0.0431373
0.658824 0.392157 0.0823529
0.733333 0.380392 0.137255
0.807843 0.360784 0.168627
0.878431 0.337255 0.211765
0.941176 0.301961 0.258824
0.980392 0.278431 0.286275
0.996078 0.231373 0.329412
0.992157 0.168627 0.376471
0.0156863 0.529412 0.235294
0 0.533333 0.235294
0 0.533333 0.231373
0.00392157 0.529412 0.207843
0 0.533333 0.2
0.00784314 0.529412 0.176471
0.211765 0.517647 0.0901961
0.494118 0.494118 0
0.615686 0.486275 0.00392157
0.67451 0.47451 0.0588235
0.74902 0.458824 0.117647
0.827451 0.443137 0.180392
0.894118 0.423529 0.231373
0.960784 0.403922 0.278431
0.992157 0.384314 0.313725
0.996078 0.352941 0.360784
0.996078 0.305882 0.415686
0.0156863 0.611765 0.270588
0 0.615686 0.27451
0 0.615686 0.27451
0 0.615686 0.262745
0 0.611765 0.243137
0 0.611765 0.211765
0.0470588 0.607843 0.164706
0.352941 0.588235 0.0470588
0.592157 0.572549 0.00392157
0.709804 0.556863 0.00392157
0.772549 0.541176 0.0823529
0.847059 0.529412 0.164706
0.921569 0.517647 0.239216
0.980392 0.501961 0.294118
0.992157 0.486275 0.345098
0.996078 0.45098 0.403922
0.996078 0.427451 0.458824
0.0196078 0.694118 0.321569
0 0.698039 0.321569
0 0.698039 0.321569
0 0.698039 0.313725
0 0.701961 0.309804
0 0.701961 0.294118
0.0235294 0.694118 0.243137
0.160784 0.690196 0.145098
0.443137 0.670588 0.0470588
0.705882 0.654902 0
0.807843 0.635294 0.0235294
0.882353 0.627451 0.117647
0.945098 0.611765 0.2
0.996078 0.6 0.298039
0.996078 0.580392 0.360784
0.996078 0.556863 0.423529
0.996078 0.54902 0.482353
0.0235294 0.780392 0.360784
0 0.784314 0.360784
0 0.788235 0.364706
0 0.788235 0.364706
0 0.788235 0.364706
0 0.788235 0.364706
0 0.792157 0.345098
0.027451 0.788235 0.286275
0.223529 0.784314 0.141176
0.560784 0.756863 0.0196078
0.827451 0.737255 0.00392157
0.92549 0.721569 0.00392157
0.980392 0.701961 0.121569
0.996078 0.690196 0.266667
0.996078 0.682353 0.356863
0.996078 0.670588 0.423529
0.996078 0.666667 0.490196
0.0235294 0.858824 0.4
0 0.866667 0.403922
0 0.87451 0.407843
0 0.87451 0.407843
0 0.882353 0.403922
0 0.878431 0.411765
0.00392157 0.886275 0.411765
0 0.886275 0.388235
0.0235294 0.886275 0.356863
0.305882 0.866667 0.14902
0.686275 0.843137 0.0156863
0.952941 0.815686 0.00392157
0.988235 0.796078 0.00784314
0.996078 0.784314 0.168627
0.996078 0.780392 0.298039
0.996078 0.776471 0.411765
0.996078 0.768627 0.482353
0.027451 0.94902 0.447059
0 0.956863 0.443137
0 0.956863 0.443137
0 0.960784 0.447059
0 0.960784 0.447059
0 0.964706 0.458824
0 0.964706 0.458824
0 0.964706 0.458824
0 0.968627 0.45098
0.0117647 0.964706 0.423529
0.384314 0.945098 0.152941
0.776471 0.92549 0.00392157
0.988235 0.898039 0.00392157
0.996078 0.882353 0.00784314
0.996078 0.87451 0.184314
0.996078 0.866667 0.321569
0.996078 0.866667 0.458824
0.027451 0.976471 0.486275
0 0.988235 0.482353
0 0.988235 0.482353
0 0.988235 0.490196
0 0.992157 0.482353
0 0.992157 0.490196
0 0.996078 0.494118
0 0.996078 0.501961
0.00392157 0.996078 0.509804
0.00392157 0.996078 0.494118
0.0156863 0.992157 0.458824
0.47451 0.988235 0.12549
0.87451 0.972549 0.00784314
0.996078 0.964706 0
0.992157 0.956863 0.00784314
0.996078 0.945098 0.211765
0.996078 0.941176 0.352941
0.027451 0.980392 0.529412
0 1 0.529412
0 1 0.529412
0 0.996078 0.529412
0 0.996078 0.537255
0 0.996078 0.537255
0 0.996078 0.537255
0 0.996078 0.537255
0.00392157 1 0.545098
0.00392157 1 0.54902
0 0.996078 0.533333
0.0196078 0.992157 0.47451
0.584314 0.992157 0.14902
0.972549 0.992157 0.00392157
0.996078 0.992157 0
0.996078 0.988235 0.00784314
0.996078 0.988235 0.184314
0.027451 0.980392 0.545098
0 0.996078 0.552941
0 0.996078 0.552941
0 0.996078 0.552941
0 0.996078 0.552941
0 0.996078 0.552941
0 0.996078 0.552941
0 0.996078 0.552941
0.00392157 0.996078 0.560784
0 1 0.564706
0 0.996078 0.568627
0.00784314 0.992157 0.505882
0.235294 0.992157 0.356863
0.819608 0.992157 0.0705882
0.992157 0.992157 0.00392157
0.996078 0.992157 0.00392157
0.996078 0.992157 0.0117647
0 0 0.0117647
0.0352941 0 0.0117647
0.0666667 0.00392157 0.00392157
0.121569 0 0.00784314
0.211765 0 0
0.27451 0.00392157 0.00784314
0.34902 0.00392157 0.00392157
0.4 0.00392157 0.00784314
0.462745 0.00784314 0.00784314
0.521569 0.00784314 0.0117647
0.588235 0.00784314 0.00392157
0.654902 0.00784314 0.0117647
0.721569 0.00784314 0.0313725
0.776471 0.0117647 0.054902
0.847059 0.0117647 0.0745098
0.878431 0.0117647 0.105882
0.882353 0.0156863 0.160784
0 0.0313725 0.0352941
0.0235294 0.027451 0.027451
0.0705882 0.0235294 0.0196078
0.12549 0.0156863 0.0156863
0.207843 0.0117647 0.00392157
0.286275 0 0.00392157
0.34902 0 0.00392157
0.415686 0 0.00784314
0.47451 0 0.0156863
0.541176 0 0.0196078
0.603922 0 0.0156863
0.670588 0 0.0235294
0.733333 0 0.0431373
0.8 0 0.0666667
0.858824 0 0.0862745
0.894118 0 0.117647
0.894118 0.00784314 0.168627
0 0.0705882 0.0470588
0.0156863 0.0666667 0.0509804
0.0588235 0.0627451 0.0352941
0.113725 0.054902 0.027451
0.196078 0.0392157 0.0117647
0.278431 0.0196078 0.00784314
0.364706 0.0117647 0.0117647
0.427451 0.00392157 0.0196078
0.482353 0 0.0352941
0.545098 0 0.0352941
0.615686 0 0.0235294
0.686275 0 0.0431373
0.745098 0 0.0666667
0.811765 0 0.0901961
0.866667 0 0.101961
0.905882 0 0.137255
0.909804 0.00784314 0.180392
0 0.12549 0.0627451
0 0.12549 0.0627451
0.027451 0.12549 0.0666667
0.101961 0.121569 0.0588235
0.184314 0.117647 0.0352941
0.290196 0.0980392 0.0196078
0.376471 0.0666667 0.0235294
0.443137 0.0431373 0.0392157
0.498039 0.00784314 0.0431373
0.560784 0.027451 0.0588235
0.639216 0.0196078 0.0666667
0.701961 0 0.0823529
0.768627 0 0.105882
0.827451 0 0.12549
0.894118 0 0.145098
0.929412 0 0.172549
0.921569 0.00784314 0.207843
0 0.211765 0.109804
0 0.203922 0.105882
0 0.2 0.0980392
0.0627451 0.196078 0.0901961
0.180392 0.192157 0.0666667
0.290196 0.180392 0.0392157
0.388235 0.164706 0.0431373
0.458824 0.145098 0.0627451
0.521569 0.12549 0.0784314
0.584314 0.121569 0.0941176
0.666667 0.0627451 0.105882
0.733333 0.054902 0.12549
0.796078 0.0313725 0.14902
0.858824 0 0.168627
0.913725 0 0.184314
0.94902 0 0.207843
0.937255 0.0156863 0.25098
0 0.298039 0.141176
0 0.290196 0.141176
0.00392157 0.290196 0.137255
0 0.290196 0.12549
0.0941176 0.282353 0.105882
0.282353 0.27451 0.0666667
0.392157 0.258824 0.0627451
0.47451 0.247059 0.0745098
0.537255 0.239216 0.101961
0.603922 0.219608 0.121569
0.682353 0.188235 0.137255
0.760784 0.172549 0.160784
0.823529 0.129412 0.188235
0.890196 0.0784314 0.207843
0.945098 0.00392157 0.231373
0.976471 0 0.270588
0.952941 0.0156863 0.298039
0 0.376471 0.172549
0 0.380392 0.172549
0.00392157 0.376471 0.172549
0 0.372549 0.168627
0.0666667 0.376471 0.14902
0.2 0.360784 0.101961
0.4 0.352941 0.0509804
0.482353 0.337255 0.0745098
0.552941 0.32549 0.113725
0.627451 0.317647 0.145098
0.705882 0.294118 0.164706
0.780392 0.262745 0.180392
0.843137 0.239216 0.219608
0.913725 0.2 0.243137
0.976471 0.0980392 0.27451
0.992157 0.0666667 0.305882
0.952941 0.027451 0.34902
0 0.462745 0.2
0.00392157 0.458824 0.2
0 0.454902 0.196078
0 0.454902 0.188235
0.0117647 0.45098 0.180392
0.145098 0.443137 0.137255
0.360784 0.427451 0.0627451
0.501961 0.419608 0.0235294
0.564706 0.407843 0.0862745
0.639216 0.392157 0.14902
0.721569 0.376471 0.180392
0.796078 0.360784 0.2
0.866667 0.337255 0.243137
0.933333 0.301961 0.278431
0.984314 0.270588 0.305882
0.992157 0.227451 0.345098
0.956863 0.168627 0.388235
0 0.533333 0.235294
0 0.533333 0.235294
0 0.533333 0.235294
0 0.533333 0.231373
0 0.537255 0.215686
0.00392157 0.529412 0.188235
0.235294 0.517647 0.113725
0.490196 0.498039 0.027451
0.592157 0.482353 0.0431373
0.658824 0.470588 0.121569
0.733333 0.458824 0.168627
0.815686 0.443137 0.211765
0.886275 0.423529 0.266667
0.956863 0.4 0.301961
0.988235 0.376471 0.341176
0.996078 0.34902 0.380392
0.956863 0.309804 0.427451
0 0.615686 0.27451
0 0.615686 0.27451
0 0.611765 0.270588
0 0.615686 0.258824
0 0.615686 0.235294
0 0.611765 0.215686
0.0862745 0.607843 0.168627
0.384314 0.584314 0.0588235
0.584314 0.572549 0.00392157
0.670588 0.560784 0.0784314
0.74902 0.545098 0.156863
0.831373 0.533333 0.223529
0.913725 0.513725 0.278431
0.976471 0.494118 0.321569
0.992157 0.482353 0.356863
0.992157 0.454902 0.407843
0.956863 0.439216 0.466667
0 0.698039 0.321569
0 0.698039 0.321569
0 0.698039 0.317647
0 0.698039 0.313725
0 0.698039 0.309804
0 0.698039 0.282353
0.054902 0.690196 0.235294
0.196078 0.682353 0.141176
0.482353 0.666667 0.0352941
0.690196 0.654902 0.0196078
0.784314 0.639216 0.0627451
0.858824 0.627451 0.172549
0.937255 0.607843 0.266667
0.996078 0.592157 0.329412
0.992157 0.576471 0.384314
0.996078 0.552941 0.439216
0.964706 0.552941 0.498039
0 0.784314 0.360784
0 0.788235 0.364706
0 0.788235 0.364706
0 0.788235 0.364706
0 0.788235 0.364706
0 0.788235 0.364706
0 0.788235 0.333333
0.0431373 0.788235 0.278431
0.290196 0.776471 0.117647
0.580392 0.756863 0.00784314
0.823529 0.737255 0.0156863
0.905882 0.721569 0.0352941
0.968627 0.705882 0.172549
0.992157 0.694118 0.294118
0.996078 0.682353 0.380392
0.996078 0.670588 0.443137
0.964706 0.670588 0.501961
0 0.866667 0.403922
0 0.87451 0.407843
0 0.87451 0.407843
0 0.87451 0.407843
0 0.878431 0.411765
0.00392157 0.882353 0.415686
0.00392157 0.886275 0.415686
0 0.886275 0.388235
0.0470588 0.882353 0.329412
0.368627 0.862745 0.101961
0.705882 0.839216 0
0.952941 0.811765 0.00784314
0.988235 0.803922 0.0392157
0.996078 0.784314 0.203922
0.996078 0.780392 0.341176
0.996078 0.780392 0.427451
0.960784 0.776471 0.505882
0 0.956863 0.443137
0 0.960784 0.447059
0 0.960784 0.447059
0 0.960784 0.447059
0 0.964706 0.458824
0 0.964706 0.458824
0 0.968627 0.45098
0 0.964706 0.458824
0 0.968627 0.443137
0 0.968627 0.415686
0.4 0.941176 0.137255
0.843137 0.921569 0.0156863
0.992157 0.898039 0
0.996078 0.886275 0
0.996078 0.878431 0.196078
0.996078 0.866667 0.368627
0.960784 0.866667 0.486275
0 0.988235 0.482353
0 0.988235 0.490196
0 0.988235 0.490196
0 0.992157 0.482353
0 0.992157 0.490196
0 0.996078 0.494118
0 0.996078 0.494118
0 0.996078 0.501961
0.00392157 0.996078 0.513725
0 0.996078 0.498039
0.0235294 0.992157 0.447059
0.490196 0.988235 0.129412
0.886275 0.968627 0
0.992157 0.964706 0.00392157
0.992157 0.952941 0.0117647
0.996078 0.94902 0.223529
0.960784 0.945098 0.380392
0 1 0.529412
0 1 0.529412
0 0.996078 0.529412
0 0.996078 0.537255
0 0.996078 0.537255
0 0.996078 0.537255
0 0.996078 0.537255
0 0.996078 0.541176
0.00392157 1 0.545098
0 1 0.552941
0 0.996078 0.52549
0 0.996078 0.470588
0.588235 0.992157 0.14902
0.968627 0.992157 0.0156863
0.996078 0.992157 0
0.996078 0.992157 0
0.964706 0.984314 0.227451
0 0.996078 0.552941
0 0.996078 0.552941
0 0.996078 0.552941
0 0.996078 0.552941
0 0.996078 0.552941
0 0.996078 0.552941
0 0.996078 0.552941
0 0.996078 0.552941
0 0.996078 0.560784
0 0.996078 0.560784
0 0.996078 0.568627
0 0.996078 0.509804
0.215686 0.988235 0.360784
0.827451 0.992157 0.0705882
0.996078 0.996078 0
0.996078 0.992157 0
0.960784 0.984314 0.0470588
0.027451 0.0117647 0.027451
0.027451 0 0.027451
0.0666667 0 0.0313725
0.137255 0 0.0196078
0.2 0 0.0235294
0.278431 0.00392157 0.0156863
0.341176 0.00392157 0.0196078
0.4 0.00392157 0.0156863
0.454902 0.00784314 0.0235294
0.52549 0.00392157 0.0196078
0.584314 0.00784314 0.0235294
0.65098 0.00784314 0.0313725
0.713725 0.0117647 0.0509804
0.780392 0.00784314 0.0705882
0.835294 0.0117647 0.0901961
0.87451 0.0117647 0.121569
0.886275 0.0117647 0.160784
0.0313725 0.0352941 0.0431373
0.0196078 0.0235294 0.0431373
0.0627451 0.0235294 0.0470588
0.121569 0.0156863 0.0392157
0.196078 0.0156863 0.0313725
0.278431 0 0.0117647
0.345098 0 0.0235294
0.407843 0 0.0235294
0.466667 0 0.0352941
0.533333 0 0.0352941
0.6 0 0.0392157
0.662745 0 0.0509804
0.733333 0 0.0666667
0.796078 0 0.0862745
0.854902 0 0.0980392
0.894118 0 0.133333
0.898039 0 0.180392
0.0313725 0.0666667 0.0705882
0.0156863 0.0627451 0.0627451
0.0588235 0.054902 0.0588235
0.129412 0.0470588 0.0509804
0.2 0.0352941 0.0392157
0.282353 0.0156863 0.0235294
0.356863 0.0117647 0.0352941
0.423529 0 0.0392157
0.478431 0 0.0470588
0.541176 0 0.054902
0.607843 0 0.054902
0.678431 0 0.0705882
0.741176 0 0.0823529
0.807843 0 0.105882
0.866667 0 0.117647
0.901961 0 0.145098
0.909804 0 0.196078
0.0313725 0.12549 0.0901961
0 0.121569 0.0862745
0.0235294 0.121569 0.0862745
0.109804 0.117647 0.0784314
0.192157 0.105882 0.0627451
0.290196 0.0901961 0.0588235
0.360784 0.0666667 0.0588235
0.439216 0.0392157 0.0666667
0.486275 0.00784314 0.0823529
0.556863 0.0313725 0.0823529
0.635294 0.0117647 0.0823529
0.698039 0 0.105882
0.764706 0 0.12549
0.827451 0 0.137255
0.886275 0 0.14902
0.92549 0 0.180392
0.929412 0 0.219608
0.0352941 0.203922 0.121569
0 0.203922 0.117647
0 0.196078 0.113725
0.0705882 0.192157 0.105882
0.196078 0.188235 0.0823529
0.286275 0.176471 0.0705882
0.376471 0.164706 0.0784314
0.454902 0.14902 0.0941176
0.513725 0.121569 0.109804
0.584314 0.113725 0.12549
0.654902 0.0588235 0.12549
0.72549 0.0509804 0.14902
0.792157 0.0352941 0.164706
0.858824 0 0.184314
0.909804 0 0.192157
0.945098 0 0.223529
0.94902 0 0.243137
0.0392157 0.290196 0.152941
0 0.294118 0.152941
0 0.294118 0.152941
0.00392157 0.290196 0.145098
0.0941176 0.282353 0.133333
0.290196 0.270588 0.0980392
0.384314 0.262745 0.101961
0.466667 0.243137 0.121569
0.529412 0.231373 0.145098
0.6 0.215686 0.156863
0.682353 0.188235 0.156863
0.752941 0.168627 0.188235
0.815686 0.121569 0.207843
0.882353 0.0745098 0.223529
0.945098 0.00392157 0.247059
0.976471 0 0.27451
0.976471 0 0.305882
0.0392157 0.376471 0.192157
0 0.380392 0.192157
0 0.372549 0.192157
0.00392157 0.376471 0.188235
0.0823529 0.368627 0.172549
0.211765 0.360784 0.145098
0.392157 0.345098 0.105882
0.470588 0.341176 0.12549
0.541176 0.329412 0.14902
0.615686 0.317647 0.172549
0.694118 0.294118 0.188235
0.772549 0.262745 0.207843
0.839216 0.235294 0.231373
0.909804 0.188235 0.262745
0.968627 0.0980392 0.278431
0.992157 0.0627451 0.321569
0.992157 0.00784314 0.356863
0.0392157 0.45098 0.219608
0 0.458824 0.215686
0 0.458824 0.215686
0 0.45098 0.211765
0.0117647 0.454902 0.2
0.156863 0.439216 0.164706
0.360784 0.431373 0.109804
0.478431 0.419608 0.109804
0.552941 0.407843 0.14902
0.623529 0.392157 0.188235
0.709804 0.376471 0.207843
0.792157 0.34902 0.227451
0.858824 0.329412 0.262745
0.929412 0.301961 0.294118
0.976471 0.266667 0.317647
0.992157 0.219608 0.360784
0.992157 0.145098 0.4
0.0392157 0.529412 0.231373
0 0.533333 0.235294
0 0.533333 0.235294
0 0.533333 0.235294
0 0.533333 0.231373
0.0117647 0.521569 0.2
0.231373 0.513725 0.137255
0.478431 0.498039 0.0901961
0.560784 0.486275 0.133333
0.631373 0.470588 0.196078
0.717647 0.458824 0.219608
0.811765 0.443137 0.254902
0.878431 0.423529 0.286275
0.94902 0.4 0.321569
0.988235 0.380392 0.34902
0.992157 0.34902 0.392157
0.992157 0.301961 0.439216
0.0352941 0.611765 0.270588
0 0.615686 0.27451
0 0.615686 0.27451
0 0.611765 0.270588
0 0.611765 0.262745
0.00392157 0.607843 0.227451
0.101961 0.603922 0.184314
0.403922 0.588235 0.0901961
0.572549 0.572549 0.0470588
0.65098 0.564706 0.152941
0.737255 0.541176 0.215686
0.827451 0.52549 0.254902
0.901961 0.513725 0.301961
0.972549 0.498039 0.341176
0.992157 0.478431 0.380392
0.996078 0.447059 0.431373
0.992157 0.431373 0.482353
0.0352941 0.694118 0.321569
0 0.698039 0.321569
0 0.698039 0.321569
0 0.698039 0.313725
0 0.698039 0.313725
0.00392157 0.694118 0.286275
0.0666667 0.690196 0.231373
0.270588 0.678431 0.145098
0.486275 0.670588 0.0470588
0.670588 0.65098 0.054902
0.756863 0.639216 0.137255
0.85098 0.627451 0.207843
0.92549 0.607843 0.294118
0.988235 0.592157 0.356863
0.996078 0.572549 0.403922
0.996078 0.552941 0.454902
0.996078 0.54902 0.501961
0.0352941 0.784314 0.364706
0 0.788235 0.364706
0 0.788235 0.364706
0 0.788235 0.364706
0 0.788235 0.364706
0 0.788235 0.364706
0 0.788235 0.329412
0.0627451 0.784314 0.25098
0.309804 0.772549 0.109804
0.611765 0.752941 0.00392157
0.803922 0.733333 0.0117647
0.882353 0.717647 0.129412
0.952941 0.705882 0.243137
0.992157 0.694118 0.333333
0.996078 0.678431 0.411765
0.992157 0.670588 0.458824
0.992157 0.662745 0.517647
0.0352941 0.870588 0.403922
0 0.87451 0.407843
0 0.87451 0.407843
0 0.87451 0.407843
0 0.878431 0.411765
0.00392157 0.882353 0.411765
0.00392157 0.882353 0.415686
0.00392157 0.886275 0.380392
0.0509804 0.882353 0.317647
0.392157 0.862745 0.0862745
0.717647 0.839216 0.00784314
0.952941 0.811765 0.0392157
0.976471 0.8 0.0862745
0.996078 0.792157 0.235294
0.996078 0.776471 0.364706
0.996078 0.776471 0.454902
0.996078 0.768627 0.517647
0.0352941 0.952941 0.447059
0 0.964706 0.45098
0 0.964706 0.45098
0 0.964706 0.45098
0 0.964706 0.458824
0 0.964706 0.45098
0 0.964706 0.458824
0 0.964706 0.454902
0 0.968627 0.447059
0.0156863 0.968627 0.396078
0.427451 0.94902 0.137255
0.835294 0.92549 0.00784314
0.988235 0.898039 0.00392157
0.992157 0.886275 0.0235294
0.996078 0.87451 0.219608
0.992157 0.870588 0.392157
0.992157 0.866667 0.501961
0.0352941 0.980392 0.486275
0 0.992157 0.482353
0 0.992157 0.482353
0 0.992157 0.490196
0 0.996078 0.494118
0 0.996078 0.494118
0 0.996078 0.494118
0 0.996078 0.501961
0.00392157 0.996078 0.509804
0.00392157 0.996078 0.494118
0.0156863 0.992157 0.447059
0.556863 0.984314 0.121569
0.913725 0.964706 0.0117647
0.996078 0.964706 0
0.992157 0.952941 0.00784314
0.996078 0.945098 0.270588
0.996078 0.945098 0.4
0.0313725 0.984314 0.521569
0 0.996078 0.537255
0 0.996078 0.537255
0 0.996078 0.537255
0 0.996078 0.537255
0 0.996078 0.537255
0 0.996078 0.541176
0 0.996078 0.541176
0.00392157 1 0.545098
0.00392157 1 0.54902
0 0.996078 0.533333
0.0196078 0.988235 0.458824
0.584314 0.992157 0.14902
0.980392 0.992157 0.00392157
0.992157 0.992157 0
0.996078 0.988235 0.00784314
0.996078 0.988235 0.235294
0.0313725 0.984314 0.545098
0 0.996078 0.552941
0 0.996078 0.552941
0 0.996078 0.552941
0 0.996078 0.552941
0 0.996078 0.552941
0 0.996078 0.552941
0 0.996078 0.560784
0.00392157 0.996078 0.560784
0 1 0.564706
0 0.996078 0.568627
0.00784314 0.992157 0.509804
0.176471 0.992157 0.380392
0.827451 0.992157 0.0627451
0.992157 0.992157 0
0.996078 0.992157 0.00392157
0.996078 0.992157 0.0196078
0.00392157 0 0.0470588
0.0156863 0.00392157 0.0627451
0.0627451 0 0.054902
0.121569 0 0.0509804
0.203922 0 0.0431373
0.266667 0.00392157 0.0392157
0.333333 0.00392157 0.0352941
0.384314 0.00392157 0.0509804
0.45098 0.00392157 0.0470588
0.513725 0.00392157 0.0509804
0.580392 0.00784314 0.0392157
0.643137 0.00784314 0.054902
0.713725 0.00784314 0.0784314
0.772549 0.00784314 0.0823529
0.831373 0.0117647 0.105882
0.87451 0.0117647 0.137255
0.87451 0.0156863 0.188235
0 0.0313725 0.0666667
0.0196078 0.0235294 0.0705882
0.0588235 0.0196078 0.0705882
0.117647 0.00784314 0.0705882
0.196078 0.00784314 0.0588235
0.27451 0 0.054902
0.337255 0 0.0588235
0.403922 0 0.0666667
0.462745 0 0.0666667
0.52549 0 0.0588235
0.6 0 0.0627451
0.662745 0 0.0745098
0.72549 0 0.0862745
0.788235 0 0.101961
0.854902 0 0.117647
0.886275 0 0.14902
