ImageMetalling-05/ImageMetalling-05/Luts/filter3.cube
#Created by: Adobe Photoshop Export Color Lookup Plugin
#Copyright: (C) Copyright 2015 Denis Svinarchuk
TITLE "IMG_3085.JPG"
#LUT size
LUT_3D_SIZE 32
#data domain
DOMAIN_MIN 0.0 0.0 0.0
DOMAIN_MAX 1.0 1.0 1.0
#LUT data points
0.000000 0.000000 0.000000
0.000000 0.000000 0.000000
0.011292 0.011292 0.011292
0.057007 0.057007 0.057007
0.086914 0.086914 0.086914
0.109314 0.109314 0.109314
0.129211 0.129211 0.129211
0.150330 0.150330 0.150330
0.175995 0.175995 0.175995
0.209290 0.209290 0.209290
0.252655 0.252655 0.252655
0.301697 0.301697 0.301697
0.348938 0.348938 0.348938
0.387238 0.387238 0.387238
0.414124 0.414124 0.414124
0.433105 0.433105 0.433105
0.448425 0.448425 0.448425
0.464142 0.464142 0.464142
0.484161 0.484161 0.484161
0.511017 0.511017 0.511017
0.542847 0.542847 0.542847
0.576477 0.576477 0.576477
0.608948 0.608948 0.608948
0.636841 0.636841 0.636841
0.658722 0.658722 0.658722
0.675171 0.675171 0.675171
0.687042 0.687042 0.687042
0.695007 0.695007 0.695007
0.699951 0.699951 0.699951
0.702606 0.702606 0.702606
0.703796 0.703796 0.703796
0.704102 0.704102 0.704102
0.000000 0.000000 0.000000
0.000000 0.000000 0.000000
0.011292 0.011292 0.011292
0.057007 0.057007 0.057007
0.086914 0.086914 0.086914
0.109314 0.109314 0.109314
0.129211 0.129211 0.129211
0.150330 0.150330 0.150330
0.175995 0.175995 0.175995
0.209290 0.209290 0.209290
0.252655 0.252655 0.252655
0.301697 0.301697 0.301697
0.348938 0.348938 0.348938
0.387238 0.387238 0.387238
0.414124 0.414124 0.414124
0.433105 0.433105 0.433105
0.448425 0.448425 0.448425
0.464142 0.464142 0.464142
0.484161 0.484161 0.484161
0.511017 0.511017 0.511017
0.542847 0.542847 0.542847
0.576477 0.576477 0.576477
0.608948 0.608948 0.608948
0.636841 0.636841 0.636841
0.658722 0.658722 0.658722
0.675171 0.675171 0.675171
0.687042 0.687042 0.687042
0.695007 0.695007 0.695007
0.699951 0.699951 0.699951
0.702606 0.702606 0.702606
0.703796 0.703796 0.703796
0.704102 0.704102 0.704102
0.010590 0.010590 0.010590
0.010590 0.010590 0.010590
0.020477 0.020477 0.020477
0.057007 0.057007 0.057007
0.086914 0.086914 0.086914
0.109314 0.109314 0.109314
0.129211 0.129211 0.129211
0.150330 0.150330 0.150330
0.175995 0.175995 0.175995
0.209290 0.209290 0.209290
0.252655 0.252655 0.252655
0.301697 0.301697 0.301697
0.348938 0.348938 0.348938
0.387238 0.387238 0.387238
0.414124 0.414124 0.414124
0.433105 0.433105 0.433105
0.448425 0.448425 0.448425
0.464142 0.464142 0.464142
0.484161 0.484161 0.484161
0.511017 0.511017 0.511017
0.542847 0.542847 0.542847
0.576477 0.576477 0.576477
0.608948 0.608948 0.608948
0.636841 0.636841 0.636841
0.658722 0.658722 0.658722
0.675171 0.675171 0.675171
0.687042 0.687042 0.687042
0.695007 0.695007 0.695007
0.699951 0.699951 0.699951
0.702606 0.702606 0.702606
0.703796 0.703796 0.703796
0.704102 0.704102 0.704102
0.053467 0.053467 0.053467
0.053467 0.053467 0.053467
0.053467 0.053467 0.053467
0.103577 0.103577 0.103577
0.144165 0.144165 0.144165
0.157440 0.157440 0.157440
0.169220 0.169220 0.169220
0.181854 0.181854 0.181854
0.197052 0.197052 0.197052
0.216797 0.216797 0.216797
0.252655 0.252655 0.252655
0.301697 0.301697 0.301697
0.348938 0.348938 0.348938
0.387238 0.387238 0.387238
0.414124 0.414124 0.414124
0.433105 0.433105 0.433105
0.448425 0.448425 0.448425
0.464142 0.464142 0.464142
0.484161 0.484161 0.484161
0.511017 0.511017 0.511017
0.542847 0.542847 0.542847
0.576477 0.576477 0.576477
0.608948 0.608948 0.608948
0.636841 0.636841 0.636841
0.658722 0.658722 0.658722
0.675171 0.675171 0.675171
0.687042 0.687042 0.687042
0.695007 0.695007 0.695007
0.699951 0.699951 0.699951
0.702606 0.702606 0.702606
0.703796 0.703796 0.703796
0.704102 0.704102 0.704102
0.081482 0.081482 0.081482
0.081482 0.081482 0.081482
0.081482 0.081482 0.081482
0.133728 0.133728 0.133728
0.157898 0.157898 0.157898
0.198608 0.198608 0.198608
0.217712 0.217712 0.217712
0.230347 0.230347 0.230347
0.245575 0.245575 0.245575
0.265411 0.265411 0.265411
0.291229 0.291229 0.291229
0.320251 0.320251 0.320251
0.348938 0.348938 0.348938
0.387238 0.387238 0.387238
0.414124 0.414124 0.414124
0.433105 0.433105 0.433105
0.448425 0.448425 0.448425
0.464142 0.464142 0.464142
0.484161 0.484161 0.484161
0.511017 0.511017 0.511017
0.542847 0.542847 0.542847
0.576477 0.576477 0.576477
0.608948 0.608948 0.608948
0.636841 0.636841 0.636841
0.658722 0.658722 0.658722
0.675171 0.675171 0.675171
0.687042 0.687042 0.687042
0.695007 0.695007 0.695007
0.699951 0.699951 0.699951
0.702606 0.702606 0.702606
0.703796 0.703796 0.703796
0.704102 0.704102 0.704102
0.102478 0.102478 0.102478
0.102478 0.102478 0.102478
0.102478 0.102478 0.102478
0.141052 0.141052 0.141052
0.189697 0.189697 0.189697
0.198608 0.198608 0.198608
0.234741 0.234741 0.234741
0.266663 0.266663 0.266663
0.281860 0.281860 0.281860
0.301697 0.301697 0.301697
0.327576 0.327576 0.327576
0.356537 0.356537 0.356537
0.384705 0.384705 0.384705
0.407501 0.407501 0.407501
0.423492 0.423492 0.423492
0.434814 0.434814 0.434814
0.448425 0.448425 0.448425
0.464142 0.464142 0.464142
0.484161 0.484161 0.484161
0.511017 0.511017 0.511017
0.542847 0.542847 0.542847
0.576477 0.576477 0.576477
0.608948 0.608948 0.608948
0.636841 0.636841 0.636841
0.658722 0.658722 0.658722
0.675171 0.675171 0.675171
0.687042 0.687042 0.687042
0.695007 0.695007 0.695007
0.699951 0.699951 0.699951
0.702606 0.702606 0.702606
0.703796 0.703796 0.703796
0.704102 0.704102 0.704102
0.121124 0.121124 0.121124
0.121124 0.121124 0.121124
0.121124 0.121124 0.121124
0.148895 0.148895 0.148895
0.202911 0.202911 0.202911
0.226837 0.226837 0.226837
0.234741 0.234741 0.234741
0.273163 0.273163 0.273163
0.314178 0.314178 0.314178
0.333923 0.333923 0.333923
0.359741 0.359741 0.359741
0.388794 0.388794 0.388794
0.416962 0.416962 0.416962
0.439728 0.439728 0.439728
0.455658 0.455658 0.455658
0.467072 0.467072 0.467072
0.476196 0.476196 0.476196
0.485413 0.485413 0.485413
0.497375 0.497375 0.497375
0.513275 0.513275 0.513275
0.542847 0.542847 0.542847
0.576477 0.576477 0.576477
0.608948 0.608948 0.608948
0.636841 0.636841 0.636841
0.658722 0.658722 0.658722
0.675171 0.675171 0.675171
0.687042 0.687042 0.687042
0.695007 0.695007 0.695007
0.699951 0.699951 0.699951
0.702606 0.702606 0.702606
0.703796 0.703796 0.703796
0.704102 0.704102 0.704102
0.140930 0.140930 0.140930
0.140930 0.140930 0.140930
0.140930 0.140930 0.140930
0.160217 0.160217 0.160217
0.209351 0.209351 0.209351
0.252289 0.252289 0.252289
0.264771 0.264771 0.264771
0.273163 0.273163 0.273163
0.319824 0.319824 0.319824
0.368256 0.368256 0.368256
0.394073 0.394073 0.394073
0.423126 0.423126 0.423126
0.451172 0.451172 0.451172
0.474091 0.474091 0.474091
0.489990 0.489990 0.489990
0.501190 0.501190 0.501190
0.510437 0.510437 0.510437
0.519653 0.519653 0.519653
0.531555 0.531555 0.531555
0.547607 0.547607 0.547607
0.566437 0.566437 0.566437
0.586578 0.586578 0.586578
0.608948 0.608948 0.608948
0.636841 0.636841 0.636841
0.658722 0.658722 0.658722
0.675171 0.675171 0.675171
0.687042 0.687042 0.687042
0.695007 0.695007 0.695007
0.699951 0.699951 0.699951
0.702606 0.702606 0.702606
0.703796 0.703796 0.703796
0.704102 0.704102 0.704102
0.165009 0.165009 0.165009
0.165009 0.165009 0.165009
0.165009 0.165009 0.165009
0.178192 0.178192 0.178192
0.218597 0.218597 0.218597
0.259033 0.259033 0.259033
0.297791 0.297791 0.297791
0.309631 0.309631 0.309631
0.319824 0.319824 0.319824
0.380341 0.380341 0.380341
0.435760 0.435760 0.435760
0.464844 0.464844 0.464844
0.493011 0.493011 0.493011
0.515564 0.515564 0.515564
0.531708 0.531708 0.531708
0.542877 0.542877 0.542877
0.552002 0.552002 0.552002
0.561432 0.561432 0.561432
0.573334 0.573334 0.573334
0.589325 0.589325 0.589325
0.608215 0.608215 0.608215
0.628143 0.628143 0.628143
0.647583 0.647583 0.647583
0.664154 0.664154 0.664154
0.677002 0.677002 0.677002
0.686981 0.686981 0.686981
0.693909 0.693909 0.693909
0.698700 0.698700 0.698700
0.701630 0.701630 0.701630
0.703247 0.703247 0.703247
0.703796 0.703796 0.703796
0.704102 0.704102 0.704102
0.196228 0.196228 0.196228
0.196228 0.196228 0.196228
0.196228 0.196228 0.196228
0.201477 0.201477 0.201477
0.232269 0.232269 0.232269
0.270386 0.270386 0.270386
0.306549 0.306549 0.306549
0.347534 0.347534 0.347534
0.367096 0.367096 0.367096
0.380341 0.380341 0.380341
0.459167 0.459167 0.459167
0.518860 0.518860 0.518860
0.546936 0.546936 0.546936
0.569641 0.569641 0.569641
0.585754 0.585754 0.585754
0.596893 0.596893 0.596893
0.606018 0.606018 0.606018
0.615417 0.615417 0.615417
0.627228 0.627228 0.627228
0.643188 0.643188 0.643188
0.662201 0.662201 0.662201
0.682098 0.682098 0.682098
0.701630 0.701630 0.701630
0.718109 0.718109 0.718109
0.731079 0.731079 0.731079
0.740936 0.740936 0.740936
0.747986 0.747986 0.747986
0.752533 0.752533 0.752533
0.755707 0.755707 0.755707
0.757172 0.757172 0.757172
0.757965 0.757965 0.757965
0.757996 0.757996 0.757996
0.236877 0.236877 0.236877
0.236877 0.236877 0.236877
0.236877 0.236877 0.236877
0.236877 0.236877 0.236877
0.260773 0.260773 0.260773
0.287689 0.287689 0.287689
0.321564 0.321564 0.321564
0.359711 0.359711 0.359711
0.408691 0.408691 0.408691
0.441956 0.441956 0.441956
0.459167 0.459167 0.459167
0.548340 0.548340 0.548340
0.617310 0.617310 0.617310
0.640015 0.640015 0.640015
0.656036 0.656036 0.656036
0.667419 0.667419 0.667419
0.676483 0.676483 0.676483
0.685822 0.685822 0.685822
0.697632 0.697632 0.697632
0.713593 0.713593 0.713593
0.732544 0.732544 0.732544
0.752502 0.752502 0.752502
0.771759 0.771759 0.771759
0.788452 0.788452 0.788452
0.801392 0.801392 0.801392
0.811310 0.811310 0.811310
0.818268 0.818268 0.818268
0.822998 0.822998 0.822998
0.825867 0.825867 0.825867
0.827667 0.827667 0.827667
0.828064 0.828064 0.828064
0.828461 0.828461 0.828461
0.282898 0.282898 0.282898
0.282898 0.282898 0.282898
0.282898 0.282898 0.282898
0.282898 0.282898 0.282898
0.295013 0.295013 0.295013
0.316620 0.316620 0.316620
0.341156 0.341156 0.341156
0.377045 0.377045 0.377045
0.423004 0.423004 0.423004
0.486267 0.486267 0.486267
0.528839 0.528839 0.528839
0.548340 0.548340 0.548340
0.634155 0.634155 0.634155
0.703796 0.703796 0.703796
0.735687 0.735687 0.735687
0.747070 0.747070 0.747070
0.756042 0.756042 0.756042
0.765411 0.765411 0.765411
0.777222 0.777222 0.777222
0.793152 0.793152 0.793152
0.812256 0.812256 0.812256
0.832275 0.832275 0.832275
0.851471 0.851471 0.851471
0.867889 0.867889 0.867889
0.881012 0.881012 0.881012
0.890717 0.890717 0.890717
0.898010 0.898010 0.898010
0.902710 0.902710 0.902710
0.905701 0.905701 0.905701
0.907166 0.907166 0.907166
0.907867 0.907867 0.907867
0.907959 0.907959 0.907959
0.327148 0.327148 0.327148
0.327148 0.327148 0.327148
0.327148 0.327148 0.327148
0.327148 0.327148 0.327148
0.328186 0.328186 0.328186
0.349762 0.349762 0.349762
0.368958 0.368958 0.368958
0.396179 0.396179 0.396179
0.439880 0.439880 0.439880
0.499847 0.499847 0.499847
0.583496 0.583496 0.583496
0.615387 0.615387 0.615387
0.634155 0.634155 0.634155
0.703796 0.703796 0.703796
0.752655 0.752655 0.752655
0.787109 0.787109 0.787109
0.815033 0.815033 0.815033
0.841919 0.841919 0.841919
0.853912 0.853912 0.853912
0.869904 0.869904 0.869904
0.888824 0.888824 0.888824
0.908630 0.908630 0.908630
0.928040 0.928040 0.928040
0.944611 0.944611 0.944611
0.957764 0.957764 0.957764
0.967407 0.967407 0.967407
0.974365 0.974365 0.974365
0.979218 0.979218 0.979218
0.982269 0.982269 0.982269
0.983856 0.983856 0.983856
0.984528 0.984528 0.984528
0.984680 0.984680 0.984680
0.363068 0.363068 0.363068
0.363068 0.363068 0.363068
0.363068 0.363068 0.363068
0.363068 0.363068 0.363068
0.363068 0.363068 0.363068
0.376556 0.376556 0.376556
0.395691 0.395691 0.395691
0.416168 0.416168 0.416168
0.455017 0.455017 0.455017
0.512756 0.512756 0.512756
0.593140 0.593140 0.593140
0.669800 0.669800 0.669800
0.688568 0.688568 0.688568
0.703796 0.703796 0.703796
0.752655 0.752655 0.752655
0.787109 0.787109 0.787109
0.815033 0.815033 0.815033
0.843536 0.843536 0.843536
0.879974 0.879974 0.879974
0.928711 0.928711 0.928711
0.950958 0.950958 0.950958
0.970825 0.970825 0.970825
0.990356 0.990356 0.990356
1.000000 1.000000 1.000000
1.000000 1.000000 1.000000
1.000000 1.000000 1.000000
1.000000 1.000000 1.000000
1.000000 1.000000 1.000000
1.000000 1.000000 1.000000
1.000000 1.000000 1.000000
1.000000 1.000000 1.000000
1.000000 1.000000 1.000000
0.388275 0.388275 0.388275
0.388275 0.388275 0.388275
0.388275 0.388275 0.388275
0.388275 0.388275 0.388275
0.388275 0.388275 0.388275
0.395386 0.395386 0.395386
0.414551 0.414551 0.414551
0.434998 0.434998 0.434998
0.466278 0.466278 0.466278
0.522766 0.522766 0.522766
0.601196 0.601196 0.601196
0.696198 0.696198 0.696198
0.726746 0.726746 0.726746
0.741974 0.741974 0.741974
0.752655 0.752655 0.752655
0.787109 0.787109 0.787109
0.815033 0.815033 0.815033
0.843536 0.843536 0.843536
0.879974 0.879974 0.879974
0.928711 0.928711 0.928711
0.986603 0.986603 0.986603
1.000000 1.000000 1.000000
1.000000 1.000000 1.000000
1.000000 1.000000 1.000000
1.000000 1.000000 1.000000
1.000000 1.000000 1.000000
1.000000 1.000000 1.000000
1.000000 1.000000 1.000000
1.000000 1.000000 1.000000
1.000000 1.000000 1.000000
1.000000 1.000000 1.000000
1.000000 1.000000 1.000000
0.406036 0.406036 0.406036
0.406036 0.406036 0.406036
0.406036 0.406036 0.406036
0.406036 0.406036 0.406036
0.406036 0.406036 0.406036
0.408661 0.408661 0.408661
0.427887 0.427887 0.427887
0.448151 0.448151 0.448151
0.474304 0.474304 0.474304
0.530090 0.530090 0.530090
0.607300 0.607300 0.607300
0.700684 0.700684 0.700684
0.753662 0.753662 0.753662
0.768860 0.768860 0.768860
0.779572 0.779572 0.779572
0.787109 0.787109 0.787109
0.815033 0.815033 0.815033
0.843536 0.843536 0.843536
0.879974 0.879974 0.879974
0.928711 0.928711 0.928711
0.986603 0.986603 0.986603
1.000000 1.000000 1.000000
1.000000 1.000000 1.000000
1.000000 1.000000 1.000000
1.000000 1.000000 1.000000
1.000000 1.000000 1.000000
1.000000 1.000000 1.000000
1.000000 1.000000 1.000000
1.000000 1.000000 1.000000
1.000000 1.000000 1.000000
1.000000 1.000000 1.000000
1.000000 1.000000 1.000000
0.420441 0.420441 0.420441
0.420441 0.420441 0.420441
0.420441 0.420441 0.420441
0.420441 0.420441 0.420441
0.420441 0.420441 0.420441
0.420441 0.420441 0.420441
0.438629 0.438629 0.438629
0.459015 0.459015 0.459015
0.483734 0.483734 0.483734
0.536163 0.536163 0.536163
0.612488 0.612488 0.612488
0.704620 0.704620 0.704620
0.775482 0.775482 0.775482
0.790710 0.790710 0.790710
0.801392 0.801392 0.801392
0.808929 0.808929 0.808929
0.815033 0.815033 0.815033
0.843536 0.843536 0.843536
0.879974 0.879974 0.879974
0.928711 0.928711 0.928711
0.986603 0.986603 0.986603
1.000000 1.000000 1.000000
1.000000 1.000000 1.000000
1.000000 1.000000 1.000000
1.000000 1.000000 1.000000
1.000000 1.000000 1.000000
1.000000 1.000000 1.000000
1.000000 1.000000 1.000000
1.000000 1.000000 1.000000
1.000000 1.000000 1.000000
1.000000 1.000000 1.000000
1.000000 1.000000 1.000000
0.435150 0.435150 0.435150
0.435150 0.435150 0.435150
0.435150 0.435150 0.435150
0.435150 0.435150 0.435150
0.435150 0.435150 0.435150
0.435150 0.435150 0.435150
0.449646 0.449646 0.449646
0.469910 0.469910 0.469910
0.494690 0.494690 0.494690
0.542664 0.542664 0.542664
0.617981 0.617981 0.617981
0.708954 0.708954 0.708954
0.797729 0.797729 0.797729
0.812958 0.812958 0.812958
0.823669 0.823669 0.823669
0.831207 0.831207 0.831207
0.837311 0.837311 0.837311
0.843536 0.843536 0.843536
0.879974 0.879974 0.879974
0.928711 0.928711 0.928711
0.986603 0.986603 0.986603
1.000000 1.000000 1.000000
1.000000 1.000000 1.000000
1.000000 1.000000 1.000000
1.000000 1.000000 1.000000
1.000000 1.000000 1.000000
1.000000 1.000000 1.000000
1.000000 1.000000 1.000000
1.000000 1.000000 1.000000
1.000000 1.000000 1.000000
1.000000 1.000000 1.000000
1.000000 1.000000 1.000000
0.453949 0.453949 0.453949
0.453949 0.453949 0.453949
0.453949 0.453949 0.453949
0.453949 0.453949 0.453949
0.453949 0.453949 0.453949
0.453949 0.453949 0.453949
0.463684 0.463684 0.463684
0.484009 0.484009 0.484009
0.508759 0.508759 0.508759
0.550873 0.550873 0.550873
0.625092 0.625092 0.625092
0.714661 0.714661 0.714661
0.806427 0.806427 0.806427
0.841461 0.841461 0.841461
0.852112 0.852112 0.852112
0.859680 0.859680 0.859680
0.865784 0.865784 0.865784
0.871979 0.871979 0.871979
0.879974 0.879974 0.879974
0.928711 0.928711 0.928711
0.986603 0.986603 0.986603
1.000000 1.000000 1.000000
1.000000 1.000000 1.000000
1.000000 1.000000 1.000000
1.000000 1.000000 1.000000
1.000000 1.000000 1.000000
1.000000 1.000000 1.000000
1.000000 1.000000 1.000000
1.000000 1.000000 1.000000
1.000000 1.000000 1.000000
1.000000 1.000000 1.000000
1.000000 1.000000 1.000000
0.479095 0.479095 0.479095
0.479095 0.479095 0.479095
0.479095 0.479095 0.479095
0.479095 0.479095 0.479095
0.479095 0.479095 0.479095
0.479095 0.479095 0.479095
0.482269 0.482269 0.482269
0.502838 0.502838 0.502838
0.527649 0.527649 0.527649
0.562195 0.562195 0.562195
0.635284 0.635284 0.635284
0.723053 0.723053 0.723053
0.812897 0.812897 0.812897
0.879547 0.879547 0.879547
0.890198 0.890198 0.890198
0.897736 0.897736 0.897736
0.903870 0.903870 0.903870
0.910065 0.910065 0.910065
0.918060 0.918060 0.918060
0.928711 0.928711 0.928711
0.986603 0.986603 0.986603
1.000000 1.000000 1.000000
1.000000 1.000000 1.000000
1.000000 1.000000 1.000000
1.000000 1.000000 1.000000
1.000000 1.000000 1.000000
1.000000 1.000000 1.000000
1.000000 1.000000 1.000000
1.000000 1.000000 1.000000
1.000000 1.000000 1.000000
1.000000 1.000000 1.000000
1.000000 1.000000 1.000000
0.508942 0.508942 0.508942
0.508942 0.508942 0.508942
0.508942 0.508942 0.508942
0.508942 0.508942 0.508942
0.508942 0.508942 0.508942
0.508942 0.508942 0.508942
0.508942 0.508942 0.508942
0.525055 0.525055 0.525055
0.549896 0.549896 0.549896
0.581970 0.581970 0.581970
0.647888 0.647888 0.647888
0.733978 0.733978 0.733978
0.821625 0.821625 0.821625
0.896240 0.896240 0.896240
0.935455 0.935455 0.935455
0.942993 0.942993 0.942993
0.949097 0.949097 0.949097
0.955322 0.955322 0.955322
0.963257 0.963257 0.963257
0.973969 0.973969 0.973969
0.986603 0.986603 0.986603
1.000000 1.000000 1.000000
1.000000 1.000000 1.000000
1.000000 1.000000 1.000000
1.000000 1.000000 1.000000
1.000000 1.000000 1.000000
1.000000 1.000000 1.000000
1.000000 1.000000 1.000000
1.000000 1.000000 1.000000
1.000000 1.000000 1.000000
1.000000 1.000000 1.000000
1.000000 1.000000 1.000000
0.540497 0.540497 0.540497
0.540497 0.540497 0.540497
0.540497 0.540497 0.540497
0.540497 0.540497 0.540497
0.540497 0.540497 0.540497
0.540497 0.540497 0.540497
0.540497 0.540497 0.540497
0.548706 0.548706 0.548706
0.573364 0.573364 0.573364
0.605560 0.605560 0.605560
0.661743 0.661743 0.661743
0.746063 0.746063 0.746063
0.831726 0.831726 0.831726
0.904510 0.904510 0.904510
0.957336 0.957336 0.957336
0.990784 0.990784 0.990784
0.996857 0.996857 0.996857
1.000000 1.000000 1.000000
1.000000 1.000000 1.000000
1.000000 1.000000 1.000000
1.000000 1.000000 1.000000
1.000000 1.000000 1.000000
1.000000 1.000000 1.000000
1.000000 1.000000 1.000000
1.000000 1.000000 1.000000
1.000000 1.000000 1.000000
1.000000 1.000000 1.000000
1.000000 1.000000 1.000000
1.000000 1.000000 1.000000
1.000000 1.000000 1.000000
1.000000 1.000000 1.000000
1.000000 1.000000 1.000000
0.570953 0.570953 0.570953
0.570953 0.570953 0.570953
0.570953 0.570953 0.570953
0.570953 0.570953 0.570953
0.570953 0.570953 0.570953
0.570953 0.570953 0.570953
0.570953 0.570953 0.570953
0.571350 0.571350 0.571350
0.596161 0.596161 0.596161
0.628357 0.628357 0.628357
0.675385 0.675385 0.675385
0.758209 0.758209 0.758209
0.842285 0.842285 0.842285
0.913727 0.913727 0.913727
0.965179 0.965179 0.965179
1.000000 1.000000 1.000000
1.000000 1.000000 1.000000
1.000000 1.000000 1.000000
1.000000 1.000000 1.000000
1.000000 1.000000 1.000000
1.000000 1.000000 1.000000
1.000000 1.000000 1.000000
1.000000 1.000000 1.000000
1.000000 1.000000 1.000000
1.000000 1.000000 1.000000
1.000000 1.000000 1.000000
1.000000 1.000000 1.000000
1.000000 1.000000 1.000000
1.000000 1.000000 1.000000
1.000000 1.000000 1.000000
1.000000 1.000000 1.000000
1.000000 1.000000 1.000000
0.597107 0.597107 0.597107
0.597107 0.597107 0.597107
0.597107 0.597107 0.597107
0.597107 0.597107 0.597107
0.597107 0.597107 0.597107
0.597107 0.597107 0.597107
0.597107 0.597107 0.597107
0.597107 0.597107 0.597107
0.615753 0.615753 0.615753
0.647888 0.647888 0.647888
0.689636 0.689636 0.689636
0.769135 0.769135 0.769135
0.851929 0.851929 0.851929
0.922028 0.922028 0.922028
0.972809 0.972809 0.972809
1.000000 1.000000 1.000000
1.000000 1.000000 1.000000
1.000000 1.000000 1.000000
1.000000 1.000000 1.000000
1.000000 1.000000 1.000000
1.000000 1.000000 1.000000
1.000000 1.000000 1.000000
1.000000 1.000000 1.000000
1.000000 1.000000 1.000000
1.000000 1.000000 1.000000
1.000000 1.000000 1.000000
1.000000 1.000000 1.000000
1.000000 1.000000 1.000000
1.000000 1.000000 1.000000
1.000000 1.000000 1.000000
1.000000 1.000000 1.000000
1.000000 1.000000 1.000000
0.617615 0.617615 0.617615
0.617615 0.617615 0.617615
0.617615 0.617615 0.617615
0.617615 0.617615 0.617615
0.617615 0.617615 0.617615
0.617615 0.617615 0.617615
0.617615 0.617615 0.617615
0.617615 0.617615 0.617615
0.630981 0.630981 0.630981
0.663055 0.663055 0.663055
0.704987 0.704987 0.704987
0.778076 0.778076 0.778076
0.859985 0.859985 0.859985
0.929138 0.929138 0.929138
0.979309 0.979309 0.979309
1.000000 1.000000 1.000000
1.000000 1.000000 1.000000
1.000000 1.000000 1.000000
1.000000 1.000000 1.000000
1.000000 1.000000 1.000000
1.000000 1.000000 1.000000
1.000000 1.000000 1.000000
1.000000 1.000000 1.000000
1.000000 1.000000 1.000000
1.000000 1.000000 1.000000
1.000000 1.000000 1.000000
1.000000 1.000000 1.000000
1.000000 1.000000 1.000000
1.000000 1.000000 1.000000
1.000000 1.000000 1.000000
1.000000 1.000000 1.000000
1.000000 1.000000 1.000000
0.632996 0.632996 0.632996
0.632996 0.632996 0.632996
0.632996 0.632996 0.632996
0.632996 0.632996 0.632996
0.632996 0.632996 0.632996
0.632996 0.632996 0.632996
0.632996 0.632996 0.632996
0.632996 0.632996 0.632996
0.642609 0.642609 0.642609
0.674683 0.674683 0.674683
0.716583 0.716583 0.716583
0.784637 0.784637 0.784637
0.866028 0.866028 0.866028
0.934479 0.934479 0.934479
0.984100 0.984100 0.984100
1.000000 1.000000 1.000000
1.000000 1.000000 1.000000
1.000000 1.000000 1.000000
1.000000 1.000000 1.000000
1.000000 1.000000 1.000000
1.000000 1.000000 1.000000
1.000000 1.000000 1.000000
1.000000 1.000000 1.000000
1.000000 1.000000 1.000000
1.000000 1.000000 1.000000
1.000000 1.000000 1.000000
1.000000 1.000000 1.000000
1.000000 1.000000 1.000000
1.000000 1.000000 1.000000
1.000000 1.000000 1.000000
1.000000 1.000000 1.000000
1.000000 1.000000 1.000000
0.644165 0.644165 0.644165
0.644165 0.644165 0.644165
0.644165 0.644165 0.644165
0.644165 0.644165 0.644165
0.644165 0.644165 0.644165
0.644165 0.644165 0.644165
0.644165 0.644165 0.644165
0.644165 0.644165 0.644165
0.650696 0.650696 0.650696
0.682983 0.682983 0.682983
0.724792 0.724792 0.724792
0.789764 0.789764 0.789764
0.870239 0.870239 0.870239
0.938812 0.938812 0.938812
0.988037 0.988037 0.988037
1.000000 1.000000 1.000000
1.000000 1.000000 1.000000
1.000000 1.000000 1.000000
1.000000 1.000000 1.000000
1.000000 1.000000 1.000000
1.000000 1.000000 1.000000
1.000000 1.000000 1.000000
1.000000 1.000000 1.000000
1.000000 1.000000 1.000000
1.000000 1.000000 1.000000
1.000000 1.000000 1.000000
1.000000 1.000000 1.000000
1.000000 1.000000 1.000000
1.000000 1.000000 1.000000
1.000000 1.000000 1.000000
1.000000 1.000000 1.000000
1.000000 1.000000 1.000000
0.651611 0.651611 0.651611
0.651611 0.651611 0.651611
0.651611 0.651611 0.651611
0.651611 0.651611 0.651611
0.651611 0.651611 0.651611
0.651611 0.651611 0.651611
0.651611 0.651611 0.651611
0.651611 0.651611 0.651611
0.656311 0.656311 0.656311
0.688385 0.688385 0.688385
0.730316 0.730316 0.730316
0.793030 0.793030 0.793030
0.873322 0.873322 0.873322
0.941345 0.941345 0.941345
0.990692 0.990692 0.990692
1.000000 1.000000 1.000000
