ImageMetalling-05/ImageMetalling-05/Luts/filter3.cube
#Created by: Adobe Photoshop Export Color Lookup Plugin
#Copyright: (C) Copyright 2015 Denis Svinarchuk
TITLE "IMG_3085.JPG"
#LUT size
LUT_3D_SIZE 8
#data domain
#LUT data points
DOMAIN_MIN 0.000000 0.000000 0.000000
DOMAIN_MAX 0.903226 0.903226 0.903226
0.000000 0.000000 0.000000
0.086914 0.086914 0.086914
0.175995 0.175995 0.175995
0.348938 0.348938 0.348938
0.448425 0.448425 0.448425
0.542847 0.542847 0.542847
0.658722 0.658722 0.658722
0.699951 0.699951 0.699951
0.081482 0.081482 0.081482
0.157898 0.157898 0.157898
0.245575 0.245575 0.245575
0.348938 0.348938 0.348938
0.448425 0.448425 0.448425
0.542847 0.542847 0.542847
0.658722 0.658722 0.658722
0.699951 0.699951 0.699951
0.165009 0.165009 0.165009
0.218597 0.218597 0.218597
0.319824 0.319824 0.319824
0.493011 0.493011 0.493011
0.552002 0.552002 0.552002
0.608215 0.608215 0.608215
0.677002 0.677002 0.677002
0.701630 0.701630 0.701630
0.327148 0.327148 0.327148
0.328186 0.328186 0.328186
0.439880 0.439880 0.439880
0.634155 0.634155 0.634155
0.815033 0.815033 0.815033
0.888824 0.888824 0.888824
0.957764 0.957764 0.957764
0.982269 0.982269 0.982269
0.420441 0.420441 0.420441
0.420441 0.420441 0.420441
0.483734 0.483734 0.483734
0.775482 0.775482 0.775482
0.815033 0.815033 0.815033
0.986603 0.986603 0.986603
1.000000 1.000000 1.000000
1.000000 1.000000 1.000000
0.508942 0.508942 0.508942
0.508942 0.508942 0.508942
0.549896 0.549896 0.549896
0.821625 0.821625 0.821625
0.949097 0.949097 0.949097
0.986603 0.986603 0.986603
1.000000 1.000000 1.000000
1.000000 1.000000 1.000000
0.617615 0.617615 0.617615
0.617615 0.617615 0.617615
0.630981 0.630981 0.630981
0.859985 0.859985 0.859985
1.000000 1.000000 1.000000
1.000000 1.000000 1.000000
1.000000 1.000000 1.000000
1.000000 1.000000 1.000000
0.656250 0.656250 0.656250
0.656250 0.656250 0.656250
0.659912 0.659912 0.659912
0.875397 0.875397 0.875397
1.000000 1.000000 1.000000
1.000000 1.000000 1.000000
1.000000 1.000000 1.000000
1.000000 1.000000 1.000000
0.153290 0.153290 0.153290
0.123383 0.123383 0.123383
0.223572 0.223572 0.223572
0.337830 0.337830 0.337830
0.429443 0.429443 0.429443
0.523834 0.523834 0.523834
0.639740 0.639740 0.639740
0.680969 0.680969 0.680969
0.130280 0.130280 0.130280
0.123383 0.123383 0.123383
0.226715 0.226715 0.226715
0.427246 0.427246 0.427246
0.542603 0.542603 0.542603
0.652100 0.652100 0.652100
0.786438 0.786438 0.786438
0.834198 0.834198 0.834198
0.205078 0.205078 0.205078
0.225220 0.225220 0.225220
0.285309 0.285309 0.285309
0.463074 0.463074 0.463074
0.542603 0.542603 0.542603
0.652100 0.652100 0.652100
0.786438 0.786438 0.786438
0.834198 0.834198 0.834198
0.327148 0.327148 0.327148
0.422821 0.422821 0.422821
0.440704 0.440704 0.440704
0.599640 0.599640 0.599640
0.769562 0.769562 0.769562
0.859344 0.859344 0.859344
0.959503 0.959503 0.959503
0.995697 0.995697 0.995697
0.420441 0.420441 0.420441
0.536530 0.536530 0.536530
0.536591 0.536591 0.536591
0.734039 0.734039 0.734039
0.780487 0.780487 0.780487
0.952057 0.952057 0.952057
1.000000 1.000000 1.000000
1.000000 1.000000 1.000000
0.508942 0.508942 0.508942
0.644379 0.644379 0.644379
0.644379 0.644379 0.644379
0.808228 0.808228 0.808228
0.914551 0.914551 0.914551
0.952057 0.952057 0.952057
1.000000 1.000000 1.000000
1.000000 1.000000 1.000000
0.617615 0.617615 0.617615
0.776825 0.776825 0.776825
0.776825 0.776825 0.776825
0.887634 0.887634 0.887634
1.000000 1.000000 1.000000
1.000000 1.000000 1.000000
1.000000 1.000000 1.000000
1.000000 1.000000 1.000000
0.656250 0.656250 0.656250
0.821564 0.821564 0.821564
0.821564 0.821564 0.821564
0.915131 0.915131 0.915131
1.000000 1.000000 1.000000
1.000000 1.000000 1.000000
1.000000 1.000000 1.000000
1.000000 1.000000 1.000000
0.310516 0.310516 0.310516
0.280304 0.280304 0.280304
0.249908 0.249908 0.249908
0.447510 0.447510 0.447510
0.515839 0.515839 0.515839
0.578430 0.578430 0.578430
0.653412 0.653412 0.653412
0.679962 0.679962 0.679962
0.296997 0.296997 0.296997
0.280579 0.280579 0.280579
0.249908 0.249908 0.249908
0.441895 0.441895 0.441895
0.524109 0.524109 0.524109
0.627533 0.627533 0.627533
0.761871 0.761871 0.761871
0.809631 0.809631 0.809631
0.263885 0.263885 0.263885
0.256989 0.256989 0.256989
0.249908 0.249908 0.249908
0.450439 0.450439 0.450439
0.565857 0.565857 0.565857
0.675293 0.675293 0.675293
0.809662 0.809662 0.809662
0.857422 0.857422 0.857422
0.410187 0.410187 0.410187
0.438812 0.438812 0.438812
0.447540 0.447540 0.447540
0.564240 0.564240 0.564240
0.709351 0.709351 0.709351
0.792419 0.792419 0.792419
0.887604 0.887604 0.887604
0.922363 0.922363 0.922363
0.478668 0.478668 0.478668
0.536530 0.536530 0.536530
0.561249 0.561249 0.561249
0.680481 0.680481 0.680481
0.745087 0.745087 0.745087
0.913177 0.913177 0.913177
1.000000 1.000000 1.000000
1.000000 1.000000 1.000000
0.543762 0.543762 0.543762
0.644379 0.644379 0.644379
0.669098 0.669098 0.669098
0.746307 0.746307 0.746307
0.878540 0.878540 0.878540
0.916656 0.916656 0.916656
1.000000 1.000000 1.000000
1.000000 1.000000 1.000000
0.623566 0.623566 0.623566
0.776825 0.776825 0.776825
0.801544 0.801544 0.801544
0.840546 0.840546 0.840546
0.967834 0.967834 0.967834
1.000000 1.000000 1.000000
1.000000 1.000000 1.000000
1.000000 1.000000 1.000000
0.656250 0.656250 0.656250
0.821564 0.821564 0.821564
0.848633 0.848633 0.848633
0.881683 0.881683 0.881683
0.996552 0.996552 0.996552
1.000000 1.000000 1.000000
1.000000 1.000000 1.000000
1.000000 1.000000 1.000000
0.615662 0.615662 0.615662
0.581146 0.581146 0.581146
0.554718 0.554718 0.554718
0.495514 0.495514 0.495514
0.676392 0.676392 0.676392
0.778137 0.778137 0.778137
0.863770 0.863770 0.863770
0.893066 0.893066 0.893066
0.618317 0.618317 0.618317
0.585754 0.585754 0.585754
0.552521 0.552521 0.552521
0.495514 0.495514 0.495514
0.672791 0.672791 0.672791
0.772125 0.772125 0.772125
0.883789 0.883789 0.883789
0.921265 0.921265 0.921265
0.587585 0.587585 0.587585
0.579498 0.579498 0.579498
0.555084 0.555084 0.555084
0.495514 0.495514 0.495514
0.649780 0.649780 0.649780
0.741730 0.741730 0.741730
0.845093 0.845093 0.845093
0.880890 0.880890 0.880890
0.523224 0.523224 0.523224
0.516327 0.516327 0.516327
0.509247 0.509247 0.509247
0.495514 0.495514 0.495514
0.610931 0.610931 0.610931
0.720398 0.720398 0.720398
0.854736 0.854736 0.854736
0.902557 0.902557 0.902557
0.636841 0.636841 0.636841
0.632202 0.632202 0.632202
0.623901 0.623901 0.623901
0.609253 0.609253 0.609253
0.676392 0.676392 0.676392
0.793335 0.793335 0.793335
0.888855 0.888855 0.888855
0.920258 0.920258 0.920258
0.710693 0.710693 0.710693
0.735809 0.735809 0.735809
0.721924 0.721924 0.721924
0.717102 0.717102 0.717102
0.770203 0.770203 0.770203
0.847961 0.847961 0.847961
1.000000 1.000000 1.000000
1.000000 1.000000 1.000000
0.790619 0.790619 0.790619
0.854797 0.854797 0.854797
0.836121 0.836121 0.836121
0.849548 0.849548 0.849548
0.866608 0.866608 0.866608
0.981659 0.981659 0.981659
1.000000 1.000000 1.000000
1.000000 1.000000 1.000000
0.818970 0.818970 0.818970
0.896210 0.896210 0.896210
0.876770 0.876770 0.876770
0.896637 0.896637 0.896637
0.906067 0.906067 0.906067
1.000000 1.000000 1.000000
1.000000 1.000000 1.000000
1.000000 1.000000 1.000000
0.791260 0.791260 0.791260
0.756714 0.756714 0.756714
0.727600 0.727600 0.727600
0.676392 0.676392 0.676392
0.636841 0.636841 0.636841
0.808411 0.808411 0.808411
0.969849 0.969849 0.969849
1.000000 1.000000 1.000000
0.804230 0.804230 0.804230
0.761353 0.761353 0.761353
0.725952 0.725952 0.725952
0.674957 0.674957 0.674957
0.636841 0.636841 0.636841
0.808411 0.808411 0.808411
0.961182 0.961182 0.961182
1.000000 1.000000 1.000000
0.772522 0.772522 0.772522
0.764435 0.764435 0.764435
0.730682 0.730682 0.730682
0.672699 0.672699 0.672699
0.636841 0.636841 0.636841
0.808411 0.808411 0.808411
0.933990 0.933990 0.933990
0.974487 0.974487 0.974487
0.712006 0.712006 0.712006
0.704773 0.704773 0.704773
0.696503 0.696503 0.696503
0.671112 0.671112 0.671112
0.636841 0.636841 0.636841
0.762604 0.762604 0.762604
0.865479 0.865479 0.865479
0.899780 0.899780 0.899780
0.672485 0.672485 0.672485
0.665558 0.665558 0.665558
0.658478 0.658478 0.658478
0.644745 0.644745 0.644745
0.636841 0.636841 0.636841
0.746338 0.746338 0.746338
0.880737 0.880737 0.880737
0.928528 0.928528 0.928528
0.776550 0.776550 0.776550
0.770905 0.770905 0.770905
0.768616 0.768616 0.768616
0.749817 0.749817 0.749817
0.744720 0.744720 0.744720
0.808411 0.808411 0.808411
0.942200 0.942200 0.942200
0.975555 0.975555 0.975555
0.886566 0.886566 0.886566
0.906860 0.906860 0.906860
0.896667 0.896667 0.896667
0.864258 0.864258 0.864258
0.877167 0.877167 0.877167
0.915070 0.915070 0.915070
1.000000 1.000000 1.000000
1.000000 1.000000 1.000000
0.914978 0.914978 0.914978
0.951965 0.951965 0.951965
0.938385 0.938385 0.938385
0.903290 0.903290 0.903290
0.924255 0.924255 0.924255
0.947327 0.947327 0.947327
1.000000 1.000000 1.000000
1.000000 1.000000 1.000000
0.957855 0.957855 0.957855
0.923309 0.923309 0.923309
0.891479 0.891479 0.891479
0.841095 0.841095 0.841095
0.808411 0.808411 0.808411
0.770905 0.770905 0.770905
0.981598 0.981598 0.981598
1.000000 1.000000 1.000000
0.980804 0.980804 0.980804
0.927917 0.927917 0.927917
0.892548 0.892548 0.892548
0.838928 0.838928 0.838928
0.808411 0.808411 0.808411
0.770905 0.770905 0.770905
0.981567 0.981567 0.981567
1.000000 1.000000 1.000000
0.947876 0.947876 0.947876
0.940826 0.940826 0.940826
0.897247 0.897247 0.897247
0.836670 0.836670 0.836670
0.807678 0.807678 0.807678
0.770905 0.770905 0.770905
0.981567 0.981567 0.981567
1.000000 1.000000 1.000000
0.888245 0.888245 0.888245
0.880157 0.880157 0.880157
0.871857 0.871857 0.871857
0.837677 0.837677 0.837677
0.803314 0.803314 0.803314
0.770905 0.770905 0.770905
0.948242 0.948242 0.948242
0.990204 0.990204 0.990204
0.851532 0.851532 0.851532
0.844635 0.844635 0.844635
0.837555 0.837555 0.837555
0.821472 0.821472 0.821472
0.803406 0.803406 0.803406
0.770905 0.770905 0.770905
0.914612 0.914612 0.914612
0.951538 0.951538 0.951538
0.814026 0.814026 0.814026
0.807129 0.807129 0.807129
0.800049 0.800049 0.800049
0.786316 0.786316 0.786316
0.778412 0.778412 0.778412
0.770905 0.770905 0.770905
0.905334 0.905334 0.905334
0.953094 0.953094 0.953094
0.941772 0.941772 0.941772
0.935516 0.935516 0.935516
0.935516 0.935516 0.935516
0.919586 0.919586 0.919586
0.904663 0.904663 0.904663
0.903381 0.903381 0.903381
0.981567 0.981567 0.981567
1.000000 1.000000 1.000000
0.994049 0.994049 0.994049
0.990723 0.990723 0.990723
0.983154 0.983154 0.983154
0.963074 0.963074 0.963074
0.945618 0.945618 0.945618
0.950470 0.950470 0.950470
1.000000 1.000000 1.000000
1.000000 1.000000 1.000000
1.000000 1.000000 1.000000
1.000000 1.000000 1.000000
1.000000 1.000000 1.000000
1.000000 1.000000 1.000000
1.000000 1.000000 1.000000
0.981598 0.981598 0.981598
0.935516 0.935516 0.935516
1.000000 1.000000 1.000000
1.000000 1.000000 1.000000
1.000000 1.000000 1.000000
1.000000 1.000000 1.000000
1.000000 1.000000 1.000000
1.000000 1.000000 1.000000
0.981567 0.981567 0.981567
0.935516 0.935516 0.935516
1.000000 1.000000 1.000000
1.000000 1.000000 1.000000
1.000000 1.000000 1.000000
1.000000 1.000000 1.000000
1.000000 1.000000 1.000000
1.000000 1.000000 1.000000
0.981476 0.981476 0.981476
0.935516 0.935516 0.935516
1.000000 1.000000 1.000000
1.000000 1.000000 1.000000
1.000000 1.000000 1.000000
1.000000 1.000000 1.000000
1.000000 1.000000 1.000000
1.000000 1.000000 1.000000
0.977112 0.977112 0.977112
0.935516 0.935516 0.935516
1.000000 1.000000 1.000000
1.000000 1.000000 1.000000
1.000000 1.000000 1.000000
1.000000 1.000000 1.000000
1.000000 1.000000 1.000000
1.000000 1.000000 1.000000
0.974609 0.974609 0.974609
0.935516 0.935516 0.935516
1.000000 1.000000 1.000000
1.000000 1.000000 1.000000
1.000000 1.000000 1.000000
1.000000 1.000000 1.000000
1.000000 1.000000 1.000000
0.995026 0.995026 0.995026
0.975433 0.975433 0.975433
0.935516 0.935516 0.935516
1.000000 1.000000 1.000000
0.987854 0.987854 0.987854
0.980957 0.980957 0.980957
0.973877 0.973877 0.973877
0.960144 0.960144 0.960144
0.952240 0.952240 0.952240
0.944733 0.944733 0.944733
0.935516 0.935516 0.935516
0.983337 0.983337 0.983337
1.000000 1.000000 1.000000
1.000000 1.000000 1.000000
1.000000 1.000000 1.000000
1.000000 1.000000 1.000000
0.997650 0.997650 0.997650
0.992737 0.992737 0.992737
0.982635 0.982635 0.982635
1.000000 1.000000 1.000000
1.000000 1.000000 1.000000
1.000000 1.000000 1.000000
1.000000 1.000000 1.000000
1.000000 1.000000 1.000000
1.000000 1.000000 1.000000
1.000000 1.000000 1.000000
1.000000 1.000000 1.000000
0.994049 0.994049 0.994049
1.000000 1.000000 1.000000
1.000000 1.000000 1.000000
1.000000 1.000000 1.000000
1.000000 1.000000 1.000000
1.000000 1.000000 1.000000
1.000000 1.000000 1.000000
1.000000 1.000000 1.000000
0.994049 0.994049 0.994049
1.000000 1.000000 1.000000
1.000000 1.000000 1.000000
1.000000 1.000000 1.000000
1.000000 1.000000 1.000000
1.000000 1.000000 1.000000
1.000000 1.000000 1.000000
1.000000 1.000000 1.000000
0.994049 0.994049 0.994049
1.000000 1.000000 1.000000
1.000000 1.000000 1.000000
1.000000 1.000000 1.000000
1.000000 1.000000 1.000000
1.000000 1.000000 1.000000
1.000000 1.000000 1.000000
1.000000 1.000000 1.000000
0.994049 0.994049 0.994049
1.000000 1.000000 1.000000
1.000000 1.000000 1.000000
1.000000 1.000000 1.000000
1.000000 1.000000 1.000000
1.000000 1.000000 1.000000
1.000000 1.000000 1.000000
1.000000 1.000000 1.000000
0.994049 0.994049 0.994049
1.000000 1.000000 1.000000
1.000000 1.000000 1.000000
1.000000 1.000000 1.000000
1.000000 1.000000 1.000000
1.000000 1.000000 1.000000
1.000000 1.000000 1.000000
1.000000 1.000000 1.000000
0.994049 0.994049 0.994049
1.000000 1.000000 1.000000
1.000000 1.000000 1.000000
1.000000 1.000000 1.000000
1.000000 1.000000 1.000000
1.000000 1.000000 1.000000
1.000000 1.000000 1.000000
1.000000 1.000000 1.000000
0.994049 0.994049 0.994049
1.000000 1.000000 1.000000
1.000000 1.000000 1.000000
1.000000 1.000000 1.000000
1.000000 1.000000 1.000000
1.000000 1.000000 1.000000
1.000000 1.000000 1.000000
0.997314 0.997314 0.997314
0.994049 0.994049 0.994049
