ImageMetalling-03/ImageMetalling-03/Luts/filter3.cube
#Created by: Adobe Photoshop Export Color Lookup Plugin
TITLE "omdp_75.jpg"
#LUT size
LUT_3D_SIZE 24
#data domain
DOMAIN_MIN 0.0 0.0 0.0
DOMAIN_MAX 1.0 1.0 1.0
#LUT data points
0.000000 0.000000 0.000000
0.021790 0.000000 0.000000
0.043518 0.000000 0.000000
0.065277 0.000000 0.000000
0.087006 0.000000 0.000000
0.108734 0.000000 0.000000
0.130493 0.000000 0.000000
0.152252 0.000000 0.000000
0.173981 0.000000 0.000000
0.195740 0.000000 0.000000
0.217468 0.000000 0.000000
0.239227 0.000000 0.000000
0.260956 0.000000 0.000000
0.282715 0.000000 0.000000
0.304443 0.000000 0.000000
0.326202 0.000000 0.000000
0.347931 0.000000 0.000000
0.369690 0.000000 0.000000
0.391449 0.000000 0.000000
0.413177 0.000000 0.000000
0.434906 0.000000 0.000000
0.456665 0.000000 0.000000
0.478394 0.000000 0.000000
0.500153 0.000000 0.000000
0.000000 0.043488 0.000000
0.043488 0.043488 0.000000
0.065094 0.032562 0.000000
0.076080 0.025360 0.000000
0.087006 0.021759 0.000000
0.108734 0.021729 0.000000
0.130493 0.021759 0.000000
0.152252 0.021759 0.000000
0.173981 0.021759 0.000000
0.195740 0.021729 0.000000
0.217468 0.021759 0.000000
0.239227 0.021729 0.000000
0.260956 0.021729 0.000000
0.282715 0.021729 0.000000
0.304443 0.021790 0.000000
0.326202 0.021729 0.000000
0.347931 0.021759 0.000000
0.369690 0.021759 0.000000
0.391449 0.021790 0.000000
0.413177 0.021790 0.000000
0.434906 0.021759 0.000000
0.456665 0.021729 0.000000
0.478394 0.021729 0.000000
0.500153 0.021729 0.000000
0.000000 0.086945 0.000000
0.043488 0.086945 0.000000
0.086945 0.086945 0.000000
0.119171 0.079437 0.000000
0.130157 0.065094 0.000000
0.141052 0.056396 0.000000
0.152039 0.050659 0.000000
0.163025 0.046570 0.000000
0.173981 0.043488 0.000000
0.195740 0.043488 0.000000
0.217468 0.043488 0.000000
0.239227 0.043518 0.000000
0.260956 0.043518 0.000000
0.282715 0.043488 0.000000
0.304443 0.043488 0.000000
0.326202 0.043488 0.000000
0.347931 0.043488 0.000000
0.369690 0.043518 0.000000
0.391449 0.043488 0.000000
0.413177 0.043488 0.000000
0.434906 0.043518 0.000000
0.456665 0.043488 0.000000
0.478394 0.043457 0.000000
0.500153 0.043457 0.000000
0.000000 0.130432 0.000000
0.043488 0.130432 0.000000
0.086945 0.130432 0.000000
0.130432 0.130432 0.000000
0.173279 0.129974 0.000000
0.184235 0.110565 0.000000
0.195190 0.097595 0.000000
0.206116 0.088318 0.000000
0.217133 0.081421 0.000000
0.228058 0.075989 0.000000
0.239075 0.071747 0.000000
0.249969 0.068176 0.000000
0.260956 0.065247 0.000000
0.282715 0.065216 0.000000
0.304443 0.065247 0.000000
0.326202 0.065216 0.000000
0.347931 0.065247 0.000000
0.369690 0.065247 0.000000
0.391449 0.065277 0.000000
0.413177 0.065277 0.000000
0.434906 0.065186 0.000000
0.456665 0.065216 0.000000
0.478394 0.065277 0.000000
0.500153 0.065216 0.000000
0.000000 0.173920 0.000000
0.043488 0.173920 0.000000
0.086975 0.173920 0.000000
0.130432 0.173920 0.000000
0.173920 0.173920 0.000000
0.217377 0.173920 0.000000
0.238342 0.158905 0.000000
0.249329 0.142487 0.000000
0.260284 0.130157 0.000000
0.271240 0.120575 0.000000
0.282135 0.112823 0.000000
0.293121 0.106567 0.000000
0.304077 0.101349 0.000000
0.315002 0.096893 0.000000
0.326019 0.093140 0.000000
0.336945 0.089844 0.000000
0.347931 0.086975 0.000000
0.369690 0.087006 0.000000
0.391449 0.086975 0.000000
0.413177 0.086945 0.000000
0.434906 0.086975 0.000000
0.456665 0.086975 0.000000
0.478394 0.087006 0.000000
0.500153 0.086945 0.000000
0.000000 0.217377 0.000000
0.043457 0.217377 0.000000
0.086945 0.217377 0.000000
0.130432 0.217377 0.000000
0.173920 0.217377 0.000000
0.217377 0.217377 0.000000
0.260864 0.217377 0.000000
0.292389 0.208801 0.000000
0.303375 0.189606 0.000000
0.314270 0.174561 0.000000
0.325317 0.162659 0.000000
0.336304 0.152893 0.000000
0.347260 0.144714 0.000000
0.358124 0.137695 0.000000
0.369171 0.131866 0.000000
0.380096 0.126678 0.000000
0.391083 0.122223 0.000000
0.402069 0.118286 0.000000
0.413025 0.114746 0.000000
0.423950 0.111572 0.000000
0.434906 0.108734 0.000000
0.456665 0.108704 0.000000
0.478394 0.108734 0.000000
0.500153 0.108673 0.000000
0.000000 0.260864 0.000000
0.043488 0.260864 0.000000
0.086945 0.260864 0.000000
0.130432 0.260864 0.000000
0.173920 0.260864 0.000000
0.217377 0.260864 0.000000
0.260864 0.260864 0.000000
0.304352 0.260895 0.000000
0.346497 0.259888 0.000000
0.357513 0.238373 0.000000
0.368469 0.221130 0.000000
0.379395 0.206940 0.000000
0.390381 0.195190 0.000000
0.401245 0.185150 0.000000
0.412201 0.176605 0.000000
0.423157 0.169220 0.000000
0.434204 0.162842 0.000000
0.445221 0.157166 0.000000
0.456116 0.152008 0.000000
0.467010 0.147430 0.000000
0.478119 0.143463 0.000000
0.488983 0.139679 0.000000
0.499878 0.136322 0.000000
0.511017 0.133362 0.000000
0.000000 0.304352 0.000000
0.043457 0.304352 0.000000
0.086945 0.304352 0.000000
0.130402 0.304352 0.000000
0.173950 0.304352 0.000000
0.217346 0.304352 0.000000
0.260895 0.304352 0.000000
0.304352 0.304352 0.000000
0.347839 0.304352 0.000000
0.391296 0.304352 0.000000
0.411560 0.288086 0.000000
0.422607 0.268982 0.000000
0.433411 0.252777 0.000000
0.444489 0.239380 0.000000
0.455444 0.227722 0.000000
0.466461 0.217743 0.000000
0.477356 0.208832 0.000000
0.488434 0.201172 0.000000
0.499298 0.194183 0.000000
0.510193 0.187958 0.000000
0.521210 0.182465 0.000000
0.532135 0.177338 0.000000
0.543091 0.172760 0.000000
0.554108 0.168701 0.000000
0.000000 0.347839 0.000000
0.043488 0.347839 0.000000
0.086975 0.347839 0.000000
0.130432 0.347839 0.000000
0.173920 0.347839 0.000000
0.217407 0.347839 0.000000
0.260895 0.347839 0.000000
0.304352 0.347839 0.000000
0.347839 0.347839 0.000000
0.391296 0.347839 0.000000
0.434784 0.347839 0.000000
0.465698 0.338715 0.000000
0.476654 0.317810 0.000000
0.487640 0.300140 0.000000
0.498627 0.284973 0.000000
0.509521 0.271790 0.000000
0.520508 0.260254 0.000000
0.531555 0.250214 0.000000
0.542297 0.240967 0.000000
0.553436 0.233063 0.000000
0.564209 0.225616 0.000000
0.575256 0.219086 0.000000
0.586395 0.213318 0.000000
0.597321 0.207794 0.000000
0.000000 0.391296 0.000000
0.043457 0.391296 0.000000
0.086945 0.391296 0.000000
0.130402 0.391296 0.000000
0.173950 0.391296 0.000000
0.217346 0.391296 0.000000
0.260895 0.391296 0.000000
0.304352 0.391296 0.000000
0.347839 0.391296 0.000000
0.391296 0.391296 0.000000
0.434784 0.391266 0.000000
0.478271 0.391296 0.000000
0.519714 0.389801 0.000000
0.530762 0.367493 0.000000
0.541626 0.348175 0.000000
0.552673 0.331665 0.000000
0.563629 0.317047 0.000000
0.574493 0.304077 0.000000
0.585571 0.292786 0.000000
0.596405 0.282471 0.000000
0.607422 0.273315 0.000000
0.618286 0.264923 0.000000
0.629486 0.257568 0.000000
0.640411 0.250641 0.000000
0.000000 0.434784 0.000000
0.043518 0.434784 0.000000
0.086945 0.434784 0.000000
0.130463 0.434784 0.000000
0.173859 0.434784 0.000000
0.217407 0.434784 0.000000
0.260925 0.434784 0.000000
0.304321 0.434784 0.000000
0.347839 0.434784 0.000000
0.391266 0.434784 0.000000
0.434784 0.434784 0.000000
0.478271 0.434845 0.000000
0.521729 0.434723 0.000000
0.565216 0.434814 0.000000
0.584869 0.417816 0.000000
0.595825 0.397278 0.000000
0.606689 0.379181 0.000000
0.617645 0.363251 0.000000
0.628754 0.349365 0.000000
0.639648 0.336700 0.000000
0.650604 0.325317 0.000000
0.661407 0.314880 0.000000
0.672577 0.305756 0.000000
0.683502 0.297211 0.000000
0.000000 0.478271 0.000000
0.043427 0.478271 0.000000
0.086975 0.478271 0.000000
0.130432 0.478271 0.000000
0.173859 0.478271 0.000000
0.217407 0.478271 0.000000
0.260864 0.478271 0.000000
0.304413 0.478271 0.000000
0.347839 0.478271 0.000000
0.391296 0.478271 0.000000
0.434845 0.478271 0.000000
0.478271 0.478271 0.000000
0.521729 0.478302 0.000000
0.565216 0.478271 0.000000
0.608704 0.478210 0.000000
0.638885 0.468567 0.000000
0.649811 0.446747 0.000000
0.660767 0.427490 0.000000
0.671722 0.410492 0.000000
0.682709 0.395203 0.000000
0.693726 0.381592 0.000000
0.704773 0.369263 0.000000
0.715668 0.357849 0.000000
0.726593 0.347504 0.000000
0.000000 0.521729 0.000000
0.043427 0.521729 0.000000
0.087006 0.521729 0.000000
0.130432 0.521729 0.000000
0.173859 0.521729 0.000000
0.217438 0.521729 0.000000
0.260864 0.521729 0.000000
0.304291 0.521729 0.000000
0.347870 0.521729 0.000000
0.391296 0.521729 0.000000
0.434723 0.521729 0.000000
0.478302 0.521729 0.000000
0.521729 0.521729 0.000000
0.565216 0.521759 0.000000
0.608704 0.521759 0.000000
0.652161 0.521759 0.000000
0.692963 0.519714 0.000000
0.703888 0.496826 0.000000
0.715027 0.476746 0.000000
0.725891 0.458466 0.000000
0.736908 0.442230 0.000000
0.747681 0.427155 0.000000
0.758759 0.413849 0.000000
0.769684 0.401581 0.000000
0.000000 0.565216 0.000000
0.043457 0.565216 0.000000
0.086945 0.565216 0.000000
0.130402 0.565216 0.000000
0.173859 0.565216 0.000000
0.217346 0.565216 0.000000
0.260803 0.565216 0.000000
0.304413 0.565216 0.000000
0.347870 0.565216 0.000000
0.391357 0.565216 0.000000
0.434814 0.565216 0.000000
0.478271 0.565216 0.000000
0.521759 0.565216 0.000000
0.565216 0.565216 0.000000
0.608704 0.565155 0.000000
0.652161 0.565216 0.000000
0.695648 0.565216 0.000000
0.739136 0.565186 0.000000
0.757996 0.547394 0.000000
0.769135 0.526337 0.000000
0.779907 0.506866 0.000000
0.791046 0.489777 0.000000
0.801819 0.473724 0.000000
0.812775 0.459381 0.000000
0.000000 0.608704 0.000000
0.043549 0.608704 0.000000
0.086945 0.608704 0.000000
0.130493 0.608704 0.000000
0.173859 0.608704 0.000000
0.217407 0.608704 0.000000
0.260803 0.608704 0.000000
0.304352 0.608704 0.000000
0.347900 0.608704 0.000000
0.391296 0.608704 0.000000
0.434845 0.608704 0.000000
0.478210 0.608704 0.000000
0.521759 0.608704 0.000000
0.565155 0.608704 0.000000
0.608704 0.608704 0.000000
0.652161 0.608704 0.000000
0.695648 0.608704 0.000000
0.739136 0.608673 0.000000
0.782623 0.608765 0.000000
0.812103 0.598358 0.000000
0.823120 0.576141 0.000000
0.834167 0.556183 0.000000
0.845154 0.537933 0.000000
0.855865 0.520905 0.000000
0.000000 0.652161 0.000000
0.043457 0.652161 0.000000
0.086945 0.652161 0.000000
0.130402 0.652161 0.000000
0.173859 0.652161 0.000000
0.217346 0.652161 0.000000
0.260803 0.652161 0.000000
0.304413 0.652161 0.000000
0.347900 0.652161 0.000000
0.391357 0.652161 0.000000
0.434814 0.652161 0.000000
0.478302 0.652161 0.000000
0.521759 0.652161 0.000000
0.565216 0.652161 0.000000
0.608704 0.652161 0.000000
0.652161 0.652161 0.000000
0.695648 0.652161 0.000000
0.739136 0.652161 0.000000
0.782623 0.652130 0.000000
0.826080 0.652222 0.000000
0.866211 0.649658 0.000000
0.877319 0.626709 0.000000
0.888245 0.605682 0.000000
0.899078 0.586304 0.000000
0.000000 0.695648 0.000000
0.043488 0.695648 0.000000
0.086945 0.695648 0.000000
0.130432 0.695648 0.000000
0.173920 0.695648 0.000000
0.217377 0.695648 0.000000
0.260864 0.695648 0.000000
0.304352 0.695648 0.000000
0.347839 0.695648 0.000000
0.391296 0.695648 0.000000
0.434784 0.695648 0.000000
0.478271 0.695648 0.000000
0.521729 0.695648 0.000000
0.565216 0.695648 0.000000
0.608704 0.695648 0.000000
0.652161 0.695648 0.000000
0.695648 0.695648 0.000000
0.739136 0.695648 0.000000
0.782623 0.695679 0.000000
0.826080 0.695587 0.000000
0.869568 0.695709 0.000000
0.913055 0.695709 0.000000
0.931335 0.677368 0.000000
0.942169 0.655334 0.000000
0.000000 0.739136 0.000000
0.043488 0.739136 0.000000
0.086975 0.739136 0.000000
0.130463 0.739136 0.000000
0.173950 0.739136 0.000000
0.217438 0.739136 0.000000
0.260925 0.739136 0.000000
0.304413 0.739136 0.000000
0.347900 0.739136 0.000000
0.391235 0.739136 0.000000
0.434723 0.739136 0.000000
0.478210 0.739136 0.000000
0.521698 0.739136 0.000000
0.565186 0.739136 0.000000
0.608673 0.739136 0.000000
0.652161 0.739136 0.000000
0.695648 0.739136 0.000000
0.739136 0.739136 0.000000
0.782623 0.739044 0.000000
0.826080 0.739166 0.000000
0.869568 0.739227 0.000000
0.913055 0.739197 0.000000
0.956512 0.739105 0.000000
0.985504 0.728546 0.000000
0.000000 0.782623 0.000000
0.043579 0.782623 0.000000
0.086945 0.782623 0.000000
0.130493 0.782623 0.000000
0.173859 0.782623 0.000000
0.217438 0.782623 0.000000
0.260803 0.782623 0.000000
0.304382 0.782623 0.000000
0.347748 0.782623 0.000000
0.391327 0.782623 0.000000
0.434875 0.782623 0.000000
0.478241 0.782623 0.000000
0.521820 0.782623 0.000000
0.565186 0.782623 0.000000
0.608765 0.782623 0.000000
0.652130 0.782623 0.000000
0.695679 0.782623 0.000000
0.739044 0.782623 0.000000
0.782623 0.782623 0.000000
0.826080 0.782715 0.000000
0.869568 0.782532 0.000000
0.913055 0.782654 0.000000
0.956512 0.782532 0.000000
1.000000 0.782715 0.000000
0.000000 0.826080 0.000000
0.043549 0.826080 0.000000
0.086914 0.826080 0.000000
0.130493 0.826080 0.000000
0.173859 0.826080 0.000000
0.217407 0.826080 0.000000
0.260773 0.826080 0.000000
0.304321 0.826080 0.000000
0.347900 0.826080 0.000000
0.391266 0.826080 0.000000
0.434814 0.826080 0.000000
0.478180 0.826080 0.000000
0.521759 0.826080 0.000000
0.565308 0.826080 0.000000
0.608673 0.826080 0.000000
0.652222 0.826080 0.000000
0.695587 0.826080 0.000000
0.739166 0.826080 0.000000
0.782715 0.826080 0.000000
0.826080 0.826080 0.000000
0.869568 0.826050 0.000000
0.913055 0.826111 0.000000
0.956512 0.825958 0.000000
1.000000 0.826172 0.000000
0.000000 0.869568 0.000000
0.043518 0.869568 0.000000
0.087036 0.869568 0.000000
0.130341 0.869568 0.000000
0.173859 0.869568 0.000000
0.217407 0.869568 0.000000
0.260925 0.869568 0.000000
0.304443 0.869568 0.000000
0.347748 0.869568 0.000000
0.391266 0.869568 0.000000
0.434784 0.869568 0.000000
0.478302 0.869568 0.000000
0.521820 0.869568 0.000000
0.565125 0.869568 0.000000
0.608643 0.869568 0.000000
0.652191 0.869568 0.000000
0.695709 0.869568 0.000000
0.739227 0.869568 0.000000
0.782532 0.869568 0.000000
0.826050 0.869568 0.000000
0.869568 0.869568 0.000000
0.913055 0.869598 0.000000
0.956512 0.869629 0.000000
1.000000 0.869629 0.000000
0.000000 0.913055 0.000000
0.043457 0.913055 0.000000
0.086945 0.913055 0.000000
0.130402 0.913055 0.000000
0.173859 0.913055 0.000000
0.217346 0.913055 0.000000
0.260803 0.913055 0.000000
0.304291 0.913055 0.000000
0.347748 0.913055 0.000000
0.391205 0.913055 0.000000
0.434692 0.913055 0.000000
0.478363 0.913055 0.000000
0.521606 0.913055 0.000000
0.565308 0.913055 0.000000
0.608765 0.913055 0.000000
0.652252 0.913055 0.000000
0.695709 0.913055 0.000000
0.739197 0.913055 0.000000
0.782654 0.913055 0.000000
0.826111 0.913055 0.000000
0.869598 0.913055 0.000000
0.913055 0.913055 0.000000
0.956512 0.913086 0.000000
1.000000 0.913086 0.000000
0.000000 0.956512 0.000000
0.043427 0.956512 0.000000
0.086884 0.956512 0.000000
0.130554 0.956512 0.000000
0.173981 0.956512 0.000000
0.217407 0.956512 0.000000
0.260834 0.956512 0.000000
0.304291 0.956512 0.000000
0.347961 0.956512 0.000000
0.391388 0.956512 0.000000
0.434814 0.956512 0.000000
0.478271 0.956512 0.000000
0.521698 0.956512 0.000000
0.565125 0.956512 0.000000
0.608795 0.956512 0.000000
0.652222 0.956512 0.000000
0.695679 0.956512 0.000000
0.739105 0.956512 0.000000
0.782532 0.956512 0.000000
0.825958 0.956512 0.000000
0.869629 0.956512 0.000000
0.913086 0.956512 0.000000
0.956512 0.956512 0.000000
1.000000 0.956543 0.000000
0.000000 1.000000 0.000000
0.043457 1.000000 0.000000
0.086914 1.000000 0.000000
0.130371 1.000000 0.000000
0.173828 1.000000 0.000000
0.217285 1.000000 0.000000
0.260986 1.000000 0.000000
0.304443 1.000000 0.000000
0.347900 1.000000 0.000000
0.391357 1.000000 0.000000
0.434814 1.000000 0.000000
0.478271 1.000000 0.000000
0.521729 1.000000 0.000000
0.565186 1.000000 0.000000
0.608643 1.000000 0.000000
0.652100 1.000000 0.000000
0.695557 1.000000 0.000000
0.739258 1.000000 0.000000
0.782715 1.000000 0.000000
0.826172 1.000000 0.000000
0.869629 1.000000 0.000000
0.913086 1.000000 0.000000
0.956543 1.000000 0.000000
1.000000 1.000000 0.000000
0.000000 0.000000 0.043488
0.043488 0.000000 0.043488
0.066620 0.000000 0.033325
0.078186 0.000000 0.026062
0.089722 0.000000 0.022430
0.108734 0.000000 0.021729
0.130493 0.000000 0.021759
0.152252 0.000000 0.021759
0.173981 0.000000 0.021759
0.195740 0.000000 0.021729
0.217468 0.000000 0.021759
0.239227 0.000000 0.021729
0.260956 0.000000 0.021729
0.282715 0.000000 0.021729
0.304443 0.000000 0.021790
0.326202 0.000000 0.021729
0.347931 0.000000 0.021759
0.369690 0.000000 0.021759
0.391449 0.000000 0.021790
0.413177 0.000000 0.021790
0.434906 0.000000 0.021759
0.456665 0.000000 0.021729
0.478394 0.000000 0.021729
0.500153 0.000000 0.021729
0.000000 0.043488 0.043488
0.043488 0.043488 0.043488
0.076019 0.032684 0.032684
0.108582 0.021881 0.021881
0.141144 0.011108 0.011108
0.173645 0.000305 0.000305
0.195709 0.000000 0.000000
0.217468 0.000000 0.000000
0.239227 0.000000 0.000000
0.260956 0.000000 0.000000
0.282715 0.000000 0.000000
0.304443 0.000000 0.000000
0.326172 0.000000 0.000000
0.347931 0.000000 0.000000
0.369690 0.000000 0.000000
0.391418 0.000000 0.000000
0.413177 0.000000 0.000000
0.434906 0.000000 0.000000
0.456665 0.000000 0.000000
0.478394 0.000000 0.000000
0.500153 0.000000 0.000000
0.521881 0.000000 0.000000
0.543640 0.000000 0.000000
0.565369 0.000000 0.000000
0.000000 0.086945 0.043488
0.043488 0.086945 0.043488
0.086945 0.086945 0.043488
0.124817 0.075989 0.027222
0.151031 0.058319 0.011993
0.173645 0.043640 0.000305
0.195709 0.039124 0.000000
0.217468 0.036224 0.000000
0.239227 0.034180 0.000000
0.260956 0.032623 0.000000
0.282715 0.031403 0.000000
0.304443 0.030396 0.000000
0.326172 0.029633 0.000000
0.347931 0.028961 0.000000
0.369690 0.028442 0.000000
0.391418 0.027893 0.000000
0.413177 0.027527 0.000000
0.434906 0.027191 0.000000
0.456665 0.026855 0.000000
0.478394 0.026520 0.000000
0.500153 0.026245 0.000000
0.521881 0.026123 0.000000
0.543640 0.025879 0.000000
0.565369 0.025665 0.000000
0.000000 0.130432 0.043488
0.043488 0.130432 0.043488
0.086945 0.130432 0.043488
0.130432 0.130432 0.043488
0.172882 0.126312 0.033234
0.206146 0.108551 0.010956
0.228027 0.091187 0.000000
0.239014 0.079651 0.000000
0.250000 0.071411 0.000000
0.260956 0.065247 0.000000
0.282715 0.062805 0.000000
0.304443 0.060883 0.000000
0.326172 0.059326 0.000000
0.347931 0.058014 0.000000
0.369690 0.056854 0.000000
0.391418 0.055908 0.000000
0.413177 0.055084 0.000000
0.434906 0.054352 0.000000
0.456665 0.053741 0.000000
0.478394 0.053131 0.000000
0.500153 0.052643 0.000000
0.521881 0.052246 0.000000
0.543640 0.051758 0.000000
0.565369 0.051361 0.000000
0.000000 0.173920 0.043488
0.043488 0.173920 0.043488
0.086945 0.173920 0.043488
0.130432 0.173920 0.043488
0.173920 0.173920 0.043488
0.217407 0.173767 0.042816
0.255768 0.159637 0.015411
0.282166 0.141083 0.000000
0.293091 0.125580 0.000000
0.304077 0.114044 0.000000
0.315033 0.104980 0.000000
0.326050 0.097839 0.000000
0.336914 0.091888 0.000000
0.347931 0.086975 0.000000
0.369690 0.085297 0.000000
0.391418 0.083893 0.000000
0.413177 0.082611 0.000000
0.434906 0.081543 0.000000
0.456665 0.080597 0.000000
0.478394 0.079773 0.000000
0.500153 0.079010 0.000000
0.521881 0.078217 0.000000
0.543640 0.077637 0.000000
0.565369 0.077148 0.000000
0.000000 0.217377 0.043457
0.043488 0.217377 0.043488
0.086975 0.217377 0.043488
0.130432 0.217377 0.043488
0.173920 0.217377 0.043488
0.217377 0.217377 0.043488
0.260864 0.217407 0.043488
0.302246 0.209137 0.023010
0.336212 0.192078 0.000000
0.347229 0.173615 0.000000
0.358124 0.159119 0.000000
0.369110 0.147614 0.000000
0.380066 0.138153 0.000000
0.391052 0.130310 0.000000
0.401978 0.123657 0.000000
0.412964 0.117950 0.000000
0.423920 0.113007 0.000000
0.434906 0.108734 0.000000
0.456665 0.107483 0.000000
0.478394 0.106293 0.000000
0.500153 0.105255 0.000000
0.521881 0.104340 0.000000
0.543640 0.103516 0.000000
0.565369 0.102844 0.000000
0.000000 0.260864 0.043488
0.043488 0.260864 0.043488
0.086945 0.260864 0.043488
0.130432 0.260864 0.043488
0.173920 0.260864 0.043488
0.217407 0.260864 0.043488
0.260864 0.260864 0.043488
0.304352 0.260864 0.043488
0.347290 0.257172 0.032043
0.385345 0.242706 0.004974
0.401245 0.222870 0.000000
0.412292 0.206146 0.000000
0.423279 0.192413 0.000000
0.434235 0.180969 0.000000
0.445099 0.171143 0.000000
0.456146 0.162933 0.000000
0.467072 0.155640 0.000000
0.478058 0.149384 0.000000
0.489044 0.143860 0.000000
0.500000 0.138916 0.000000
0.510925 0.134460 0.000000
0.521881 0.130463 0.000000
0.543640 0.129395 0.000000
0.565369 0.128510 0.000000
0.000000 0.304352 0.043457
0.043488 0.304352 0.043488
0.086914 0.304352 0.043488
0.130432 0.304352 0.043488
0.173920 0.304352 0.043488
0.217346 0.304352 0.043488
0.260864 0.304352 0.043488
0.304352 0.304352 0.043488
0.347839 0.304382 0.043488
0.391296 0.304016 0.042114
0.431732 0.292114 0.012756
0.455444 0.273315 0.000000
0.466339 0.254333 0.000000
0.477356 0.238678 0.000000
0.488220 0.225281 0.000000
0.499146 0.213867 0.000000
0.510132 0.204010 0.000000
0.521179 0.195435 0.000000
0.532196 0.187866 0.000000
0.543060 0.180969 0.000000
0.553986 0.174866 0.000000
0.565094 0.169556 0.000000
0.575958 0.164520 0.000000
0.586853 0.160034 0.000000
0.000000 0.347839 0.043488
0.043488 0.347839 0.043488
0.086945 0.347839 0.043488
0.130432 0.347839 0.043488
0.173889 0.347839 0.043488
0.217346 0.347839 0.043488
0.260834 0.347839 0.043488
0.304382 0.347839 0.043488
0.347839 0.347839 0.043488
0.391296 0.347809 0.043488
0.434784 0.347839 0.043488
0.477539 0.340546 0.020966
0.509552 0.324310 0.000000
0.520386 0.303528 0.000000
0.531464 0.286224 0.000000
0.542389 0.271210 0.000000
0.553436 0.258331 0.000000
0.564331 0.246887 0.000000
0.575409 0.237000 0.000000
0.586243 0.227997 0.000000
0.597168 0.220001 0.000000
0.608185 0.212921 0.000000
0.619080 0.206299 0.000000
0.630066 0.200439 0.000000
0.000000 0.391296 0.043457
0.043488 0.391296 0.043488
0.086975 0.391296 0.043488
0.130432 0.391296 0.043488
0.173920 0.391296 0.043488
0.217407 0.391296 0.043488
0.260864 0.391296 0.043488
0.304352 0.391296 0.043488
0.347809 0.391296 0.043488
0.391296 0.391296 0.043488
0.434784 0.391327 0.043488
0.478271 0.391327 0.043488
0.521881 0.387939 0.030762
0.561096 0.374939 0.002502
0.574463 0.353424 0.000000
0.585571 0.334686 0.000000
0.596436 0.318024 0.000000
0.607483 0.303741 0.000000
0.618347 0.290894 0.000000
0.629242 0.279602 0.000000
0.640411 0.269714 0.000000
0.651184 0.260406 0.000000
0.662201 0.252197 0.000000
0.673157 0.244720 0.000000
0.000000 0.434784 0.043518
0.043488 0.434784 0.043488
0.086945 0.434784 0.043488
0.130432 0.434784 0.043488
0.173889 0.434784 0.043488
0.217346 0.434784 0.043488
0.260834 0.434784 0.043488
0.304382 0.434784 0.043488
0.347839 0.434784 0.043488
0.391327 0.434784 0.043488
0.434784 0.434784 0.043488
0.478271 0.434753 0.043488
0.521729 0.434753 0.043488
0.565216 0.434265 0.041443
0.607422 0.423737 0.010315
0.628571 0.404053 0.000000
0.639648 0.383850 0.000000
0.650604 0.365967 0.000000
0.661469 0.350128 0.000000
0.672516 0.336273 0.000000
0.683380 0.323669 0.000000
0.694397 0.312439 0.000000
0.705231 0.302155 0.000000
0.716461 0.293152 0.000000
0.000000 0.478271 0.043427
0.043488 0.478271 0.043488
0.086914 0.478271 0.043488
0.130432 0.478271 0.043488
0.173950 0.478271 0.043488
0.217346 0.478271 0.043488
0.260895 0.478271 0.043488
0.304413 0.478271 0.043488
0.347809 0.478271 0.043488
0.391327 0.478271 0.043488
0.434753 0.478271 0.043488
0.478271 0.478271 0.043488
0.521729 0.478302 0.043488
0.565216 0.478210 0.043488
0.608704 0.478302 0.043488
0.651154 0.471039 0.020630
0.682800 0.455261 0.000000
0.693665 0.433533 0.000000
0.704620 0.414398 0.000000
0.715698 0.397675 0.000000
0.726624 0.382477 0.000000
0.737579 0.368805 0.000000
0.748596 0.356567 0.000000
0.759552 0.345276 0.000000
0.000000 0.521729 0.043427
0.043488 0.521729 0.043488
0.086914 0.521729 0.043488
0.130463 0.521729 0.043488
0.173920 0.521729 0.043488
0.217346 0.521729 0.043488
0.260895 0.521729 0.043488
0.304321 0.521729 0.043488
0.347870 0.521729 0.043488
0.391296 0.521729 0.043488
0.434753 0.521729 0.043488
0.478302 0.521729 0.043488
0.521729 0.521729 0.043488
0.565216 0.521790 0.043488
0.608704 0.521759 0.043488
0.652161 0.521698 0.043488
0.696106 0.518463 0.029755
0.735168 0.505920 0.001587
