ImageMetalling-03/ImageMetalling-03/Luts/filter3.cube
#Created by: Adobe Photoshop Export Color Lookup Plugin
TITLE "omdp_75.jpg"
#LUT size
LUT_3D_SIZE 8
#data domain
#LUT data points
DOMAIN_MIN 0.000000 0.000000 0.000000
DOMAIN_MAX 0.913043 0.913043 0.913043
0.000000 0.000000 0.000000
0.065277 0.000000 0.000000
0.130493 0.000000 0.000000
0.195740 0.000000 0.000000
0.260956 0.000000 0.000000
0.326202 0.000000 0.000000
0.391449 0.000000 0.000000
0.456665 0.000000 0.000000
0.000000 0.130432 0.000000
0.130432 0.130432 0.000000
0.195190 0.097595 0.000000
0.228058 0.075989 0.000000
0.260956 0.065247 0.000000
0.326202 0.065216 0.000000
0.391449 0.065277 0.000000
0.456665 0.065216 0.000000
0.000000 0.260864 0.000000
0.130432 0.260864 0.000000
0.260864 0.260864 0.000000
0.357513 0.238373 0.000000
0.390381 0.195190 0.000000
0.423157 0.169220 0.000000
0.456116 0.152008 0.000000
0.488983 0.139679 0.000000
0.000000 0.391296 0.000000
0.130402 0.391296 0.000000
0.260895 0.391296 0.000000
0.391296 0.391296 0.000000
0.519714 0.389801 0.000000
0.552673 0.331665 0.000000
0.585571 0.292786 0.000000
0.618286 0.264923 0.000000
0.000000 0.521729 0.000000
0.130432 0.521729 0.000000
0.260864 0.521729 0.000000
0.391296 0.521729 0.000000
0.521729 0.521729 0.000000
0.652161 0.521759 0.000000
0.715027 0.476746 0.000000
0.747681 0.427155 0.000000
0.000000 0.652161 0.000000
0.130402 0.652161 0.000000
0.260803 0.652161 0.000000
0.391357 0.652161 0.000000
0.521759 0.652161 0.000000
0.652161 0.652161 0.000000
0.782623 0.652130 0.000000
0.877319 0.626709 0.000000
0.000000 0.782623 0.000000
0.130493 0.782623 0.000000
0.260803 0.782623 0.000000
0.391327 0.782623 0.000000
0.521820 0.782623 0.000000
0.652130 0.782623 0.000000
0.782623 0.782623 0.000000
0.913055 0.782654 0.000000
0.000000 0.913055 0.000000
0.130402 0.913055 0.000000
0.260803 0.913055 0.000000
0.391205 0.913055 0.000000
0.521606 0.913055 0.000000
0.652252 0.913055 0.000000
0.782654 0.913055 0.000000
0.913055 0.913055 0.000000
0.000000 0.000000 0.130432
0.130432 0.000000 0.130432
0.199768 0.000000 0.099884
0.234406 0.000000 0.078125
0.269104 0.000000 0.067291
0.326202 0.000000 0.065216
0.391449 0.000000 0.065277
0.456665 0.000000 0.065216
0.000000 0.130432 0.130432
0.130432 0.130432 0.130432
0.228088 0.098053 0.098053
0.325653 0.065674 0.065674
0.423279 0.033325 0.033325
0.520844 0.000977 0.000977
0.587067 0.000000 0.000000
0.652313 0.000000 0.000000
0.000000 0.260864 0.130432
0.130432 0.260864 0.130432
0.260864 0.260864 0.130432
0.374420 0.228027 0.081635
0.452911 0.174927 0.035980
0.520844 0.130951 0.000977
0.587067 0.117371 0.000000
0.652313 0.108765 0.000000
0.000000 0.391296 0.130402
0.130432 0.391296 0.130432
0.260864 0.391296 0.130432
0.391296 0.391296 0.130432
0.518677 0.379059 0.099701
0.618408 0.325623 0.032837
0.684052 0.273560 0.000000
0.716980 0.238922 0.000000
0.000000 0.521729 0.130432
0.130432 0.521729 0.130432
0.260834 0.521729 0.130432
0.391327 0.521729 0.130432
0.521729 0.521729 0.130432
0.652161 0.521210 0.128387
0.767151 0.478668 0.046234
0.846436 0.423218 0.000000
0.000000 0.652161 0.130402
0.130432 0.652161 0.130432
0.260864 0.652161 0.130432
0.391296 0.652161 0.130432
0.521729 0.652161 0.130432
0.652161 0.652161 0.130432
0.782623 0.652222 0.130432
0.906891 0.627655 0.068970
0.000000 0.782623 0.130493
0.130432 0.782623 0.130432
0.260834 0.782623 0.130432
0.391235 0.782623 0.130432
0.521637 0.782623 0.130432
0.652222 0.782623 0.130432
0.782623 0.782623 0.130432
0.913055 0.782562 0.130432
0.000000 0.913055 0.130402
0.130432 0.913055 0.130432
0.260925 0.913055 0.130432
0.391235 0.913055 0.130432
0.521759 0.913055 0.130432
0.652252 0.913055 0.130432
0.782562 0.913055 0.130432
0.913055 0.913055 0.130432
0.000000 0.000000 0.260864
0.130432 0.000000 0.260864
0.260864 0.000000 0.260864
0.364868 0.000000 0.243286
0.399475 0.000000 0.199738
0.434143 0.000000 0.173615
0.468811 0.000000 0.156219
0.503479 0.000000 0.143829
0.000000 0.130432 0.260864
0.130432 0.130432 0.260864
0.260864 0.130432 0.260864
0.376617 0.083984 0.230316
0.457764 0.037476 0.177551
0.528839 0.001129 0.133057
0.587067 0.000000 0.117371
0.652313 0.000000 0.108765
0.000000 0.260864 0.260864
0.130432 0.260864 0.260864
0.260864 0.260864 0.260864
0.358521 0.228485 0.228485
0.456085 0.196106 0.196106
0.553711 0.163757 0.163757
0.651306 0.131378 0.131378
0.748871 0.099030 0.099030
0.000000 0.391296 0.260895
0.130432 0.391296 0.260864
0.260864 0.391296 0.260864
0.391296 0.391296 0.260864
0.504852 0.358459 0.212067
0.583344 0.305359 0.166412
0.651306 0.261353 0.131378
0.748871 0.228973 0.099030
0.000000 0.521729 0.260864
0.130432 0.521729 0.260834
0.260864 0.521729 0.260864
0.391296 0.521729 0.260864
0.521729 0.521729 0.260864
0.649109 0.509491 0.230133
0.748840 0.456055 0.163269
0.831177 0.400635 0.113739
0.000000 0.652161 0.260803
0.130432 0.652161 0.260864
0.260864 0.652161 0.260864
0.391266 0.652161 0.260864
0.521759 0.652161 0.260864
0.652161 0.652161 0.260864
0.782623 0.651672 0.258820
0.897583 0.609100 0.176666
0.000000 0.782623 0.260803
0.130432 0.782623 0.260834
0.260864 0.782623 0.260864
0.391296 0.782623 0.260864
0.521759 0.782623 0.260864
0.652191 0.782623 0.260864
0.782623 0.782623 0.260864
0.913055 0.782654 0.260864
0.000000 0.913055 0.260803
0.130432 0.913055 0.260925
0.260864 0.913055 0.260864
0.391266 0.913055 0.260864
0.521667 0.913055 0.260864
0.652069 0.913055 0.260864
0.782654 0.913055 0.260864
0.913055 0.913055 0.260864
0.000000 0.000000 0.391296
0.130402 0.000000 0.391296
0.260895 0.000000 0.391296
0.391296 0.000000 0.391296
0.521729 0.000000 0.391296
0.564606 0.000000 0.338806
0.599213 0.000000 0.299622
0.633881 0.000000 0.271606
0.000000 0.130402 0.391296
0.130432 0.130432 0.391296
0.260864 0.130432 0.391296
0.391296 0.130432 0.391296
0.520233 0.105469 0.382019
0.622742 0.037567 0.330170
0.695038 0.000000 0.277954
0.729675 0.000000 0.243164
0.000000 0.260895 0.391296
0.130432 0.260864 0.391296
0.260864 0.260864 0.391296
0.391296 0.260864 0.391296
0.507050 0.214417 0.360748
0.588196 0.167908 0.307983
0.659302 0.131531 0.263489
0.748871 0.099030 0.228973
0.000000 0.391296 0.391296
0.130432 0.391296 0.391296
0.260864 0.391296 0.391296
0.391296 0.391296 0.391296
0.488953 0.358917 0.358917
0.586517 0.326538 0.326538
0.684143 0.294189 0.294189
0.781738 0.261810 0.261810
0.000000 0.521729 0.391296
0.130432 0.521729 0.391327
0.260864 0.521729 0.391296
0.391296 0.521729 0.391296
0.521729 0.521729 0.391296
0.635284 0.488892 0.342499
0.713806 0.435791 0.296844
0.781738 0.391785 0.261810
0.000000 0.652161 0.391357
0.130432 0.652161 0.391296
0.260864 0.652161 0.391266
0.391296 0.652161 0.391296
0.521729 0.652161 0.391296
0.652161 0.652161 0.391296
0.779449 0.639740 0.360565
0.879272 0.586487 0.293701
0.000000 0.782623 0.391327
0.130432 0.782623 0.391235
0.260864 0.782623 0.391296
0.391296 0.782623 0.391296
0.521698 0.782623 0.391296
0.652130 0.782623 0.391296
0.782623 0.782623 0.391296
0.913055 0.782104 0.389252
0.000000 0.913055 0.391205
0.130432 0.913055 0.391235
0.260864 0.913055 0.391266
0.391296 0.913055 0.391296
0.521729 0.913055 0.391296
0.652191 0.913055 0.391296
0.782623 0.913055 0.391296
0.913055 0.913055 0.391296
0.000000 0.000000 0.521729
0.130432 0.000000 0.521729
0.260864 0.000000 0.521729
0.391296 0.000000 0.521729
0.521729 0.000000 0.521729
0.652161 0.000000 0.521759
0.729736 0.000000 0.486542
0.764191 0.000000 0.436584
0.000000 0.130432 0.521729
0.130432 0.130432 0.521729
0.260834 0.130432 0.521729
0.391327 0.130432 0.521729
0.521729 0.130432 0.521729
0.652161 0.130432 0.521729
0.769867 0.055450 0.484009
0.860077 0.000000 0.430054
0.000000 0.260864 0.521729
0.130432 0.260834 0.521729
0.260864 0.260864 0.521729
0.391296 0.260864 0.521729
0.521729 0.260864 0.521729
0.650665 0.235901 0.512451
0.753204 0.167999 0.460602
0.839203 0.116699 0.405640
0.000000 0.391296 0.521729
0.130432 0.391327 0.521729
0.260864 0.391296 0.521729
0.391296 0.391296 0.521729
0.521729 0.391296 0.521729
0.637482 0.344849 0.491180
0.718689 0.298340 0.438416
0.789734 0.261963 0.393921
0.000000 0.521729 0.521729
0.130432 0.521729 0.521729
0.260864 0.521729 0.521729
0.391296 0.521729 0.521729
0.521729 0.521729 0.521729
0.619385 0.489349 0.489349
0.717010 0.456970 0.456970
0.814575 0.424622 0.424622
0.000000 0.652161 0.521759
0.130432 0.652161 0.521729
0.260864 0.652161 0.521759
0.391296 0.652161 0.521729
0.521729 0.652161 0.521729
0.652161 0.652161 0.521729
0.765747 0.619324 0.472900
0.844238 0.566223 0.427277
0.000000 0.782623 0.521820
0.130432 0.782623 0.521637
0.260864 0.782623 0.521759
0.391296 0.782623 0.521698
0.521729 0.782623 0.521729
0.652191 0.782623 0.521729
0.782623 0.782623 0.521729
0.910004 0.770355 0.490997
0.000000 0.913055 0.521606
0.130432 0.913055 0.521759
0.260864 0.913055 0.521667
0.391296 0.913055 0.521729
0.521729 0.913055 0.521729
0.652130 0.913055 0.521729
0.782654 0.913055 0.521729
0.913055 0.913055 0.521729
0.000000 0.000000 0.652161
0.130402 0.000000 0.652161
0.260803 0.000000 0.652161
0.391357 0.000000 0.652161
0.521759 0.000000 0.652161
0.652161 0.000000 0.652161
0.782623 0.000000 0.652130
0.894806 0.000000 0.639221
0.000000 0.130402 0.652161
0.130432 0.130432 0.652161
0.260864 0.130432 0.652161
0.391296 0.130432 0.652161
0.521729 0.130432 0.652161
0.652161 0.130432 0.652161
0.782623 0.130432 0.652222
0.910034 0.080536 0.633606
0.000000 0.260803 0.652161
0.130432 0.260864 0.652161
0.260864 0.260864 0.652161
0.391266 0.260864 0.652161
0.521759 0.260864 0.652161
0.652161 0.260864 0.652161
0.782623 0.260864 0.652191
0.900299 0.185883 0.614441
0.000000 0.391357 0.652161
0.130432 0.391296 0.652161
0.260864 0.391266 0.652161
0.391296 0.391296 0.652161
0.521729 0.391296 0.652161
0.652161 0.391296 0.652161
0.781036 0.366364 0.642731
0.883636 0.298431 0.591034
0.000000 0.521759 0.652161
0.130432 0.521729 0.652161
0.260864 0.521759 0.652161
0.391296 0.521729 0.652161
0.521729 0.521729 0.652161
0.652161 0.521729 0.652161
0.767914 0.475281 0.621613
0.849121 0.428772 0.568848
0.000000 0.652161 0.652161
0.130432 0.652161 0.652161
0.260864 0.652161 0.652161
0.391296 0.652161 0.652161
0.521729 0.652161 0.652161
0.652161 0.652161 0.652161
0.749817 0.619781 0.619781
0.847443 0.587402 0.587402
0.000000 0.782623 0.652130
0.130432 0.782623 0.652222
0.260864 0.782623 0.652191
0.391296 0.782623 0.652130
0.521729 0.782623 0.652191
0.652161 0.782623 0.652161
0.782623 0.782623 0.652161
0.896179 0.749756 0.603333
0.000000 0.913055 0.652252
0.130432 0.913055 0.652252
0.260864 0.913055 0.652069
0.391296 0.913055 0.652191
0.521729 0.913055 0.652130
0.652161 0.913055 0.652161
0.782623 0.913055 0.652161
0.913055 0.913055 0.652161
0.000000 0.000000 0.782623
0.130493 0.000000 0.782623
0.260803 0.000000 0.782623
0.391327 0.000000 0.782623
0.521820 0.000000 0.782623
0.652130 0.000000 0.782623
0.782623 0.000000 0.782623
0.913055 0.000000 0.782654
0.000000 0.130493 0.782623
0.130432 0.130432 0.782623
0.260834 0.130432 0.782623
0.391235 0.130432 0.782623
0.521637 0.130432 0.782623
0.652222 0.130432 0.782623
0.782623 0.130432 0.782623
0.913055 0.130432 0.782562
0.000000 0.260803 0.782623
0.130432 0.260834 0.782623
0.260864 0.260864 0.782623
0.391296 0.260864 0.782623
0.521759 0.260864 0.782623
0.652191 0.260864 0.782623
0.782623 0.260864 0.782623
0.913055 0.260864 0.782654
0.000000 0.391327 0.782623
0.130432 0.391235 0.782623
0.260864 0.391296 0.782623
0.391296 0.391296 0.782623
0.521698 0.391296 0.782623
0.652130 0.391296 0.782623
0.782623 0.391296 0.782623
0.913055 0.391296 0.782623
0.000000 0.521820 0.782623
0.130432 0.521637 0.782623
0.260864 0.521759 0.782623
0.391296 0.521698 0.782623
0.521729 0.521729 0.782623
0.652191 0.521729 0.782623
0.782623 0.521729 0.782623
0.911560 0.496765 0.773315
0.000000 0.652130 0.782623
0.130432 0.652222 0.782623
0.260864 0.652191 0.782623
0.391296 0.652130 0.782623
0.521729 0.652191 0.782623
0.652161 0.652161 0.782623
0.782623 0.652161 0.782623
0.898346 0.605713 0.752045
0.000000 0.782623 0.782623
0.130432 0.782623 0.782623
0.260864 0.782623 0.782623
0.391296 0.782623 0.782623
0.521729 0.782623 0.782623
0.652161 0.782623 0.782623
0.782623 0.782623 0.782623
0.880280 0.750244 0.750244
0.000000 0.913055 0.782654
0.130432 0.913055 0.782562
0.260864 0.913055 0.782654
0.391296 0.913055 0.782623
0.521729 0.913055 0.782654
0.652161 0.913055 0.782623
0.782623 0.913055 0.782623
0.913055 0.913055 0.782623
0.000000 0.000000 0.913055
0.130402 0.000000 0.913055
0.260803 0.000000 0.913055
0.391205 0.000000 0.913055
0.521606 0.000000 0.913055
0.652252 0.000000 0.913055
0.782654 0.000000 0.913055
0.913055 0.000000 0.913055
0.000000 0.130402 0.913055
0.130432 0.130432 0.913055
0.260925 0.130432 0.913055
0.391235 0.130432 0.913055
0.521759 0.130432 0.913055
0.652252 0.130432 0.913055
0.782562 0.130432 0.913055
0.913055 0.130432 0.913055
0.000000 0.260803 0.913055
0.130432 0.260925 0.913055
0.260864 0.260864 0.913055
0.391266 0.260864 0.913055
0.521667 0.260864 0.913055
0.652069 0.260864 0.913055
0.782654 0.260864 0.913055
0.913055 0.260864 0.913055
0.000000 0.391205 0.913055
0.130432 0.391235 0.913055
0.260864 0.391266 0.913055
0.391296 0.391296 0.913055
0.521729 0.391296 0.913055
0.652191 0.391296 0.913055
0.782623 0.391296 0.913055
0.913055 0.391296 0.913055
0.000000 0.521606 0.913055
0.130432 0.521759 0.913055
0.260864 0.521667 0.913055
0.391296 0.521729 0.913055
0.521729 0.521729 0.913055
0.652130 0.521729 0.913055
0.782654 0.521729 0.913055
0.913055 0.521729 0.913055
0.000000 0.652252 0.913055
0.130432 0.652252 0.913055
0.260864 0.652069 0.913055
0.391296 0.652191 0.913055
0.521729 0.652130 0.913055
0.652161 0.652161 0.913055
0.782623 0.652161 0.913055
0.913055 0.652161 0.913055
0.000000 0.782654 0.913055
0.130432 0.782562 0.913055
0.260864 0.782654 0.913055
0.391296 0.782623 0.913055
0.521729 0.782654 0.913055
0.652161 0.782623 0.913055
0.782623 0.782623 0.913055
0.913055 0.782623 0.913055
0.000000 0.913055 0.913055
0.130432 0.913055 0.913055
0.260864 0.913055 0.913055
0.391296 0.913055 0.913055
0.521729 0.913055 0.913055
0.652161 0.913055 0.913055
0.782623 0.913055 0.913055
0.913055 0.913055 0.913055
