ImageMetalling-03/ImageMetalling-03/Luts/filter3.cube
#Created by: Adobe Photoshop Export Color Lookup Plugin
TITLE "omdp_75.jpg"
#LUT size
LUT_3D_SIZE 5
#data domain
#LUT data points
DOMAIN_MIN 0.000000 0.000000 0.000000
DOMAIN_MAX 0.869565 0.869565 0.869565
0.000000 0.000000 0.000000
0.108734 0.000000 0.000000
0.217468 0.000000 0.000000
0.326202 0.000000 0.000000
0.434906 0.000000 0.000000
0.000000 0.217377 0.000000
0.217377 0.217377 0.000000
0.325317 0.162659 0.000000
0.380096 0.126678 0.000000
0.434906 0.108734 0.000000
0.000000 0.434784 0.000000
0.217407 0.434784 0.000000
0.434784 0.434784 0.000000
0.595825 0.397278 0.000000
0.650604 0.325317 0.000000
0.000000 0.652161 0.000000
0.217346 0.652161 0.000000
0.434814 0.652161 0.000000
0.652161 0.652161 0.000000
0.866211 0.649658 0.000000
0.000000 0.869568 0.000000
0.217407 0.869568 0.000000
0.434784 0.869568 0.000000
0.652191 0.869568 0.000000
0.869568 0.869568 0.000000
0.000000 0.000000 0.217377
0.217377 0.000000 0.217377
0.332916 0.000000 0.166473
0.390686 0.000000 0.130188
0.448517 0.000000 0.112122
0.000000 0.217377 0.217377
0.217377 0.217377 0.217377
0.380096 0.163422 0.163422
0.542725 0.109497 0.109497
0.705383 0.055542 0.055542
0.000000 0.434784 0.217407
0.217377 0.434784 0.217377
0.434784 0.434784 0.217377
0.624023 0.380035 0.136047
0.754852 0.291565 0.059998
0.000000 0.652161 0.217346
0.217377 0.652161 0.217377
0.434784 0.652161 0.217377
0.652161 0.652161 0.217377
0.864441 0.631744 0.166168
0.000000 0.869568 0.217407
0.217377 0.869568 0.217377
0.434723 0.869568 0.217377
0.652222 0.869568 0.217377
0.869568 0.869568 0.217377
0.000000 0.000000 0.434784
0.217407 0.000000 0.434784
0.434784 0.000000 0.434784
0.608093 0.000000 0.405457
0.665802 0.000000 0.332916
0.000000 0.217407 0.434784
0.217377 0.217377 0.434784
0.434784 0.217377 0.434784
0.627655 0.139984 0.383820
0.762970 0.062469 0.295898
0.000000 0.434784 0.434784
0.217377 0.434784 0.434784
0.434784 0.434784 0.434784
0.597443 0.380829 0.380829
0.760132 0.326904 0.326904
0.000000 0.652161 0.434814
0.217377 0.652161 0.434784
0.434784 0.652161 0.434784
0.652161 0.652161 0.434784
0.841431 0.597443 0.353455
0.000000 0.869568 0.434784
0.217377 0.869568 0.434723
0.434784 0.869568 0.434784
0.652191 0.869568 0.434784
0.869568 0.869568 0.434784
0.000000 0.000000 0.652161
0.217346 0.000000 0.652161
0.434814 0.000000 0.652161
0.652161 0.000000 0.652161
0.869568 0.000000 0.652191
0.000000 0.217346 0.652161
0.217377 0.217377 0.652161
0.434784 0.217377 0.652161
0.652161 0.217377 0.652161
0.867065 0.175812 0.636719
0.000000 0.434814 0.652161
0.217377 0.434784 0.652161
0.434784 0.434784 0.652161
0.652161 0.434784 0.652161
0.845062 0.357391 0.601227
0.000000 0.652161 0.652161
0.217377 0.652161 0.652161
0.434784 0.652161 0.652161
0.652161 0.652161 0.652161
0.814880 0.598206 0.598206
0.000000 0.869568 0.652191
0.217377 0.869568 0.652222
0.434784 0.869568 0.652191
0.652161 0.869568 0.652161
0.869568 0.869568 0.652161
0.000000 0.000000 0.869568
0.217407 0.000000 0.869568
0.434784 0.000000 0.869568
0.652191 0.000000 0.869568
0.869568 0.000000 0.869568
0.000000 0.217407 0.869568
0.217377 0.217377 0.869568
0.434723 0.217377 0.869568
0.652222 0.217377 0.869568
0.869568 0.217377 0.869568
0.000000 0.434784 0.869568
0.217377 0.434723 0.869568
0.434784 0.434784 0.869568
0.652191 0.434784 0.869568
0.869568 0.434784 0.869568
0.000000 0.652191 0.869568
0.217377 0.652222 0.869568
0.434784 0.652191 0.869568
0.652161 0.652161 0.869568
0.869568 0.652161 0.869568
0.000000 0.869568 0.869568
0.217377 0.869568 0.869568
0.434784 0.869568 0.869568
0.652161 0.869568 0.869568
0.869568 0.869568 0.869568
