ImageMetalling-03/ImageMetalling-03/Luts/K64PW-save_highlights.cube
#Generated by Picture Instruments - Look Creator
TITLE "K64PW-save highlights"
LUT_3D_SIZE 9
0.00392157 0 0
0.129412 0.0156863 0
0.235294 0.0235294 0.00392157
0.356863 0.0156863 0
0.509804 0.00392157 0.00392157
0.627451 0.00392157 0.00392157
0.729412 0.00784314 0.00392157
0.819608 0.00784314 0.00784314
0.901961 0.0235294 0.00784314
0.00392157 0.0901961 0
0.133333 0.0901961 0.0156863
0.235294 0.0901961 0
0.372549 0.0862745 0
0.505882 0.0862745 0.00392157
0.631373 0.0784314 0
0.733333 0.0980392 0
0.827451 0.117647 0
0.905882 0.137255 0.00392157
0.00784314 0.152941 0.0235294
0.129412 0.152941 0.0235294
0.243137 0.145098 0
0.368627 0.156863 0
0.498039 0.160784 0.00392157
0.619608 0.168627 0
0.729412 0.192157 0.00392157
0.811765 0.211765 0
0.890196 0.231373 0
0.00392157 0.239216 0.0352941
0.109804 0.25098 0.0235294
0.239216 0.243137 0.0196078
0.368627 0.243137 0
0.498039 0.25098 0
0.615686 0.262745 0
0.709804 0.282353 0
0.803922 0.305882 0
0.87451 0.32549 0
0.0117647 0.341176 0.0117647
0 0.356863 0.00392157
0.215686 0.352941 0
0.364706 0.345098 0
0.490196 0.34902 0
0.6 0.364706 0
0.705882 0.384314 0
0.792157 0.403922 0.00392157
0.854902 0.415686 0
0.0156863 0.447059 0.00784314
0 0.462745 0.00392157
0.160784 0.47451 0.00392157
0.34902 0.466667 0
0.478431 0.458824 0
0.592157 0.462745 0
0.686275 0.47451 0
0.772549 0.498039 0
0.858824 0.501961 0
0.0156863 0.556863 0.0705882
0 0.564706 0.0627451
0.0588235 0.576471 0.0313725
0.321569 0.572549 0.00392157
0.47451 0.556863 0
0.588235 0.560784 0
0.686275 0.564706 0.00392157
0.772549 0.572549 0
0.843137 0.584314 0
0.0196078 0.658824 0.188235
0 0.666667 0.164706
0.196078 0.670588 0.117647
0.345098 0.662745 0.00392157
0.466667 0.654902 0
0.572549 0.647059 0
0.670588 0.643137 0
0.760784 0.643137 0.00392157
0.839216 0.647059 0
0.172549 0.745098 0.309804
0.239216 0.756863 0.298039
0.32549 0.756863 0.262745
0.411765 0.745098 0.172549
0.494118 0.737255 0.0588235
0.580392 0.721569 0
0.670588 0.717647 0
0.760784 0.713725 0
0.827451 0.713725 0
0.027451 0.0117647 0.0627451
0.101961 0.0313725 0.0588235
0.203922 0.0431373 0.054902
0.345098 0.0352941 0.0627451
0.494118 0.0313725 0.0666667
0.623529 0.0313725 0.0705882
0.741176 0.0470588 0.0666667
0.831373 0.0823529 0.0666667
0.917647 0.113725 0.0627451
0.0392157 0.0823529 0.0705882
0.14902 0.117647 0.0901961
0.270588 0.113725 0.0901961
0.4 0.121569 0.0862745
0.533333 0.121569 0.0823529
0.654902 0.129412 0.0823529
0.752941 0.152941 0.0666667
0.85098 0.164706 0.0705882
0.917647 0.192157 0.0588235
0.027451 0.152941 0.0784314
0.14902 0.188235 0.0980392
0.266667 0.188235 0.0941176
0.4 0.196078 0.0862745
0.529412 0.203922 0.0823529
0.647059 0.215686 0.0705882
0.745098 0.239216 0.0666667
0.843137 0.25098 0.054902
0.913725 0.278431 0.0509804
0.0235294 0.247059 0.0901961
0.117647 0.282353 0.109804
0.254902 0.294118 0.101961
0.388235 0.290196 0.0823529
0.521569 0.298039 0.0784314
0.631373 0.309804 0.0588235
0.733333 0.32549 0.0392157
0.819608 0.34902 0.0313725
0.890196 0.364706 0.0117647
0.027451 0.356863 0.0862745
0.00392157 0.384314 0.0980392
0.231373 0.4 0.0980392
0.384314 0.4 0.0823529
0.505882 0.396078 0.0588235
0.619608 0.403922 0.0392157
0.717647 0.419608 0.027451
0.803922 0.435294 0
0.878431 0.45098 0
0.027451 0.45098 0.0862745
0 0.482353 0.101961
0.192157 0.501961 0.101961
0.368627 0.505882 0.0666667
0.498039 0.498039 0.0392157
0.603922 0.494118 0.0156863
0.705882 0.505882 0.00392157
0.792157 0.521569 0
0.87451 0.529412 0
0.027451 0.54902 0.101961
0 0.572549 0.121569
0.101961 0.588235 0.117647
0.345098 0.6 0.0901961
0.482353 0.584314 0.00392157
0.596078 0.588235 0.00392157
0.694118 0.592157 0
0.784314 0.6 0
0.854902 0.607843 0
0.027451 0.654902 0.2
0 0.670588 0.196078
0.133333 0.682353 0.176471
0.32549 0.678431 0.113725
0.470588 0.678431 0.0745098
0.592157 0.67451 0.027451
0.686275 0.670588 0.00392157
0.764706 0.670588 0
0.843137 0.670588 0
0.133333 0.752941 0.313725
0.203922 0.756863 0.317647
0.286275 0.760784 0.286275
0.388235 0.756863 0.223529
0.482353 0.74902 0.12549
0.584314 0.741176 0.0117647
0.682353 0.733333 0
0.768627 0.737255 0
0.843137 0.737255 0
0.027451 0.0235294 0.109804
0.0823529 0.0392157 0.117647
0.176471 0.0470588 0.0941176
0.298039 0.0509804 0.0980392
0.443137 0.0588235 0.105882
0.584314 0.0666667 0.109804
0.709804 0.0823529 0.129412
0.815686 0.117647 0.133333
0.901961 0.145098 0.137255
0.027451 0.0941176 0.113725
0.145098 0.121569 0.14902
0.239216 0.129412 0.137255
0.376471 0.141176 0.137255
0.513725 0.14902 0.141176
0.643137 0.156863 0.141176
0.74902 0.180392 0.152941
0.839216 0.203922 0.164706
0.92549 0.227451 0.160784
0.0352941 0.14902 0.117647
0.172549 0.184314 0.152941
0.290196 0.227451 0.180392
0.423529 0.235294 0.176471
0.54902 0.243137 0.176471
0.662745 0.254902 0.168627
0.764706 0.27451 0.176471
0.85098 0.298039 0.172549
0.92549 0.313725 0.172549
0.0235294 0.247059 0.137255
0.156863 0.286275 0.160784
0.286275 0.329412 0.192157
0.415686 0.329412 0.180392
0.541176 0.341176 0.176471
0.65098 0.352941 0.168627
0.752941 0.368627 0.172549
0.839216 0.392157 0.168627
0.913725 0.407843 0.172549
0.0235294 0.360784 0.141176
0.0941176 0.396078 0.176471
0.25098 0.435294 0.211765
0.396078 0.443137 0.203922
0.52549 0.435294 0.172549
0.631373 0.45098 0.168627
0.733333 0.458824 0.164706
0.823529 0.47451 0.156863
0.894118 0.494118 0.168627
0.027451 0.462745 0.14902
0 0.498039 0.176471
0.219608 0.52549 0.2
0.380392 0.537255 0.196078
0.509804 0.537255 0.184314
0.623529 0.533333 0.172549
0.717647 0.545098 0.156863
0.811765 0.552941 0.156863
0.890196 0.560784 0.156863
0.0235294 0.54902 0.164706
0 0.580392 0.203922
0.156863 0.615686 0.223529
0.364706 0.623529 0.219608
0.498039 0.615686 0.180392
0.615686 0.615686 0.172549
0.705882 0.619608 0.164706
0.8 0.631373 0.172549
0.878431 0.639216 0.172549
0.027451 0.654902 0.215686
0 0.67451 0.239216
0.101961 0.686275 0.235294
0.333333 0.701961 0.243137
0.482353 0.705882 0.239216
0.596078 0.701961 0.207843
0.698039 0.698039 0.172549
0.788235 0.694118 0.14902
0.858824 0.698039 0.152941
0.027451 0.745098 0.333333
0.0901961 0.756863 0.337255
0.227451 0.772549 0.329412
0.364706 0.772549 0.290196
0.478431 0.760784 0.215686
0.596078 0.760784 0.192157
0.694118 0.764706 0.192157
0.776471 0.760784 0.188235
0.85098 0.760784 0.160784
0 0.0509804 0.188235
0.0588235 0.0470588 0.180392
0.160784 0.0588235 0.160784
0.266667 0.0745098 0.145098
0.411765 0.0784314 0.141176
0.552941 0.0862745 0.156863
0.678431 0.113725 0.176471
0.788235 0.145098 0.196078
0.870588 0.188235 0.207843
0 0.101961 0.196078
0.109804 0.121569 0.231373
0.215686 0.141176 0.211765
0.337255 0.14902 0.188235
0.466667 0.164706 0.184314
0.596078 0.176471 0.196078
0.713725 0.2 0.215686
0.815686 0.231373 0.231373
0.894118 0.262745 0.239216
0.00784314 0.164706 0.188235
0.14902 0.2 0.227451
0.270588 0.239216 0.254902
0.392157 0.25098 0.243137
0.521569 0.266667 0.239216
0.639216 0.282353 0.25098
0.74902 0.313725 0.262745
0.847059 0.333333 0.278431
0.921569 0.352941 0.282353
0.00392157 0.25098 0.196078
0.180392 0.282353 0.223529
0.298039 0.329412 0.262745
0.439216 0.380392 0.313725
0.560784 0.388235 0.301961
0.666667 0.4 0.298039
0.772549 0.411765 0.305882
0.866667 0.431373 0.309804
0.929412 0.45098 0.317647
0.00392157 0.368627 0.219608
0.164706 0.392157 0.243137
0.301961 0.435294 0.286275
0.427451 0.482353 0.337255
0.545098 0.478431 0.309804
0.65098 0.494118 0.309804
0.752941 0.501961 0.301961
0.847059 0.521569 0.313725
0.913725 0.533333 0.317647
0 0.47451 0.231373
0.0470588 0.501961 0.262745
0.258824 0.541176 0.301961
0.403922 0.572549 0.34902
0.52549 0.580392 0.341176
0.631373 0.576471 0.317647
0.737255 0.588235 0.313725
0.827451 0.6 0.321569
0.901961 0.603922 0.321569
0 0.576471 0.266667
0.00392157 0.596078 0.290196
0.235294 0.627451 0.329412
0.384314 0.658824 0.368627
0.517647 0.654902 0.341176
0.627451 0.658824 0.32549
0.717647 0.662745 0.32549
0.807843 0.670588 0.329412
0.886275 0.67451 0.333333
0 0.662745 0.305882
0 0.682353 0.329412
0.168627 0.709804 0.364706
0.364706 0.737255 0.388235
0.498039 0.745098 0.392157
0.611765 0.741176 0.380392
0.717647 0.729412 0.329412
0.803922 0.729412 0.317647
0.87451 0.741176 0.337255
0.0117647 0.745098 0.372549
0.0117647 0.760784 0.384314
0.156863 0.768627 0.388235
0.356863 0.788235 0.392157
0.498039 0.788235 0.360784
0.607843 0.792157 0.364706
0.705882 0.788235 0.356863
0.8 0.792157 0.34902
0.862745 0.792157 0.337255
0 0.054902 0.290196
0.00392157 0.0509804 0.290196
0.133333 0.0627451 0.278431
0.254902 0.0745098 0.231373
0.380392 0.0941176 0.211765
0.517647 0.105882 0.219608
0.643137 0.133333 0.231373
0.74902 0.172549 0.262745
0.839216 0.207843 0.282353
0 0.109804 0.321569
0.054902 0.129412 0.341176
0.192157 0.137255 0.321569
0.309804 0.152941 0.27451
0.431373 0.176471 0.258824
0.552941 0.192157 0.262745
0.678431 0.211765 0.282353
0.776471 0.25098 0.301961
0.862745 0.286275 0.317647
0 0.172549 0.301961
0.0862745 0.207843 0.345098
0.235294 0.239216 0.376471
0.368627 0.262745 0.352941
0.482353 0.27451 0.321569
0.596078 0.298039 0.317647
0.709804 0.317647 0.329412
0.807843 0.345098 0.34902
0.886275 0.368627 0.368627
0 0.258824 0.305882
0.129412 0.294118 0.329412
0.27451 0.341176 0.372549
0.411765 0.388235 0.411765
0.529412 0.407843 0.396078
0.643137 0.419608 0.4
0.745098 0.439216 0.407843
0.847059 0.454902 0.419608
0.917647 0.482353 0.431373
0.00392157 0.368627 0.305882
0.180392 0.396078 0.329412
0.317647 0.431373 0.368627
0.443137 0.478431 0.423529
0.564706 0.52549 0.47451
0.670588 0.533333 0.458824
0.768627 0.54902 0.466667
0.866667 0.560784 0.466667
0.929412 0.572549 0.470588
0 0.466667 0.329412
0.156863 0.498039 0.356863
0.317647 0.529412 0.392157
0.443137 0.572549 0.443137
0.545098 0.611765 0.486275
0.654902 0.619608 0.478431
0.752941 0.623529 0.470588
0.85098 0.635294 0.470588
0.921569 0.643137 0.478431
0 0.568627 0.360784
0.129412 0.596078 0.396078
0.290196 0.623529 0.423529
0.411765 0.658824 0.462745
0.529412 0.694118 0.494118
0.639216 0.698039 0.494118
0.737255 0.694118 0.486275
0.823529 0.705882 0.486275
0.901961 0.713725 0.490196
0 0.662745 0.403922
0.0196078 0.686275 0.427451
0.266667 0.709804 0.454902
0.411765 0.741176 0.494118
0.517647 0.772549 0.533333
0.623529 0.772549 0.52549
0.733333 0.764706 0.486275
0.815686 0.768627 0.486275
0.886275 0.776471 0.498039
0.0156863 0.741176 0.427451
0.0156863 0.756863 0.454902
0.227451 0.776471 0.482353
0.396078 0.803922 0.517647
0.517647 0.827451 0.537255
0.623529 0.827451 0.533333
0.721569 0.831373 0.529412
0.815686 0.819608 0.501961
0.882353 0.827451 0.505882
0.0117647 0.0627451 0.396078
0.0156863 0.0509804 0.411765
0.0784314 0.0666667 0.4
0.239216 0.0784314 0.333333
0.372549 0.105882 0.313725
0.490196 0.113725 0.286275
0.615686 0.152941 0.309804
0.72549 0.188235 0.333333
0.815686 0.227451 0.352941
0.00784314 0.113725 0.458824
0 0.12549 0.47451
0.145098 0.137255 0.447059
0.294118 0.156863 0.403922
0.419608 0.176471 0.372549
0.537255 0.196078 0.345098
0.647059 0.231373 0.356863
0.74902 0.262745 0.376471
0.835294 0.298039 0.396078
0.00784314 0.180392 0.443137
0 0.211765 0.478431
0.180392 0.247059 0.509804
0.337255 0.262745 0.47451
0.466667 0.278431 0.427451
0.576471 0.305882 0.407843
0.678431 0.333333 0.419608
0.780392 0.360784 0.423529
0.862745 0.380392 0.443137
0.00784314 0.27451 0.423529
0.0352941 0.309804 0.454902
0.211765 0.34902 0.509804
0.368627 0.392157 0.537255
0.505882 0.407843 0.509804
0.607843 0.427451 0.482353
0.709804 0.443137 0.482353
0.811765 0.462745 0.490196
0.890196 0.486275 0.505882
0.0156863 0.372549 0.423529
0.105882 0.407843 0.45098
0.262745 0.443137 0.486275
0.407843 0.494118 0.537255
0.541176 0.533333 0.576471
0.639216 0.545098 0.54902
0.741176 0.560784 0.552941
0.839216 0.572549 0.564706
0.921569 0.584314 0.568627
0.0156863 0.478431 0.431373
0.156863 0.501961 0.45098
0.317647 0.529412 0.478431
0.454902 0.572549 0.52549
0.564706 0.611765 0.576471
0.670588 0.65098 0.619608
0.768627 0.654902 0.611765
0.862745 0.666667 0.615686
0.941176 0.67451 0.615686
0.0156863 0.568627 0.454902
0.156863 0.592157 0.478431
0.317647 0.619608 0.501961
0.45098 0.65098 0.537255
0.564706 0.690196 0.596078
0.658824 0.72549 0.635294
0.756863 0.729412 0.631373
0.847059 0.741176 0.623529
0.92549 0.74902 0.623529
0.0235294 0.662745 0.482353
0.133333 0.682353 0.498039
0.309804 0.705882 0.533333
0.439216 0.729412 0.572549
0.545098 0.768627 0.615686
0.643137 0.8 0.654902
0.745098 0.803922 0.635294
0.835294 0.8 0.623529
0.909804 0.803922 0.631373
0.0196078 0.733333 0.509804
0.0823529 0.756863 0.537255
0.294118 0.776471 0.564706
0.435294 0.803922 0.596078
0.541176 0.831373 0.635294
0.635294 0.854902 0.662745
0.737255 0.858824 0.662745
0.827451 0.854902 0.643137
0.901961 0.858824 0.631373
0.0235294 0.0509804 0.52549
0.0117647 0.0470588 0.552941
0.00784314 0.0627451 0.529412
0.207843 0.0745098 0.462745
0.352941 0.109804 0.439216
0.482353 0.121569 0.396078
0.592157 0.156863 0.396078
0.705882 0.196078 0.396078
0.792157 0.239216 0.427451
0.0235294 0.113725 0.588235
0.00392157 0.12549 0.596078
0.105882 0.133333 0.556863
0.262745 0.152941 0.529412
0.4 0.180392 0.486275
0.52549 0.2 0.454902
0.623529 0.239216 0.443137
0.72549 0.27451 0.45098
0.811765 0.305882 0.462745
0.0235294 0.196078 0.576471
0 0.223529 0.607843
0.109804 0.254902 0.619608
0.294118 0.262745 0.596078
0.443137 0.286275 0.556863
0.560784 0.305882 0.517647
0.662745 0.329412 0.490196
0.74902 0.364706 0.498039
0.835294 0.392157 0.513725
0.0235294 0.290196 0.54902
0 0.321569 0.588235
0.129412 0.360784 0.631373
0.317647 0.396078 0.654902
0.47451 0.407843 0.619608
0.596078 0.431373 0.572549
0.686275 0.45098 0.552941
0.776471 0.47451 0.560784
0.862745 0.498039 0.568627
0.0235294 0.396078 0.537255
0.00392157 0.423529 0.568627
0.196078 0.458824 0.607843
0.352941 0.498039 0.647059
0.498039 0.533333 0.678431
0.615686 0.552941 0.65098
0.713725 0.560784 0.623529
0.803922 0.580392 0.627451
0.882353 0.592157 0.631373
0.027451 0.486275 0.533333
0.0666667 0.517647 0.556863
0.254902 0.54902 0.584314
0.407843 0.580392 0.635294
0.537255 0.623529 0.670588
0.639216 0.654902 0.705882
0.741176 0.666667 0.686275
0.831373 0.682353 0.686275
0.913725 0.690196 0.690196
0.027451 0.576471 0.537255
0.152941 0.6 0.560784
0.313725 0.623529 0.584314
0.454902 0.654902 0.611765
0.568627 0.690196 0.658824
0.670588 0.72549 0.709804
0.768627 0.764706 0.745098
0.862745 0.768627 0.741176
0.933333 0.776471 0.741176
0.0235294 0.662745 0.556863
0.152941 0.686275 0.580392
0.321569 0.705882 0.607843
0.458824 0.729412 0.631373
0.572549 0.764706 0.678431
0.67451 0.796078 0.717647
0.756863 0.831373 0.760784
0.85098 0.839216 0.760784
0.917647 0.839216 0.74902
0.0235294 0.737255 0.572549
0.172549 0.752941 0.6
0.32549 0.772549 0.615686
0.458824 0.8 0.654902
0.564706 0.831373 0.694118
0.666667 0.854902 0.741176
0.74902 0.882353 0.768627
0.839216 0.886275 0.760784
0.913725 0.886275 0.756863
0.0235294 0.0470588 0.666667
0.0117647 0.0470588 0.670588
0.00784314 0.0627451 0.639216
0.164706 0.0862745 0.6
0.329412 0.0980392 0.545098
0.462745 0.129412 0.513725
0.580392 0.168627 0.509804
0.690196 0.207843 0.482353
0.764706 0.25098 0.498039
0.0235294 0.113725 0.690196
0 0.12549 0.682353
0.0588235 0.133333 0.654902
0.215686 0.164706 0.639216
0.372549 0.176471 0.603922
0.505882 0.211765 0.568627
0.615686 0.247059 0.537255
0.709804 0.27451 0.52549
0.788235 0.313725 0.529412
0.0235294 0.207843 0.694118
0.00392157 0.235294 0.717647
0.00392157 0.262745 0.733333
0.254902 0.27451 0.698039
0.403922 0.290196 0.662745
0.533333 0.309804 0.623529
0.647059 0.337255 0.580392
0.729412 0.368627 0.572549
0.807843 0.4 0.580392
0.0196078 0.313725 0.678431
0 0.333333 0.701961
0.00392157 0.372549 0.733333
0.278431 0.403922 0.752941
0.435294 0.415686 0.72549
0.560784 0.435294 0.682353
0.666667 0.45098 0.65098
0.752941 0.478431 0.635294
0.827451 0.501961 0.631373
0.0235294 0.411765 0.647059
0 0.435294 0.670588
0.0980392 0.470588 0.713725
0.305882 0.509804 0.74902
0.454902 0.541176 0.772549
0.580392 0.54902 0.74902
0.694118 0.568627 0.709804
0.784314 0.588235 0.686275
0.854902 0.596078 0.686275
0.0235294 0.498039 0.631373
0 0.52549 0.654902
0.196078 0.556863 0.690196
0.356863 0.596078 0.729412
0.486275 0.627451 0.768627
0.607843 0.658824 0.807843
0.713725 0.670588 0.772549
0.803922 0.682353 0.74902
0.882353 0.694118 0.741176
0.0235294 0.588235 0.627451
0.0627451 0.611765 0.647059
0.258824 0.635294 0.678431
0.403922 0.662745 0.709804
0.521569 0.698039 0.760784
0.635294 0.741176 0.792157
0.737255 0.764706 0.823529
0.831373 0.776471 0.811765
0.913725 0.784314 0.807843
0.027451 0.670588 0.643137
0.12549 0.686275 0.662745
0.305882 0.709804 0.686275
0.454902 0.733333 0.713725
0.568627 0.764706 0.741176
0.662745 0.803922 0.780392
0.768627 0.835294 0.823529
0.862745 0.858824 0.862745
0.937255 0.862745 0.843137
0.0235294 0.741176 0.639216
0.196078 0.756863 0.654902
0.337255 0.772549 0.682353
0.462745 0.796078 0.717647
0.576471 0.827451 0.752941
0.678431 0.854902 0.788235
0.772549 0.886275 0.831373
0.858824 0.913725 0.87451
0.933333 0.917647 0.862745
0 0.0352941 0.764706
0 0.0431373 0.768627
0 0.0627451 0.741176
0.0901961 0.0901961 0.713725
0.317647 0.0862745 0.643137
0.447059 0.129412 0.619608
0.568627 0.176471 0.596078
0.678431 0.223529 0.576471
0.74902 0.262745 0.572549
0 0.121569 0.780392
0 0.137255 0.776471
0 0.14902 0.756863
0.172549 0.168627 0.741176
0.341176 0.184314 0.698039
0.478431 0.211765 0.670588
0.6 0.247059 0.615686
0.690196 0.290196 0.615686
0.764706 0.321569 0.603922
0 0.223529 0.788235
0 0.247059 0.8
0 0.266667 0.807843
0.207843 0.27451 0.784314
0.368627 0.294118 0.74902
0.509804 0.317647 0.713725
0.627451 0.341176 0.670588
0.713725 0.376471 0.658824
0.784314 0.411765 0.643137
0 0.32549 0.772549
0 0.345098 0.792157
0 0.384314 0.823529
0.215686 0.407843 0.835294
0.396078 0.423529 0.807843
0.533333 0.435294 0.772549
0.643137 0.454902 0.737255
0.741176 0.482353 0.705882
0.803922 0.505882 0.686275
0 0.427451 0.745098
0 0.45098 0.768627
0 0.478431 0.803922
0.254902 0.517647 0.831373
0.427451 0.545098 0.854902
0.552941 0.556863 0.831373
0.662745 0.568627 0.792157
0.752941 0.584314 0.760784
0.831373 0.6 0.741176
0 0.517647 0.721569
0 0.537255 0.745098
0.113725 0.568627 0.780392
0.313725 0.596078 0.811765
0.447059 0.635294 0.858824
0.568627 0.662745 0.87451
0.682353 0.670588 0.85098
0.784314 0.682353 0.823529
0.858824 0.694118 0.8
0 0.6 0.705882
0 0.619608 0.737255
0.203922 0.639216 0.764706
0.356863 0.670588 0.796078
0.486275 0.705882 0.831373
0.6 0.741176 0.878431
0.709804 0.768627 0.898039
0.803922 0.780392 0.878431
0.882353 0.788235 0.85098
0 0.678431 0.709804
0.0588235 0.690196 0.729412
0.266667 0.713725 0.752941
0.411765 0.741176 0.780392
0.52549 0.772549 0.819608
0.639216 0.803922 0.854902
0.741176 0.839216 0.886275
0.831373 0.866667 0.917647
0.909804 0.870588 0.905882
0.0196078 0.737255 0.701961
0.168627 0.756863 0.721569
0.321569 0.776471 0.752941
0.458824 0.8 0.784314
0.572549 0.827451 0.811765
0.67451 0.854902 0.843137
0.764706 0.886275 0.87451
0.854902 0.917647 0.913725
0.937255 0.929412 0.929412
