ImageMetalling-03/ImageMetalling-03/Luts/K64PW-save_highlights.cube
#Generated by Picture Instruments - Look Creator
TITLE "K64PW-save highlights"
LUT_3D_SIZE 17
0.00392157 0 0
0.0980392 0.00784314 0
0.129412 0.0156863 0
0.184314 0.0235294 0
0.235294 0.0235294 0.00392157
0.301961 0.0235294 0
0.356863 0.0156863 0
0.443137 0.00392157 0
0.509804 0.00392157 0.00392157
0.568627 0.00784314 0.00392157
0.627451 0.00392157 0.00392157
0.686275 0.00784314 0.00392157
0.729412 0.00784314 0.00392157
0.780392 0.0117647 0.00392157
0.819608 0.00784314 0.00784314
0.866667 0.0235294 0.00784314
0.901961 0.0235294 0.00784314
0 0.0627451 0
0.0901961 0.0627451 0.00784314
0.129412 0.0627451 0.00784314
0.180392 0.0705882 0.00392157
0.239216 0.0705882 0.00392157
0.298039 0.0666667 0
0.372549 0.0627451 0.00392157
0.443137 0.054902 0
0.509804 0.0509804 0.00392157
0.568627 0.054902 0
0.627451 0.0392157 0.00392157
0.686275 0.0352941 0
0.733333 0.0509804 0
0.780392 0.0627451 0
0.823529 0.0784314 0.00392157
0.870588 0.0862745 0
0.909804 0.0980392 0
0.00392157 0.0901961 0
0.0941176 0.0862745 0.0117647
0.133333 0.0901961 0.0156863
0.180392 0.0901961 0.00784314
0.235294 0.0901961 0
0.298039 0.0941176 0
0.372549 0.0862745 0
0.439216 0.0862745 0.00392157
0.505882 0.0862745 0.00392157
0.568627 0.0862745 0
0.631373 0.0784314 0
0.682353 0.0901961 0
0.733333 0.0980392 0
0.780392 0.105882 0
0.827451 0.117647 0
0.870588 0.12549 0.00392157
0.905882 0.137255 0.00392157
0.00392157 0.121569 0.0156863
0.0823529 0.117647 0.0196078
0.133333 0.117647 0.0156863
0.180392 0.121569 0.00784314
0.239216 0.117647 0
0.301961 0.117647 0
0.372549 0.121569 0.00392157
0.439216 0.121569 0
0.501961 0.121569 0
0.564706 0.12549 0
0.623529 0.129412 0
0.67451 0.133333 0
0.729412 0.141176 0
0.776471 0.156863 0
0.823529 0.160784 0
0.866667 0.172549 0
0.901961 0.188235 0
0.00784314 0.152941 0.0235294
0.0784314 0.152941 0.0196078
0.129412 0.152941 0.0235294
0.180392 0.14902 0.0117647
0.243137 0.145098 0
0.301961 0.156863 0.00392157
0.368627 0.156863 0
0.435294 0.164706 0
0.498039 0.160784 0.00392157
0.564706 0.164706 0.00392157
0.619608 0.168627 0
0.670588 0.184314 0.00392157
0.729412 0.192157 0.00392157
0.768627 0.2 0
0.811765 0.211765 0
0.858824 0.219608 0
0.890196 0.231373 0
0.00784314 0.192157 0.0313725
0.0627451 0.2 0.027451
0.121569 0.2 0.0156863
0.180392 0.196078 0.00784314
0.243137 0.192157 0.00784314
0.309804 0.2 0.00784314
0.368627 0.2 0
0.435294 0.203922 0
0.498039 0.203922 0
0.556863 0.215686 0
0.611765 0.219608 0
0.662745 0.227451 0
0.717647 0.239216 0.00392157
0.764706 0.247059 0
0.811765 0.258824 0
0.854902 0.270588 0
0.886275 0.282353 0
0.00392157 0.239216 0.0352941
0.027451 0.243137 0.0235294
0.109804 0.25098 0.0235294
0.176471 0.25098 0.0235294
0.239216 0.243137 0.0196078
0.305882 0.243137 0
0.368627 0.243137 0
0.439216 0.247059 0
0.498039 0.25098 0
0.556863 0.258824 0
0.615686 0.262745 0
0.666667 0.278431 0.00392157
0.709804 0.282353 0
0.760784 0.298039 0
0.803922 0.305882 0
0.85098 0.313725 0
0.87451 0.32549 0
0.00784314 0.290196 0.027451
0.00392157 0.301961 0.0156863
0.0627451 0.301961 0.0117647
0.152941 0.305882 0.00784314
0.227451 0.301961 0
0.305882 0.301961 0
0.368627 0.298039 0
0.435294 0.298039 0
0.494118 0.305882 0
0.552941 0.309804 0
0.607843 0.313725 0
0.654902 0.32549 0
0.705882 0.337255 0
0.756863 0.341176 0
0.796078 0.352941 0
0.839216 0.364706 0
0.866667 0.372549 0
0.0117647 0.341176 0.0117647
0 0.352941 0
0 0.356863 0.00392157
0.137255 0.356863 0
0.215686 0.352941 0
0.294118 0.356863 0
0.364706 0.345098 0
0.427451 0.345098 0
0.490196 0.34902 0
0.545098 0.360784 0
0.6 0.364706 0
0.65098 0.376471 0
0.705882 0.384314 0
0.745098 0.392157 0
0.792157 0.403922 0.00392157
0.835294 0.415686 0
0.854902 0.415686 0
0.0117647 0.4 0.00392157
0 0.407843 0
0 0.407843 0
0.12549 0.407843 0.00392157
0.215686 0.407843 0
0.290196 0.411765 0
0.356863 0.407843 0
0.427451 0.407843 0
0.482353 0.407843 0
0.545098 0.407843 0
0.592157 0.415686 0
0.65098 0.423529 0
0.698039 0.431373 0
0.741176 0.443137 0
0.776471 0.45098 0
0.827451 0.458824 0
0.858824 0.466667 0
0.0156863 0.447059 0.00784314
0 0.458824 0
0 0.462745 0.00392157
0.00784314 0.466667 0
0.160784 0.47451 0.00392157
0.270588 0.47451 0
0.34902 0.466667 0
0.419608 0.462745 0.00392157
0.478431 0.458824 0
0.533333 0.458824 0
0.592157 0.462745 0
0.635294 0.466667 0
0.686275 0.47451 0
0.729412 0.486275 0
0.772549 0.498039 0
0.827451 0.501961 0.00392157
0.858824 0.501961 0
0.0156863 0.498039 0.027451
0 0.509804 0.0156863
0 0.517647 0.0196078
0.00392157 0.521569 0.0117647
0.105882 0.52549 0
0.243137 0.521569 0
0.333333 0.521569 0
0.411765 0.521569 0
0.478431 0.513725 0
0.533333 0.513725 0
0.580392 0.509804 0
0.627451 0.513725 0
0.678431 0.521569 0
0.72549 0.529412 0
0.776471 0.537255 0
0.815686 0.545098 0
0.847059 0.54902 0
0.0156863 0.556863 0.0705882
0 0.556863 0.0705882
0 0.564706 0.0627451
0 0.568627 0.0470588
0.0588235 0.576471 0.0313725
0.227451 0.576471 0
0.321569 0.572549 0.00392157
0.403922 0.564706 0.00392157
0.47451 0.556863 0
0.529412 0.556863 0
0.588235 0.560784 0
0.631373 0.556863 0
0.686275 0.564706 0.00392157
0.729412 0.568627 0.00392157
0.772549 0.572549 0
0.807843 0.580392 0
0.843137 0.584314 0
0.0196078 0.603922 0.133333
0 0.611765 0.113725
0 0.611765 0.109804
0.00392157 0.615686 0.0784314
0.0941176 0.615686 0.0352941
0.227451 0.615686 0
0.313725 0.619608 0
0.392157 0.611765 0
0.462745 0.611765 0
0.521569 0.607843 0
0.576471 0.603922 0
0.631373 0.603922 0
0.682353 0.603922 0
0.721569 0.603922 0
0.760784 0.611765 0
0.803922 0.615686 0
0.835294 0.619608 0
0.0196078 0.658824 0.188235
0 0.666667 0.172549
0 0.666667 0.164706
0.109804 0.666667 0.14902
0.196078 0.670588 0.117647
0.27451 0.662745 0.0509804
0.345098 0.662745 0.00392157
0.4 0.654902 0
0.466667 0.654902 0
0.52549 0.65098 0
0.572549 0.647059 0
0.619608 0.65098 0
0.670588 0.643137 0
0.717647 0.647059 0
0.760784 0.643137 0.00392157
0.803922 0.647059 0
0.839216 0.647059 0
0.0352941 0.709804 0.25098
0.117647 0.717647 0.247059
0.156863 0.717647 0.239216
0.215686 0.717647 0.227451
0.270588 0.721569 0.207843
0.321569 0.713725 0.168627
0.376471 0.709804 0.113725
0.427451 0.701961 0.0627451
0.470588 0.701961 0
0.517647 0.694118 0
0.572549 0.686275 0
0.623529 0.67451 0
0.670588 0.682353 0
0.709804 0.686275 0
0.760784 0.686275 0
0.8 0.686275 0
0.827451 0.686275 0
0.172549 0.745098 0.309804
0.215686 0.756863 0.305882
0.239216 0.756863 0.298039
0.282353 0.756863 0.286275
0.32549 0.756863 0.262745
0.368627 0.752941 0.223529
0.411765 0.745098 0.172549
0.458824 0.741176 0.121569
0.494118 0.737255 0.0588235
0.52549 0.729412 0
0.580392 0.721569 0
0.623529 0.713725 0
0.670588 0.717647 0
0.709804 0.717647 0
0.760784 0.713725 0
0.8 0.713725 0
0.827451 0.713725 0
0.00392157 0 0.0392157
0.0745098 0.0196078 0.0392157
0.12549 0.027451 0.0313725
0.168627 0.0352941 0.0352941
0.231373 0.0313725 0.0431373
0.298039 0.0313725 0.0392157
0.372549 0.027451 0.0313725
0.439216 0.027451 0.0470588
0.509804 0.0117647 0.0431373
0.572549 0.0117647 0.0470588
0.635294 0.0156863 0.0431373
0.686275 0.00784314 0.0392157
0.741176 0.0235294 0.0196078
0.784314 0.0470588 0.027451
0.835294 0.054902 0.0156863
0.878431 0.0666667 0.0196078
0.901961 0.0823529 0.0196078
0 0.0627451 0.0392157
0.0941176 0.0784314 0.0588235
0.137255 0.0823529 0.0588235
0.196078 0.0784314 0.0588235
0.258824 0.0823529 0.054902
0.32549 0.0823529 0.054902
0.392157 0.0823529 0.0509804
0.458824 0.0745098 0.054902
0.52549 0.0666667 0.0470588
0.588235 0.0745098 0.0509804
0.647059 0.0745098 0.0392157
0.694118 0.0823529 0.0352941
0.741176 0.0980392 0.0196078
0.788235 0.105882 0.0196078
0.839216 0.109804 0.00784314
0.882353 0.121569 0
0.905882 0.137255 0.00784314
0.027451 0.0941176 0.0470588
0.105882 0.101961 0.0666667
0.14902 0.109804 0.0666667
0.2 0.109804 0.0627451
0.262745 0.109804 0.0588235
0.321569 0.109804 0.0588235
0.396078 0.105882 0.054902
0.458824 0.105882 0.054902
0.529412 0.113725 0.0509804
0.584314 0.117647 0.0509804
0.643137 0.109804 0.0352941
0.694118 0.117647 0.0313725
0.741176 0.129412 0.0196078
0.792157 0.137255 0.0156863
0.843137 0.14902 0.00392157
0.882353 0.160784 0
0.909804 0.176471 0.0117647
0.0156863 0.121569 0.0509804
0.0941176 0.137255 0.0666667
0.141176 0.137255 0.0666667
0.196078 0.137255 0.0627451
0.25098 0.137255 0.054902
0.317647 0.137255 0.0509804
0.388235 0.145098 0.0509804
0.454902 0.141176 0.0509804
0.52549 0.14902 0.0470588
0.584314 0.145098 0.0431373
0.643137 0.152941 0.0235294
0.690196 0.160784 0.0235294
0.741176 0.172549 0.0156863
0.784314 0.176471 0.00784314
0.831373 0.188235 0
0.87451 0.203922 0.00392157
0.901961 0.219608 0.0117647
0 0.152941 0.0588235
0.0823529 0.168627 0.0705882
0.141176 0.180392 0.0705882
0.196078 0.172549 0.0588235
0.258824 0.176471 0.054902
0.321569 0.176471 0.054902
0.384314 0.180392 0.0509804
0.454902 0.184314 0.0509804
0.517647 0.184314 0.0392157
0.580392 0.188235 0.0352941
0.631373 0.2 0.0235294
0.686275 0.203922 0.0156863
0.737255 0.219608 0.0156863
0.780392 0.219608 0
0.823529 0.231373 0.00392157
0.866667 0.243137 0
0.894118 0.254902 0.0117647
0 0.2 0.0627451
0.0666667 0.215686 0.0745098
0.133333 0.223529 0.0705882
0.192157 0.223529 0.0705882
0.258824 0.219608 0.0588235
0.317647 0.219608 0.054902
0.384314 0.227451 0.0470588
0.447059 0.227451 0.0431373
0.513725 0.231373 0.0313725
0.568627 0.235294 0.027451
0.631373 0.247059 0.0117647
0.686275 0.25098 0.0117647
0.729412 0.262745 0
0.776471 0.270588 0
0.819608 0.282353 0
0.862745 0.294118 0
0.894118 0.301961 0.0117647
0 0.243137 0.0705882
0.00784314 0.258824 0.0705882
0.109804 0.27451 0.0745098
0.180392 0.278431 0.0745098
0.25098 0.270588 0.0627451
0.317647 0.266667 0.0509804
0.384314 0.266667 0.0431373
0.443137 0.270588 0.0392157
0.505882 0.282353 0.027451
0.568627 0.282353 0.0196078
0.623529 0.298039 0.0156863
0.67451 0.301961 0
0.717647 0.305882 0
0.768627 0.317647 0.00392157
0.819608 0.329412 0
0.858824 0.341176 0
0.882353 0.34902 0.0156863
0 0.301961 0.0627451
0 0.313725 0.0627451
0.0745098 0.321569 0.0666667
0.164706 0.329412 0.0588235
0.247059 0.329412 0.054902
0.313725 0.321569 0.0470588
0.380392 0.32549 0.0352941
0.447059 0.321569 0.0313725
0.501961 0.329412 0.027451
0.560784 0.333333 0.0117647
0.619608 0.337255 0
0.670588 0.34902 0
0.717647 0.360784 0
0.760784 0.364706 0
0.807843 0.372549 0
0.847059 0.388235 0.00392157
0.870588 0.396078 0.0117647
0 0.352941 0.0627451
0 0.368627 0.0627451
0.00392157 0.376471 0.0705882
0.133333 0.384314 0.0627451
0.219608 0.380392 0.054902
0.301961 0.384314 0.0431373
0.376471 0.380392 0.0235294
0.439216 0.372549 0.0117647
0.501961 0.372549 0.00392157
0.556863 0.380392 0.00392157
0.611765 0.384314 0
0.658824 0.396078 0
0.705882 0.403922 0
0.752941 0.415686 0
0.8 0.419608 0
0.839216 0.431373 0
0.866667 0.435294 0.0117647
0 0.4 0.0509804
0.00392157 0.419608 0.054902
0 0.427451 0.0392157
0.113725 0.427451 0.054902
0.219608 0.431373 0.0470588
0.294118 0.435294 0.0235294
0.364706 0.431373 0
0.431373 0.423529 0
0.490196 0.427451 0
0.54902 0.431373 0.00392157
0.603922 0.439216 0
0.662745 0.443137 0
0.701961 0.454902 0
0.752941 0.458824 0.00392157
0.792157 0.462745 0
0.835294 0.47451 0
0.862745 0.482353 0.0117647
0 0.454902 0.0509804
0 0.466667 0.0588235
0 0.470588 0.0627451
0.00392157 0.486275 0.054902
0.192157 0.486275 0.0431373
0.278431 0.490196 0.027451
0.360784 0.486275 0
0.427451 0.482353 0
0.490196 0.482353 0
0.545098 0.482353 0.00392157
0.596078 0.482353 0
0.65098 0.486275 0.00392157
0.698039 0.498039 0
0.745098 0.505882 0
0.788235 0.509804 0.00392157
0.827451 0.517647 0
0.858824 0.521569 0.0117647
0 0.501961 0.0588235
0 0.509804 0.0666667
0 0.52549 0.0705882
0.00392157 0.529412 0.0705882
0.133333 0.533333 0.054902
0.254902 0.541176 0.0352941
0.345098 0.541176 0.0117647
0.423529 0.537255 0
0.486275 0.537255 0
0.537255 0.533333 0
0.588235 0.52549 0
0.635294 0.529412 0
0.690196 0.537255 0
0.733333 0.545098 0
0.784314 0.552941 0
0.823529 0.556863 0
0.847059 0.564706 0.0117647
0 0.54902 0.0901961
0 0.560784 0.0980392
0 0.572549 0.0941176
0 0.580392 0.0941176
0.0784314 0.588235 0.0862745
0.235294 0.588235 0.0588235
0.329412 0.588235 0.0156863
0.415686 0.580392 0.00392157
0.482353 0.572549 0.00392157
0.533333 0.572549 0.00392157
0.588235 0.572549 0
0.639216 0.572549 0
0.686275 0.576471 0
0.729412 0.580392 0
0.776471 0.588235 0.00392157
0.819608 0.596078 0
0.847059 0.6 0.0117647
0 0.607843 0.137255
0 0.615686 0.133333
0 0.619608 0.137255
0 0.619608 0.121569
0.0745098 0.623529 0.0823529
0.215686 0.623529 0.0509804
0.32549 0.627451 0.027451
0.403922 0.627451 0
0.47451 0.623529 0
0.529412 0.623529 0
0.588235 0.619608 0
0.639216 0.619608 0
0.682353 0.623529 0
0.72549 0.623529 0
0.768627 0.619608 0
0.811765 0.627451 0
0.843137 0.631373 0.0156863
0 0.662745 0.192157
0 0.662745 0.184314
0.00392157 0.666667 0.184314
0.0509804 0.670588 0.172549
0.164706 0.67451 0.145098
0.243137 0.67451 0.105882
0.337255 0.666667 0.0588235
0.403922 0.666667 0.00392157
0.466667 0.666667 0
0.521569 0.666667 0
0.576471 0.662745 0
0.635294 0.662745 0.00392157
0.67451 0.654902 0
0.72549 0.658824 0
0.764706 0.658824 0
0.807843 0.662745 0
0.831373 0.662745 0.0117647
0 0.709804 0.254902
0.0666667 0.717647 0.254902
0.129412 0.717647 0.243137
0.188235 0.721569 0.247059
0.247059 0.721569 0.227451
0.301961 0.72549 0.207843
0.364706 0.717647 0.152941
0.415686 0.709804 0.109804
0.470588 0.705882 0.027451
0.52549 0.705882 0.00392157
0.576471 0.698039 0
0.627451 0.694118 0
0.67451 0.694118 0
0.717647 0.701961 0
0.764706 0.698039 0
0.8 0.698039 0
0.831373 0.698039 0.0196078
0.145098 0.752941 0.313725
0.188235 0.752941 0.313725
0.223529 0.756863 0.305882
0.266667 0.756863 0.301961
0.305882 0.760784 0.278431
0.352941 0.756863 0.25098
0.4 0.74902 0.2
0.447059 0.74902 0.152941
0.486275 0.741176 0.0862745
0.529412 0.733333 0.0392157
0.580392 0.729412 0
0.627451 0.721569 0
0.67451 0.721569 0
0.717647 0.72549 0
0.764706 0.72549 0
0.8 0.729412 0
0.827451 0.729412 0.0196078
0.027451 0.0117647 0.0627451
0.0705882 0.0196078 0.0627451
0.101961 0.0313725 0.0588235
0.152941 0.0431373 0.054902
0.203922 0.0431373 0.054902
0.282353 0.0352941 0.054902
0.345098 0.0352941 0.0627451
0.419608 0.0392157 0.0627451
0.494118 0.0313725 0.0666667
0.560784 0.0313725 0.0627451
0.623529 0.0313725 0.0705882
0.682353 0.0235294 0.0666667
0.741176 0.0470588 0.0666667
0.792157 0.0666667 0.0588235
0.831373 0.0823529 0.0666667
0.886275 0.0941176 0.0627451
0.917647 0.113725 0.0627451
0.027451 0.0627451 0.0705882
0.0980392 0.0784314 0.0745098
0.129412 0.0862745 0.0784314
0.188235 0.0862745 0.0784314
0.25098 0.0862745 0.0823529
0.32549 0.0823529 0.0784314
0.384314 0.0862745 0.0784314
0.454902 0.0901961 0.0784314
0.521569 0.0862745 0.0745098
0.584314 0.0941176 0.0745098
0.643137 0.0901961 0.0745098
0.698039 0.0980392 0.0705882
0.745098 0.117647 0.0705882
0.796078 0.12549 0.0588235
0.843137 0.129412 0.0627451
0.890196 0.145098 0.0588235
0.917647 0.160784 0.0588235
0.0392157 0.0823529 0.0705882
0.101961 0.101961 0.0862745
0.14902 0.117647 0.0901961
0.207843 0.117647 0.0941176
0.270588 0.113725 0.0901961
0.337255 0.121569 0.0862745
0.4 0.121569 0.0862745
0.470588 0.121569 0.0823529
0.533333 0.121569 0.0823529
0.592157 0.12549 0.0823529
0.654902 0.129412 0.0823529
0.701961 0.137255 0.0705882
0.752941 0.152941 0.0666667
0.8 0.164706 0.0666667
0.85098 0.164706 0.0705882
0.890196 0.180392 0.0588235
0.917647 0.192157 0.0588235
0.0431373 0.117647 0.0784314
0.109804 0.129412 0.0823529
0.152941 0.14902 0.0941176
0.207843 0.152941 0.0901961
0.270588 0.156863 0.0941176
0.333333 0.156863 0.0823529
0.403922 0.160784 0.0862745
0.470588 0.160784 0.0823529
0.537255 0.168627 0.0862745
0.592157 0.168627 0.0823529
0.654902 0.176471 0.0784314
0.698039 0.184314 0.0705882
0.745098 0.2 0.0666667
0.788235 0.203922 0.0627451
0.843137 0.207843 0.0627451
0.886275 0.223529 0.0509804
0.917647 0.235294 0.0509804
0.027451 0.152941 0.0784314
0.101961 0.176471 0.0901961
0.14902 0.188235 0.0980392
0.215686 0.188235 0.0980392
0.266667 0.188235 0.0941176
0.333333 0.192157 0.0862745
0.4 0.196078 0.0862745
0.466667 0.203922 0.0862745
0.529412 0.203922 0.0823529
0.588235 0.207843 0.0784314
0.647059 0.215686 0.0705882
0.694118 0.223529 0.0705882
0.745098 0.239216 0.0666667
0.788235 0.247059 0.054902
0.843137 0.25098 0.054902
0.878431 0.266667 0.0509804
0.913725 0.278431 0.0509804
0.0235294 0.192157 0.0784314
0.0784314 0.219608 0.0901961
0.137255 0.235294 0.101961
0.203922 0.243137 0.101961
0.266667 0.235294 0.0901961
0.333333 0.239216 0.0862745
0.396078 0.239216 0.0784314
0.462745 0.247059 0.0745098
0.52549 0.247059 0.0745098
0.580392 0.258824 0.0666667
0.643137 0.266667 0.0627451
0.694118 0.27451 0.0588235
0.737255 0.278431 0.0470588
0.784314 0.290196 0.0392157
0.831373 0.301961 0.0392157
0.87451 0.313725 0.0313725
0.901961 0.313725 0.0313725
0.0235294 0.247059 0.0901961
0.0392157 0.266667 0.0941176
0.117647 0.282353 0.109804
0.188235 0.294118 0.109804
0.254902 0.294118 0.101961
0.32549 0.286275 0.0901961
0.388235 0.290196 0.0823529
0.454902 0.294118 0.0745098
0.521569 0.298039 0.0784314
0.576471 0.305882 0.0666667
0.631373 0.309804 0.0588235
0.682353 0.321569 0.0509804
0.733333 0.32549 0.0392157
0.780392 0.333333 0.0313725
0.819608 0.34902 0.0313725
0.862745 0.356863 0.0156863
0.890196 0.364706 0.0117647
0.0235294 0.301961 0.0823529
0.00392157 0.317647 0.0980392
0.0823529 0.337255 0.101961
0.176471 0.34902 0.0980392
0.25098 0.345098 0.0941176
0.32549 0.345098 0.0823529
0.384314 0.341176 0.0705882
0.454902 0.345098 0.0745098
0.509804 0.345098 0.0627451
0.572549 0.356863 0.0588235
0.627451 0.356863 0.0470588
0.67451 0.368627 0.0352941
0.729412 0.376471 0.0313725
0.772549 0.384314 0.0156863
0.811765 0.388235 0.00784314
0.854902 0.403922 0
0.882353 0.407843 0
0.027451 0.356863 0.0862745
0 0.376471 0.0901961
0.00392157 0.384314 0.0980392
0.145098 0.392157 0.0941176
0.231373 0.4 0.0980392
0.313725 0.4 0.0901961
0.384314 0.4 0.0823529
0.443137 0.392157 0.0666667
0.505882 0.396078 0.0588235
0.564706 0.4 0.054902
0.619608 0.403922 0.0392157
0.662745 0.415686 0.027451
0.717647 0.419608 0.027451
0.760784 0.431373 0.00784314
0.803922 0.435294 0
0.847059 0.447059 0
0.878431 0.45098 0
0.027451 0.407843 0.0784314
0 0.431373 0.0901961
0 0.443137 0.0941176
0.105882 0.45098 0.109804
0.219608 0.454902 0.0980392
0.294118 0.458824 0.0901961
0.372549 0.45098 0.0588235
0.443137 0.447059 0.0431373
0.501961 0.443137 0.0313725
0.560784 0.447059 0.0352941
0.611765 0.45098 0.0352941
0.658824 0.458824 0.0156863
0.713725 0.466667 0.00784314
0.74902 0.478431 0
0.8 0.478431 0
0.843137 0.490196 0
0.87451 0.494118 0
0.027451 0.45098 0.0862745
0 0.470588 0.0941176
0 0.482353 0.101961
0.0156863 0.498039 0.105882
0.192157 0.501961 0.101961
0.286275 0.501961 0.0862745
0.368627 0.505882 0.0666667
0.435294 0.498039 0.054902
0.498039 0.498039 0.0392157
0.54902 0.494118 0.0196078
0.603922 0.494118 0.0156863
0.65098 0.505882 0.0156863
0.705882 0.505882 0.00392157
0.752941 0.513725 0
0.792157 0.521569 0
0.839216 0.529412 0
0.87451 0.529412 0
0.0235294 0.501961 0.0862745
0 0.513725 0.0941176
0 0.52549 0.101961
0.00392157 0.537255 0.101961
0.160784 0.54902 0.101961
0.270588 0.54902 0.0862745
0.352941 0.54902 0.0745098
0.423529 0.54902 0.0627451
0.486275 0.54902 0.0313725
0.545098 0.541176 0
0.6 0.541176 0
0.647059 0.541176 0
0.694118 0.552941 0
0.741176 0.560784 0
0.792157 0.564706 0
0.827451 0.568627 0
0.862745 0.576471 0
0.027451 0.54902 0.101961
0 0.564706 0.117647
0 0.572549 0.121569
0 0.580392 0.129412
0.101961 0.588235 0.117647
0.247059 0.592157 0.101961
0.345098 0.6 0.0901961
0.423529 0.592157 0.0509804
0.482353 0.584314 0.00392157
0.537255 0.584314 0
0.596078 0.588235 0.00392157
0.647059 0.584314 0
0.694118 0.592157 0
0.741176 0.592157 0.00392157
0.784314 0.6 0
0.827451 0.603922 0
0.854902 0.607843 0
0.0235294 0.603922 0.145098
0 0.611765 0.14902
0 0.623529 0.156863
0 0.623529 0.141176
0.0784314 0.627451 0.117647
0.235294 0.631373 0.105882
0.329412 0.639216 0.0941176
0.411765 0.635294 0.0705882
0.47451 0.631373 0.0509804
0.537255 0.627451 0.0117647
0.592157 0.631373 0
0.643137 0.631373 0
0.690196 0.627451 0
0.729412 0.627451 0
0.768627 0.635294 0
0.819608 0.643137 0
0.847059 0.643137 0
0.027451 0.654902 0.2
0.00392157 0.666667 0.203922
0 0.670588 0.196078
0.00392157 0.67451 0.192157
0.133333 0.682353 0.176471
0.235294 0.678431 0.141176
0.32549 0.678431 0.113725
0.407843 0.67451 0.0823529
0.470588 0.678431 0.0745098
0.529412 0.678431 0.0588235
0.592157 0.67451 0.027451
0.635294 0.67451 0.00392157
0.686275 0.670588 0.00392157
0.729412 0.662745 0
0.764706 0.670588 0
0.815686 0.670588 0
0.843137 0.670588 0
0.0313725 0.709804 0.262745
0.00392157 0.713725 0.258824
0.0901961 0.721569 0.266667
0.164706 0.72549 0.254902
0.227451 0.729412 0.243137
0.282353 0.72549 0.215686
0.34902 0.72549 0.184314
0.415686 0.721569 0.137255
0.466667 0.713725 0.0705882
0.52549 0.713725 0.0470588
0.584314 0.709804 0
0.631373 0.705882 0
0.682353 0.705882 0
0.721569 0.705882 0
0.768627 0.701961 0
0.811765 0.705882 0
0.843137 0.705882 0
0.133333 0.752941 0.313725
0.164706 0.756863 0.317647
0.203922 0.756863 0.317647
0.243137 0.760784 0.305882
0.286275 0.760784 0.286275
0.341176 0.760784 0.262745
0.388235 0.756863 0.223529
0.435294 0.74902 0.176471
0.482353 0.74902 0.12549
0.52549 0.745098 0.0745098
0.584314 0.741176 0.0117647
0.627451 0.737255 0
0.682353 0.733333 0
0.721569 0.733333 0
0.768627 0.737255 0
0.811765 0.737255 0
0.843137 0.737255 0
0 0.00784314 0.0862745
0.0509804 0.027451 0.0901961
0.0941176 0.0392157 0.0823529
0.133333 0.0470588 0.0784314
0.192157 0.0431373 0.0745098
0.25098 0.0392157 0.0745098
0.32549 0.0431373 0.0823529
0.396078 0.0509804 0.0862745
0.47451 0.0470588 0.0862745
0.541176 0.0509804 0.0862745
0.611765 0.0509804 0.0901961
0.666667 0.0470588 0.0941176
0.72549 0.0705882 0.0941176
0.780392 0.0862745 0.0980392
0.839216 0.0980392 0.0980392
0.882353 0.113725 0.109804
0.901961 0.137255 0.109804
0 0.0666667 0.0941176
0.0862745 0.0784314 0.105882
0.129412 0.0862745 0.0980392
0.168627 0.0901961 0.101961
0.227451 0.0941176 0.0980392
0.301961 0.0941176 0.0941176
0.364706 0.0980392 0.101961
0.435294 0.0941176 0.101961
0.505882 0.0980392 0.101961
0.576471 0.105882 0.105882
0.635294 0.101961 0.0980392
0.698039 0.109804 0.105882
0.745098 0.129412 0.109804
0.796078 0.137255 0.105882
0.843137 0.152941 0.109804
0.894118 0.168627 0.113725
