ImageMetalling-03/ImageMetalling-03/Luts/K64PW-save_highlights.cube
#Generated by Picture Instruments - Look Creator
TITLE "K64PW-save highlights"
LUT_3D_SIZE 5
0.00392157 0 0
0.235294 0.0235294 0.00392157
0.509804 0.00392157 0.00392157
0.729412 0.00784314 0.00392157
0.901961 0.0235294 0.00784314
0.00784314 0.152941 0.0235294
0.243137 0.145098 0
0.498039 0.160784 0.00392157
0.729412 0.192157 0.00392157
0.890196 0.231373 0
0.0117647 0.341176 0.0117647
0.215686 0.352941 0
0.490196 0.34902 0
0.705882 0.384314 0
0.854902 0.415686 0
0.0156863 0.556863 0.0705882
0.0588235 0.576471 0.0313725
0.47451 0.556863 0
0.686275 0.564706 0.00392157
0.843137 0.584314 0
0.172549 0.745098 0.309804
0.32549 0.756863 0.262745
0.494118 0.737255 0.0588235
0.670588 0.717647 0
0.827451 0.713725 0
0.027451 0.0235294 0.109804
0.176471 0.0470588 0.0941176
0.443137 0.0588235 0.105882
0.709804 0.0823529 0.129412
0.901961 0.145098 0.137255
0.0352941 0.14902 0.117647
0.290196 0.227451 0.180392
0.54902 0.243137 0.176471
0.764706 0.27451 0.176471
0.92549 0.313725 0.172549
0.0235294 0.360784 0.141176
0.25098 0.435294 0.211765
0.52549 0.435294 0.172549
0.733333 0.458824 0.164706
0.894118 0.494118 0.168627
0.0235294 0.54902 0.164706
0.156863 0.615686 0.223529
0.498039 0.615686 0.180392
0.705882 0.619608 0.164706
0.878431 0.639216 0.172549
0.027451 0.745098 0.333333
0.227451 0.772549 0.329412
0.478431 0.760784 0.215686
0.694118 0.764706 0.192157
0.85098 0.760784 0.160784
0 0.054902 0.290196
0.133333 0.0627451 0.278431
0.380392 0.0941176 0.211765
0.643137 0.133333 0.231373
0.839216 0.207843 0.282353
0 0.172549 0.301961
0.235294 0.239216 0.376471
0.482353 0.27451 0.321569
0.709804 0.317647 0.329412
0.886275 0.368627 0.368627
0.00392157 0.368627 0.305882
0.317647 0.431373 0.368627
0.564706 0.52549 0.47451
0.768627 0.54902 0.466667
0.929412 0.572549 0.470588
0 0.568627 0.360784
0.290196 0.623529 0.423529
0.529412 0.694118 0.494118
0.737255 0.694118 0.486275
0.901961 0.713725 0.490196
0.0156863 0.741176 0.427451
0.227451 0.776471 0.482353
0.517647 0.827451 0.537255
0.721569 0.831373 0.529412
0.882353 0.827451 0.505882
0.0235294 0.0509804 0.52549
0.00784314 0.0627451 0.529412
0.352941 0.109804 0.439216
0.592157 0.156863 0.396078
0.792157 0.239216 0.427451
0.0235294 0.196078 0.576471
0.109804 0.254902 0.619608
0.443137 0.286275 0.556863
0.662745 0.329412 0.490196
0.835294 0.392157 0.513725
0.0235294 0.396078 0.537255
0.196078 0.458824 0.607843
0.498039 0.533333 0.678431
0.713725 0.560784 0.623529
0.882353 0.592157 0.631373
0.027451 0.576471 0.537255
0.313725 0.623529 0.584314
0.568627 0.690196 0.658824
0.768627 0.764706 0.745098
0.933333 0.776471 0.741176
0.0235294 0.737255 0.572549
0.32549 0.772549 0.615686
0.564706 0.831373 0.694118
0.74902 0.882353 0.768627
0.913725 0.886275 0.756863
0 0.0352941 0.764706
0 0.0627451 0.741176
0.317647 0.0862745 0.643137
0.568627 0.176471 0.596078
0.74902 0.262745 0.572549
0 0.223529 0.788235
0 0.266667 0.807843
0.368627 0.294118 0.74902
0.627451 0.341176 0.670588
0.784314 0.411765 0.643137
0 0.427451 0.745098
0 0.478431 0.803922
0.427451 0.545098 0.854902
0.662745 0.568627 0.792157
0.831373 0.6 0.741176
0 0.6 0.705882
0.203922 0.639216 0.764706
0.486275 0.705882 0.831373
0.709804 0.768627 0.898039
0.882353 0.788235 0.85098
0.0196078 0.737255 0.701961
0.321569 0.776471 0.752941
0.572549 0.827451 0.811765
0.764706 0.886275 0.87451
0.937255 0.929412 0.929412
