ImageMetalling-03/ImageMetalling-03/Luts/Копия filter1.cube
# Copyright 2012, Adobe Systems Inc.
# Created with ADBELUTBuilder Fri 30 Nov 2012 12:21:09
# Film Look Kodak5218 Kodak2383
# Copyright 2012 Adobe Systems
LUT_3D_SIZE 6
DOMAIN_MIN 0.0 0.0 0.0
DOMAIN_MAX 1.0 1.0 1.0
0.0155 0.01485 0.01353
0.24658 0.03114 0.01259
0.52173 0 0
0.6398 0 0
0.71155 0 0
0.75153 0 0
0.02337 0.12593 0.02347
0.17977 0.16292 0.01998
0.40226 0.1997 0.00004
0.60561 0.21638 0
0.74898 0.22062 0
0.85007 0.22299 0
0.0922 0.33862 0.01462
0.26114 0.37602 0
0.46171 0.4179 0
0.66219 0.45065 0
0.8069 0.46908 0
0.91324 0.48126 0
0.23701 0.54639 0.02322
0.36268 0.57345 0
0.5253 0.60749 0
0.70461 0.64076 0
0.83741 0.66205 0
0.94668 0.67852 0
0.39409 0.72029 0.12367
0.47476 0.73649 0.11415
0.60042 0.76147 0.09613
0.74165 0.78788 0.07313
0.86204 0.80867 0.0605
0.96421 0.8254 0.06692
0.52442 0.84819 0.24948
0.58619 0.86013 0.24656
0.68979 0.87986 0.2412
0.78135 0.89663 0.23892
0.88879 0.91555 0.23807
0.97608 0.93041 0.24388
0.00557 0.018 0.15237
0.22838 0.03312 0.15613
0.49082 0 0.15578
0.63904 0 0.15157
0.72844 0 0.15277
0.77243 0 0.16092
0 0.14115 0.15308
0.18749 0.17676 0.16593
0.41999 0.20923 0.17062
0.62489 0.22379 0.16934
0.76793 0.22833 0.17105
0.87094 0.23189 0.17915
0.02185 0.36296 0.20629
0.24942 0.39769 0.20995
0.46515 0.43655 0.20901
0.67041 0.46651 0.20457
0.8199 0.484 0.20387
0.92461 0.49564 0.21067
0.19526 0.57376 0.26045
0.34481 0.59955 0.25994
0.51885 0.63144 0.25705
0.70327 0.66238 0.25227
0.84101 0.6825 0.25121
0.95013 0.69724 0.25575
0.37196 0.74481 0.32499
0.45723 0.75987 0.32422
0.59163 0.78406 0.32232
0.7355 0.80873 0.32032
0.86006 0.82848 0.3209
0.96251 0.84376 0.32588
0.50845 0.86894 0.40858
0.57392 0.88064 0.40852
0.67898 0.89932 0.40828
0.7739 0.9156 0.40928
0.8845 0.93391 0.41169
0.97188 0.94782 0.41762
0.00312 0 0.32557
0.19477 0.00275 0.36592
0.46331 0 0.3885
0.62893 0 0.39188
0.73759 0 0.39395
0.7913 0 0.39707
0 0.16647 0.36296
0.18547 0.1987 0.39663
0.43003 0.22775 0.4184
0.63821 0.24085 0.42744
0.7826 0.24493 0.43208
0.88667 0.2483 0.43751
0 0.39405 0.43246
0.22628 0.42609 0.44863
0.46184 0.46184 0.46184
0.67267 0.48912 0.46865
0.82692 0.50513 0.47205
0.93109 0.51533 0.47586
0.12725 0.60362 0.48699
0.31988 0.62828 0.4939
0.50771 0.65786 0.50007
0.69757 0.68639 0.50417
0.84067 0.70519 0.50657
0.94988 0.71829 0.50976
0.33836 0.77118 0.53552
0.43449 0.78572 0.5379
0.57987 0.80904 0.54106
0.72621 0.83178 0.54334
0.85567 0.85045 0.5454
0.95833 0.86418 0.54836
0.49018 0.89169 0.58584
0.56024 0.90307 0.58729
0.66608 0.92037 0.58916
0.76502 0.93599 0.59074
0.87937 0.95348 0.59291
0.96654 0.96607 0.59593
0.0024 0 0.4521
0.19398 0 0.52317
0.44539 0 0.56342
0.63156 0 0.57799
0.74756 0 0.5841
0.81797 0 0.58842
0 0.18797 0.53018
0.19209 0.21714 0.57895
0.44115 0.24399 0.61279
0.64978 0.2572 0.62861
0.79528 0.26218 0.63582
0.89965 0.2665 0.64086
0 0.4195 0.6147
0.21662 0.449 0.63911
0.46313 0.48226 0.6609
0.67553 0.50789 0.67414
0.83228 0.52334 0.68055
0.93587 0.53306 0.68415
0.06582 0.62679 0.67331
0.30744 0.65042 0.68518
0.50248 0.67795 0.69676
0.69397 0.70463 0.70591
0.84057 0.72273 0.71088
0.94911 0.73493 0.7141
0.314 0.79191 0.71583
0.41943 0.80601 0.72062
0.57336 0.82865 0.72753
0.71937 0.84975 0.73279
0.85244 0.86781 0.73672
0.9544 0.88057 0.73953
0.47724 0.9111 0.75038
0.55112 0.92223 0.75346
0.65551 0.93818 0.75741
0.75776 0.9534 0.76044
0.87518 0.97039 0.76371
0.96135 0.98207 0.76613
0 0.00112 0.55268
0.20647 0 0.63085
0.44807 0 0.67839
0.6396 0 0.69998
0.76582 0 0.71119
0.85012 0 0.7192
0 0.21883 0.64362
0.20651 0.24595 0.69611
0.45422 0.27174 0.73582
0.66145 0.28585 0.75739
0.80786 0.29219 0.76819
0.912 0.29758 0.77503
0 0.44517 0.73384
0.22571 0.47224 0.76146
0.47114 0.5034 0.78861
0.68113 0.52789 0.80686
0.83848 0.54319 0.81685
0.94114 0.55278 0.82212
0.06755 0.64544 0.79542
0.31478 0.66799 0.8105
0.50725 0.69365 0.82579
0.69542 0.71876 0.83884
0.84329 0.73649 0.84694
0.9501 0.74818 0.85167
0.31125 0.80648 0.8368
0.41999 0.82019 0.84349
0.5771 0.84223 0.85341
0.7187 0.86185 0.86118
0.85331 0.87957 0.86756
0.95327 0.89168 0.87152
0.47802 0.92439 0.86521
0.55345 0.93526 0.86936
0.65281 0.94979 0.87448
0.75653 0.96474 0.87924
0.8753 0.98142 0.8842
0.95934 0.99245 0.88727
0 0.07685 0.64413
0.22386 0.08673 0.71662
0.46165 0.09325 0.76642
0.65612 0.08227 0.79232
0.78891 0.06743 0.80645
0.88314 0.06352 0.81642
0 0.26265 0.72775
0.22557 0.2882 0.77746
0.46869 0.3137 0.81908
0.67331 0.32923 0.84407
0.82047 0.33724 0.85774
0.92415 0.3437 0.86631
0 0.47321 0.81404
0.24724 0.49906 0.84255
0.48337 0.52913 0.87193
0.68836 0.55341 0.89326
0.84514 0.56896 0.906
0.94678 0.57821 0.91223
0.115 0.6648 0.87681
0.32761 0.68514 0.89263
0.5187 0.70994 0.91045
0.70018 0.73353 0.92585
0.84794 0.75094 0.93591
0.95243 0.76217 0.94108
0.32407 0.81943 0.91877
0.43148 0.83269 0.9266
0.58799 0.85411 0.93842
0.72225 0.87219 0.94763
0.85706 0.88953 0.95497
0.95424 0.90102 0.9592
0.48869 0.93497 0.94664
0.56389 0.94557 0.95164
0.65551 0.95861 0.95751
0.7594 0.97327 0.96361
0.87682 0.98938 0.96929
0.9596 1. 0.9726
