ImageMetalling-03/ImageMetalling-03/Luts/Копия filter1.cube
# Copyright 2012, Adobe Systems Inc.
# Created with ADBELUTBuilder Fri 30 Nov 2012 12:21:09
# Film Look Kodak5218 Kodak2383
# Copyright 2012 Adobe Systems
LUT_3D_SIZE 21
DOMAIN_MIN 0.0 0.0 0.0
DOMAIN_MAX 1.0 1.0 1.0
0.0155 0.01485 0.01353
0.02882 0.0172 0.01452
0.0887 0.02369 0.0159
0.16349 0.02926 0.01534
0.24658 0.03114 0.01259
0.32654 0.02731 0.00813
0.40885 0.01633 0.00182
0.47331 0.00171 0
0.52173 0 0
0.56167 0 0
0.59093 0 0
0.61577 0 0
0.6398 0 0
0.66312 0 0
0.68592 0 0
0.70073 0 0
0.71155 0 0
0.72182 0 0
0.73219 0 0
0.74219 0 0
0.75153 0 0
0.0176 0.02181 0.01488
0.02605 0.02364 0.01548
0.05189 0.02788 0.01643
0.09427 0.03354 0.01698
0.14898 0.03992 0.01663
0.20703 0.04492 0.0153
0.27219 0.04774 0.0125
0.33181 0.04723 0.00895
0.39148 0.04338 0.00455
0.45374 0.03539 0
0.49474 0.02798 0
0.53592 0.01883 0
0.57758 0.00826 0
0.61326 0 0
0.64073 0 0
0.6678 0 0
0.69452 0 0
0.72084 0 0
0.74085 0 0
0.75472 0 0
0.7679 0 0
0.02047 0.04381 0.01792
0.03338 0.0475 0.01853
0.0617 0.05407 0.01924
0.10077 0.0624 0.01954
0.15059 0.07165 0.01901
0.20501 0.07988 0.01743
0.26383 0.08665 0.01463
0.32654 0.09149 0.01051
0.3816 0.09372 0.00605
0.44009 0.09397 0.00047
0.49704 0.092 0
0.53705 0.08951 0
0.57734 0.08586 0
0.61786 0.08091 0
0.65391 0.07563 0
0.68086 0.07177 0
0.7075 0.0676 0
0.73386 0.06311 0
0.75996 0.05831 0
0.78366 0.05438 0
0.79801 0.05495 0
0.02116 0.08167 0.02106
0.0414 0.08772 0.02156
0.07451 0.09561 0.02186
0.11489 0.10482 0.0216
0.16361 0.11496 0.02039
0.21676 0.1246 0.0181
0.27306 0.13322 0.01466
0.33557 0.14096 0.00967
0.39019 0.14614 0.00447
0.44616 0.15002 0
0.50519 0.15255 0
0.55141 0.15348 0
0.59077 0.15369 0
0.63041 0.15329 0
0.67032 0.15225 0
0.70225 0.15127 0
0.72849 0.15058 0
0.75449 0.14987 0
0.78036 0.1492 0
0.80599 0.14853 0
0.82871 0.14831 0
0.02337 0.12593 0.02347
0.05435 0.13395 0.02353
0.08976 0.1423 0.02318
0.13149 0.15217 0.0221
0.17977 0.16292 0.01998
0.23164 0.17338 0.01675
0.28625 0.18313 0.01235
0.34648 0.19244 0.00637
0.40226 0.1997 0.00004
0.45621 0.20559 0
0.51309 0.21064 0
0.56719 0.21434 0
0.60561 0.21638 0
0.64433 0.218 0
0.68331 0.21918 0
0.72255 0.21994 0
0.74898 0.22062 0
0.77462 0.22126 0
0.8 0.22186 0
0.82516 0.22243 0
0.85007 0.22299 0
0.02764 0.1745 0.02459
0.06772 0.1835 0.02387
0.10851 0.193 0.02257
0.1502 0.2029 0.02055
0.19811 0.2139 0.0174
0.24834 0.22462 0.01322
0.30166 0.23501 0.00786
0.36015 0.24525 0.00095
0.41591 0.25383 0
0.46815 0.26086 0
0.52318 0.26732 0
0.58082 0.27309 0
0.62028 0.2764 0
0.65818 0.2793 0
0.69638 0.2819 0
0.73485 0.28417 0
0.76807 0.28596 0
0.79333 0.28738 0
0.81835 0.28876 0
0.84319 0.29016 0
0.86793 0.29164 0
0.03997 0.22594 0.02362
0.08743 0.23575 0.02183
0.12962 0.24555 0.01944
0.17113 0.25545 0.01635
0.21851 0.26654 0.01198
0.26653 0.27718 0.00674
0.31878 0.28802 0.00021
0.37587 0.29892 0
0.43057 0.30838 0
0.48138 0.31629 0
0.53485 0.32382 0
0.59085 0.33086 0
0.63485 0.33573 0
0.67197 0.33946 0
0.70939 0.34292 0
0.74707 0.34611 0
0.78503 0.34903 0
0.81066 0.351 0
0.83546 0.35301 0
0.86017 0.35516 0
0.8847 0.35728 0
0.06129 0.27992 0.0213
0.11211 0.29027 0.01821
0.15329 0.29965 0.01484
0.19412 0.30924 0.01077
0.23922 0.31973 0.00551
0.28584 0.33018 0
0.33707 0.34111 0
0.3929 0.35226 0
0.44551 0.3619 0
0.49498 0.37022 0
0.54702 0.37829 0
0.60149 0.38602 0
0.64822 0.392 0
0.68452 0.39622 0
0.72115 0.40023 0
0.75817 0.40423 0
0.79553 0.40811 0
0.82606 0.4112 0
0.85059 0.41373 0
0.87493 0.41622 0
0.89909 0.41869 0
0.0922 0.33862 0.01462
0.13969 0.34835 0.01043
0.17965 0.35729 0.00604
0.21963 0.36651 0.00093
0.26114 0.37602 0
0.30698 0.3863 0
0.35733 0.39719 0
0.41212 0.40843 0
0.46171 0.4179 0
0.51003 0.42655 0
0.56084 0.43517 0
0.61403 0.4436 0
0.66219 0.45065 0
0.69782 0.4555 0
0.73384 0.46019 0
0.77021 0.46472 0
0.8069 0.46908 0
0.84122 0.47299 0
0.8654 0.47577 0
0.8894 0.47853 0
0.91324 0.48126 0
0.12807 0.39079 0.01181
0.17129 0.40002 0.00693
0.20898 0.40859 0.00195
0.24411 0.41672 0
0.28395 0.42598 0
0.32859 0.43622 0
0.37771 0.44718 0
0.43127 0.45863 0
0.47673 0.46779 0
0.52392 0.47684 0
0.57356 0.48586 0
0.62552 0.49474 0
0.67377 0.50246 0
0.70867 0.5077 0
0.74399 0.51281 0
0.77968 0.51776 0
0.8157 0.52255 0
0.85201 0.52717 0
0.87676 0.5303 0
0.90042 0.53327 0
0.92396 0.5363 0
0.16585 0.44205 0.01256
0.2052 0.45047 0.00722
0.23713 0.45755 0.00242
0.27008 0.465 0
0.30853 0.47373 0
0.3518 0.48348 0
0.39959 0.49401 0
0.44873 0.50445 0
0.492 0.5132 0
0.53791 0.52211 0
0.58624 0.53107 0
0.63685 0.53997 0
0.68383 0.54775 0
0.71786 0.55306 0
0.75236 0.55827 0
0.78726 0.56344 0
0.82251 0.56848 0
0.8581 0.57338 0
0.88526 0.57708 0
0.90855 0.58025 0
0.93171 0.58339 0
0.20299 0.49413 0.01539
0.236 0.50107 0.01023
0.26623 0.50763 0.00506
0.2978 0.5146 0
0.33488 0.52283 0
0.37682 0.5321 0
0.42334 0.5422 0
0.46616 0.55119 0
0.50826 0.55972 0
0.55297 0.56849 0
0.6001 0.57737 0
0.64946 0.58626 0
0.69415 0.59391 0
0.72736 0.59931 0
0.76109 0.60464 0
0.79526 0.60989 0
0.82981 0.61503 0
0.86471 0.62007 0
0.89358 0.62415 0
0.91649 0.62739 0
0.93929 0.63059 0
0.23701 0.54639 0.02322
0.26791 0.55295 0.01771
0.29663 0.55917 0.01221
0.3269 0.56569 0.0061
0.36268 0.57345 0
0.40339 0.58226 0
0.44607 0.59134 0
0.48425 0.59921 0
0.5253 0.60749 0
0.56893 0.61604 0
0.61495 0.62477 0
0.66318 0.63356 0
0.70461 0.64076 0
0.73705 0.64615 0
0.77006 0.6515 0
0.80353 0.65679 0
0.83741 0.66205 0
0.87167 0.66727 0
0.90166 0.67176 0
0.92422 0.67515 0
0.94668 0.67852 0
0.27547 0.58934 0.03894
0.30396 0.59534 0.03339
0.33078 0.60109 0.02785
0.35929 0.60727 0.02171
0.39333 0.61468 0.01399
0.43236 0.62313 0.00467
0.4662 0.63032 0
0.50302 0.63803 0
0.54271 0.64618 0
0.58501 0.65467 0
0.62973 0.66338 0
0.67664 0.67221 0
0.71368 0.67891 0
0.74529 0.68448 0
0.7775 0.69002 0
0.81023 0.69553 0
0.8434 0.70099 0
0.877 0.70637 0
0.90749 0.71117 0
0.92967 0.7147 0
0.95177 0.71819 0
0.31396 0.63296 0.0668
0.34047 0.63849 0.06212
0.3657 0.6438 0.05718
0.39276 0.64955 0.05128
0.42529 0.65646 0.04362
0.45458 0.6626 0.03684
0.48697 0.66933 0.02914
0.52252 0.67665 0.02046
0.56091 0.68442 0.01083
0.60194 0.69256 0.00037
0.64538 0.70095 0
0.69103 0.70951 0
0.72273 0.71523 0
0.75347 0.72066 0
0.78486 0.7261 0
0.81681 0.73152 0
0.84924 0.73692 0
0.88212 0.74226 0
0.91252 0.74712 0
0.93427 0.75061 0
0.95598 0.75408 0
0.35348 0.67662 0.09519
0.37832 0.68172 0.09168
0.40216 0.68666 0.08804
0.42579 0.69155 0.08424
0.44981 0.69648 0.08029
0.47754 0.70217 0.07541
0.50872 0.70853 0.06947
0.54302 0.71546 0.06231
0.58018 0.72287 0.05367
0.61997 0.73066 0.0435
0.66215 0.73873 0.03247
0.70298 0.74633 0.02209
0.73207 0.75156 0.01688
0.76198 0.75685 0.0119
0.79258 0.76217 0.00723
0.82377 0.7675 0.00297
0.85548 0.77282 0
0.88766 0.7781 0
0.91749 0.78292 0
0.93882 0.78638 0
0.96014 0.78982 0.0024
0.39409 0.72029 0.12367
0.4154 0.72458 0.12124
0.43288 0.72808 0.11924
0.45181 0.73188 0.117
0.47476 0.73649 0.11415
0.50137 0.74184 0.11069
0.53136 0.74784 0.10657
0.56445 0.75441 0.10174
0.60042 0.76147 0.09613
0.639 0.76892 0.08964
0.67997 0.77668 0.08217
0.71339 0.78282 0.07673
0.74165 0.78788 0.07313
0.77075 0.79303 0.06962
0.80058 0.79823 0.06629
0.83103 0.80345 0.06322
0.86204 0.80867 0.0605
0.89356 0.81389 0.05824
0.92236 0.81858 0.05793
0.94328 0.82199 0.06203
0.96421 0.8254 0.06692
0.4267 0.7621 0.15365
0.44381 0.76545 0.15214
0.46041 0.76871 0.15063
0.47848 0.77226 0.14893
0.50043 0.77659 0.1468
0.52595 0.78162 0.14423
0.55481 0.78729 0.1412
0.58676 0.79352 0.13768
0.62156 0.80024 0.13366
0.65895 0.80736 0.12911
0.69755 0.81458 0.12426
0.72397 0.81934 0.12211
0.75141 0.82424 0.12005
0.77973 0.82924 0.11812
0.80881 0.8343 0.11638
0.83856 0.8394 0.11489
0.86889 0.84453 0.11369
0.89975 0.84967 0.11284
0.92711 0.85415 0.11347
0.94762 0.85751 0.11658
0.96818 0.86087 0.12027
0.45876 0.79177 0.1872
0.47478 0.79496 0.18608
0.49036 0.79808 0.18496
0.50737 0.80149 0.18371
0.52812 0.80565 0.18214
0.55235 0.81049 0.18025
0.57987 0.81598 0.17804
0.61044 0.82203 0.17548
0.64383 0.82857 0.17259
0.67984 0.83553 0.16934
0.70891 0.84106 0.16723
0.73438 0.84584 0.16591
0.7609 0.85077 0.16468
0.78834 0.85581 0.16358
0.81659 0.86094 0.16265
0.84554 0.86612 0.16193
0.87513 0.87134 0.16141
0.90529 0.87654 0.16073
0.93074 0.88089 0.16133
0.95083 0.88434 0.1634
0.971 0.88779 0.1659
0.49134 0.82033 0.21944
0.50637 0.82328 0.21858
0.52103 0.82616 0.21773
0.53708 0.82931 0.21678
0.55674 0.83317 0.21557
0.57977 0.83768 0.21413
0.60601 0.8428 0.21242
0.63523 0.84846 0.21046
0.66725 0.8546 0.20823
0.69748 0.86032 0.20627
0.72076 0.86466 0.20528
0.74527 0.86919 0.20432
0.77086 0.87387 0.20343
0.7974 0.87867 0.20263
0.82478 0.88357 0.20195
0.85289 0.88853 0.20141
0.88168 0.89354 0.20104
0.91104 0.89858 0.20086
0.93412 0.90252 0.20195
0.95372 0.90587 0.20393
0.97342 0.90923 0.20626
0.52442 0.84819 0.24948
0.53855 0.85092 0.24883
0.55237 0.8536 0.24819
0.56755 0.85653 0.24746
0.58619 0.86013 0.24656
0.60809 0.86434 0.24546
0.63308 0.86913 0.24418
0.66101 0.87444 0.24269
0.68979 0.87986 0.2412
0.71075 0.88374 0.24057
0.7331 0.88786 0.23997
0.75668 0.89216 0.23941
0.78135 0.89663 0.23892
0.807 0.90123 0.23852
0.83352 0.90593 0.23823
0.86081 0.91071 0.23807
0.88879 0.91555 0.23807
0.91734 0.92042 0.23825
0.93773 0.92389 0.23971
0.95684 0.92715 0.24165
0.97608 0.93041 0.24388
0.01462 0.01582 0.02174
0.0337 0.01876 0.02185
0.10411 0.02582 0.02391
0.18335 0.03085 0.0236
0.27353 0.03116 0.02073
0.35315 0.02516 0.01638
0.42429 0.0139 0.01097
0.47226 0.00305 0.00678
0.51539 0 0.00267
0.55727 0 0
0.59044 0 0
0.6162 0 0
0.64094 0 0
0.66505 0 0
0.68845 0 0
0.70435 0 0
0.71556 0 0
0.72652 0 0
0.73719 0 0
0.74752 0 0
0.75706 0 0
0.0167 0.02198 0.02197
0.02752 0.02415 0.02221
0.05738 0.02869 0.02356
0.10358 0.03461 0.02459
0.15999 0.04074 0.02462
0.21925 0.04526 0.02347
0.28623 0.04733 0.02086
0.34366 0.04613 0.01774
0.40409 0.04146 0.01354
0.46245 0.03333 0.00867
0.50349 0.0256 0.00503
0.54454 0.01592 0.00106
0.58599 0.0047 0
0.61942 0 0
0.64699 0 0
0.67416 0 0
0.70108 0 0
0.72764 0 0
0.74662 0 0
0.76062 0 0
0.77395 0 0
0.01924 0.04163 0.02574
0.03417 0.04568 0.02633
0.06551 0.05249 0.02746
0.10747 0.06104 0.02822
0.15892 0.07017 0.02813
0.21369 0.078 0.02695
0.27398 0.08442 0.0245
0.33506 0.0886 0.02093
0.39093 0.09043 0.01684
0.45021 0.09021 0.01158
0.50349 0.08805 0.0062
0.54373 0.08544 0.00194
0.58421 0.08164 0
0.62499 0.0765 0
0.65898 0.07165 0
0.68621 0.06798 0
0.71317 0.064 0
0.73987 0.05971 0
0.76633 0.05512 0
0.78884 0.05217 0
0.80325 0.05335 0
0.02019 0.0789 0.03057
0.04415 0.08576 0.03137
0.07864 0.09366 0.03209
0.12076 0.10295 0.03233
0.17068 0.11296 0.03165
0.22396 0.12226 0.02987
0.28144 0.13071 0.02686
0.34451 0.13814 0.02232
0.39798 0.143 0.01769
0.45468 0.14672 0.01189
0.5144 0.14905 0.00484
0.55712 0.14994 0
0.59674 0.15024 0
0.63671 0.15 0
0.67698 0.14912 0
0.70712 0.14861 0
0.73371 0.1483 0
0.76004 0.14795 0
0.78616 0.14758 0
0.81204 0.14722 0
0.83364 0.14759 0
0.02275 0.12421 0.03596
0.0567 0.13251 0.03618
0.09438 0.14109 0.03612
0.13681 0.15079 0.03548
0.18603 0.16141 0.03391
0.23793 0.17156 0.03129
0.29351 0.1812 0.02742
0.3548 0.19039 0.02194
0.40903 0.19727 0.01633
0.46365 0.20313 0.01014
0.52123 0.20818 0.00333
0.57246 0.21175 0
0.61123 0.21403 0
0.6503 0.21589 0
0.68964 0.21734 0
0.72789 0.21838 0
0.75403 0.21937 0
0.7799 0.22031 0
0.80552 0.22123 0
0.83095 0.22213 0
0.85614 0.22303 0
0.0275 0.17394 0.04151
0.06946 0.18284 0.04112
0.11203 0.1924 0.04031
0.15454 0.20215 0.03886
0.20329 0.21299 0.0364
0.25353 0.22342 0.03303
0.30772 0.23374 0.02852
0.36715 0.24392 0.02256
0.42163 0.25217 0.01645
0.47454 0.25927 0.00998
0.53025 0.26581 0.0025
0.5875 0.27157 0
0.62539 0.27497 0
0.66362 0.27807 0
0.70214 0.28087 0
0.74095 0.28336 0
0.77275 0.28537 0
0.79826 0.28712 0
0.82354 0.28885 0
0.84861 0.29057 0
0.87348 0.29229 0
0.03612 0.2272 0.048
0.08769 0.23721 0.04686
0.1312 0.24683 0.04523
0.17385 0.2566 0.04293
0.22208 0.2675 0.03952
0.27047 0.27791 0.03533
0.32367 0.28867 0.02984
0.38173 0.2995 0.02284
0.43546 0.30858 0.01574
0.48695 0.31649 0.00846
0.54112 0.32404 0.0002
0.59779 0.3311 0
0.63959 0.3358 0
0.67704 0.33971 0
0.71479 0.34336 0
0.75283 0.34677 0
0.79033 0.34988 0
0.81546 0.35209 0
0.84037 0.35426 0
0.86509 0.35646 0
0.88964 0.35867 0
0.05624 0.28259 0.05387
0.11027 0.29275 0.05178
0.1532 0.30201 0.0493
0.19527 0.31146 0.04616
0.24082 0.32165 0.04201
0.28843 0.33199 0.0369
0.34066 0.34283 0.03043
0.39748 0.35389 0.0224
0.44931 0.3632 0.01452
0.49948 0.37153 0.00646
0.55221 0.37964 0
0.60735 0.38742 0
0.65229 0.3932 0
0.68895 0.39761 0
0.72594 0.40183 0
0.76322 0.40584 0
0.80081 0.40973 0
0.83012 0.41275 0
0.85471 0.41535 0
0.87912 0.41793 0
0.90333 0.42049 0
0.084 0.34268 0.0589
0.13532 0.35226 0.05587
0.17729 0.36105 0.05247
0.21848 0.37007 0.04832
0.26091 0.37937 0.04342
0.30793 0.38955 0.03724
0.35938 0.40035 0.02964
0.41525 0.41152 0.02046
0.46426 0.42066 0.01208
0.51334 0.42929 0.00333
0.56489 0.43781 0
0.61877 0.44612 0
0.66542 0.45279 0
0.70136 0.45762 0
0.73767 0.4623 0
0.7743 0.46682 0
0.81124 0.4712 0
0.84453 0.47502 0
0.86881 0.47787 0
0.8929 0.48071 0
0.91681 0.48353 0
0.11877 0.39691 0.0661
0.16537 0.40599 0.06266
0.20514 0.41443 0.0589
0.24117 0.42229 0.05483
0.28243 0.43141 0.0493
0.32839 0.4415 0.04234
0.37874 0.4523 0.03387
0.43315 0.46353 0.02382
0.47848 0.47236 0.0153
0.52644 0.48128 0.00584
0.57681 0.49018 0
0.62946 0.49894 0
0.67644 0.50628 0
0.71165 0.51148 0
0.74727 0.51655 0
0.78324 0.52147 0
0.81951 0.52625 0
0.85589 0.53084 0
0.87983 0.5339 0
0.9036 0.53696 0
0.92723 0.54003 0
0.15739 0.44836 0.07434
0.19866 0.45652 0.07084
0.23221 0.4635 0.06743
0.26651 0.47085 0.06339
0.30628 0.47947 0.05792
0.3508 0.48909 0.05067
0.39975 0.49949 0.04163
0.44877 0.50955 0.03195
0.49282 0.51819 0.02307
0.53947 0.527 0.01322
0.58851 0.53585 0.00244
0.63978 0.54465 0
0.68567 0.55208 0
0.72003 0.55736 0
0.75483 0.56254 0
0.79001 0.56766 0
0.82554 0.57268 0
0.86138 0.57758 0
0.8877 0.58116 0
0.9111 0.58436 0
0.93436 0.58754 0
0.19465 0.50035 0.08367
0.2295 0.50722 0.0805
0.26109 0.51371 0.07718
0.29384 0.5206 0.07329
0.33212 0.52875 0.06809
0.37519 0.53792 0.06133
0.42281 0.54792 0.05251
0.46541 0.55658 0.04397
0.50827 0.56503 0.03515
0.55369 0.57371 0.02545
0.6015 0.5825 0.01488
0.65151 0.59132 0.00351
0.69523 0.59864 0
0.72877 0.60401 0
0.76281 0.60932 0
0.79727 0.61455 0
0.83209 0.61968 0
0.86725 0.62471 0
0.8954 0.62868 0
0.91843 0.63195 0
0.94135 0.6352 0
0.2286 0.55313 0.0983
0.26112 0.55949 0.09536
0.29108 0.56554 0.09231
0.32243 0.572 0.08876
0.35932 0.57969 0.08407
0.40111 0.58841 0.07804
0.44376 0.59719 0.07115
0.48272 0.605 0.06439
0.52451 0.6132 0.05626
0.56884 0.62169 0.04654
0.61554 0.63035 0.03583
0.6644 0.63907 0.02429
0.70494 0.64598 0.01574
0.73772 0.65134 0.0104
0.77103 0.65667 0.00537
0.8048 0.66195 0.00072
0.83897 0.66716 0
0.8735 0.67229 0
0.90285 0.67657 0
0.92553 0.67989 0
0.9481 0.68318 0
0.26724 0.59678 0.11708
0.29704 0.60274 0.11452
0.32493 0.60844 0.11189
0.35444 0.61456 0.10883
0.38952 0.62189 0.10484
0.4288 0.63009 0.09988
0.46328 0.63716 0.09538
0.50089 0.64478 0.09007
0.54132 0.65284 0.08385
0.58434 0.66123 0.07658
0.62974 0.66983 0.06805
0.6773 0.67855 0.05796
0.71351 0.68492 0.05104
0.74546 0.6904 0.04596
0.77799 0.69585 0.04121
0.81102 0.70127 0.03685
0.84448 0.70663 0.03295
0.87833 0.71192 0.02957
0.90826 0.71652 0.02863
0.93056 0.71996 0.03192
0.95279 0.72337 0.03627
0.30687 0.64004 0.13762
0.3344 0.64552 0.13544
0.36048 0.65079 0.1332
0.38835 0.65649 0.13062
0.4212 0.66322 0.12733
0.45085 0.66922 0.12433
0.48394 0.67589 0.12077
0.52019 0.68313 0.11661
0.55925 0.69082 0.11182
0.60093 0.69887 0.10633
0.64498 0.70717 0.10008
0.69123 0.71563 0.09295
0.7221 0.72105 0.08955
0.75317 0.7264 0.0864
0.78486 0.73176 0.08342
0.81709 0.73711 0.08068
0.8498 0.74241 0.07825
0.88293 0.74767 0.07621
0.91282 0.75234 0.07587
0.9347 0.75576 0.07902
0.95653 0.75916 0.0829
0.34734 0.68337 0.15969
0.37298 0.68843 0.15783
0.39751 0.69333 0.15593
0.42088 0.69799 0.15406
0.44548 0.70288 0.15207
0.47382 0.70852 0.14966
0.50563 0.71482 0.14682
0.54054 0.72169 0.14353
0.57831 0.72903 0.13977
0.61869 0.73674 0.13551
0.66143 0.74473 0.13074
0.70165 0.75204 0.12633
0.73106 0.75721 0.12414
0.76127 0.76243 0.12209
0.79216 0.76768 0.12022
0.82362 0.77293 0.11859
0.85559 0.77817 0.11724
0.88802 0.78338 0.11621
0.91739 0.78802 0.11642
0.93885 0.79141 0.11917
0.96028 0.79479 0.12248
0.38875 0.72672 0.18321
0.40979 0.7308 0.18187
0.42771 0.73427 0.18073
0.44708 0.73804 0.17945
0.47054 0.74262 0.17785
0.49769 0.74793 0.17591
0.52823 0.75388 0.17364
0.56188 0.7604 0.17102
0.59839 0.76739 0.16804
0.63751 0.77478 0.1647
0.679 0.78247 0.16098
0.71176 0.78835 0.15862
0.74031 0.79335 0.15715
0.7697 0.79843 0.15581
0.7998 0.80357 0.15464
0.83051 0.80872 0.1537
0.86177 0.81388 0.153
0.89352 0.81903 0.15259
0.9219 0.82356 0.15324
0.94295 0.82691 0.15579
0.964 0.83025 0.15882
0.42098 0.76808 0.20882
0.43851 0.7714 0.2079
0.4555 0.77464 0.20698
0.47395 0.77817 0.20595
0.49634 0.78247 0.20467
0.52233 0.78746 0.20312
0.55168 0.79308 0.2013
0.58413 0.79927 0.19922
0.61943 0.80594 0.19685
0.6573 0.813 0.19421
0.69538 0.81997 0.19157
0.72208 0.82468 0.19051
0.7498 0.82951 0.18939
0.7784 0.83443 0.18829
0.80775 0.8394 0.18732
0.83776 0.84442 0.18651
0.86834 0.84945 0.18587
0.89943 0.85449 0.18544
0.9264 0.85878 0.18598
0.94705 0.86204 0.18792
0.96773 0.8653 0.19022
0.45388 0.79772 0.23553
0.47023 0.80089 0.23478
0.48612 0.80399 0.23403
0.50345 0.80737 0.23319
0.52457 0.81149 0.23213
0.5492 0.8163 0.23085
0.57713 0.82174 0.22935
0.60814 0.82774 0.22761
0.64195 0.83422 0.22564
0.6784 0.84112 0.22342
0.70687 0.84641 0.22208
0.7326 0.85113 0.22119
0.75938 0.85599 0.22035
0.78707 0.86096 0.21961
0.81556 0.866 0.21899
0.84474 0.8711 0.2185
0.87456 0.87623 0.21818
0.90491 0.88137 0.21804
0.92997 0.88558 0.2189
0.95018 0.88898 0.22073
0.97045 0.89238 0.2229
0.48732 0.82568 0.2622
0.5026 0.82861 0.26163
0.5175 0.83148 0.26105
0.5338 0.83462 0.2604
0.55375 0.83846 0.25958
0.5771 0.84294 0.25859
0.60367 0.84803 0.25743
0.63324 0.85366 0.25608
0.66561 0.85976 0.25456
0.69528 0.86528 0.25331
0.71879 0.86958 0.25271
0.74352 0.87407 0.25216
0.76933 0.87871 0.25168
0.79608 0.88347 0.25129
0.82366 0.88833 0.25101
0.85197 0.89324 0.25086
0.88095 0.89821 0.25086
0.9105 0.90319 0.25103
0.9332 0.907 0.25222
0.95291 0.91031 0.25405
0.97271 0.91362 0.25616
0.52084 0.85325 0.2895
0.53518 0.85597 0.28906
0.54921 0.85863 0.28862
0.56459 0.86155 0.28813
0.58347 0.86513 0.2875
0.60564 0.86932 0.28675
0.63091 0.87408 0.28586
0.65915 0.87936 0.28484
0.6874 0.8846 0.28387
0.70856 0.88845 0.28351
0.73111 0.89253 0.28317
0.75488 0.8968 0.2829
0.77976 0.90123 0.28269
0.8056 0.90579 0.28257
0.8323 0.91045 0.28256
0.85978 0.9152 0.28268
0.88795 0.91999 0.28293
0.91665 0.92482 0.28335
0.93669 0.92818 0.28482
0.9559 0.93139 0.28664
0.97524 0.93461 0.28873
0.0118 0.0177 0.05546
0.03562 0.02091 0.04971
0.10697 0.02759 0.05356
0.18145 0.03206 0.0545
0.26209 0.03276 0.05297
0.33361 0.02865 0.04967
0.40432 0.01935 0.04507
0.4623 0.00729 0.04042
0.5069 0 0.03664
0.55033 0 0.03275
0.58883 0 0.02923
0.61556 0 0.02714
0.64134 0 0.02542
0.66624 0 0.0241
0.69029 0 0.02313
0.70866 0 0.02327
0.72049 0 0.02474
0.73151 0 0.0267
